/* XPM */
static char *_fa5a833f0614fd4e355d92d75840b9dqm8nwkZr4YqyhhH8[] = {
/* columns rows colors chars-per-pixel */
"64 64 211 2 ",
"   c #250000",
".  c #2C0000",
"X  c #340000",
"o  c #3B0000",
"O  c #200F18",
"+  c #251719",
"@  c #2B1E19",
"#  c #2E221D",
"$  c #32241F",
"%  c #2D1720",
"&  c #2C1922",
"*  c #341C26",
"=  c #361D28",
"-  c #3C1D2A",
";  c #332621",
":  c #362A25",
">  c #392C27",
",  c #3B242D",
"<  c #2D2B31",
"1  c #3E2630",
"2  c #430000",
"3  c #4B0000",
"4  c #530000",
"5  c #5A0000",
"6  c #422F17",
"7  c #473319",
"8  c #543C1D",
"9  c #421F2C",
"0  c #43212E",
"q  c #483828",
"w  c #523F26",
"e  c #452331",
"r  c #4B2434",
"t  c #442937",
"y  c #492B38",
"u  c #502637",
"i  c #502837",
"p  c #512738",
"a  c #552A3B",
"s  c #5A2A3D",
"d  c #433631",
"f  c #463934",
"g  c #4A3B35",
"h  c #4C3A3B",
"j  c #5A4428",
"k  c #674824",
"l  c #78542A",
"z  c #694E33",
"x  c #735B39",
"c  c #7C613B",
"v  c #5E2D41",
"b  c #453D49",
"n  c #5E3143",
"m  c #632E43",
"M  c #692F45",
"N  c #653146",
"B  c #693147",
"V  c #663349",
"C  c #6C334A",
"Z  c #73354D",
"A  c #78374E",
"S  c #753751",
"D  c #7B3751",
"F  c #763852",
"G  c #7C3954",
"H  c #7D3D59",
"J  c #44414C",
"K  c #4C4956",
"L  c #674A58",
"P  c #7C415A",
"I  c #7E6542",
"U  c #835C2F",
"Y  c #8A6537",
"T  c #956432",
"R  c #916938",
"E  c #AA7339",
"W  c #A8743A",
"Q  c #942B4F",
"!  c #823A56",
"~  c #853D59",
"^  c #8A3E5C",
"/  c #97385F",
"(  c #A93566",
")  c #B03D72",
"_  c #81594E",
"`  c #84415C",
"'  c #8B415E",
"]  c #91415F",
"[  c #846841",
"{  c #99794C",
"}  c #8D4361",
"|  c #934463",
" . c #994465",
".. c #984868",
"X. c #9C4A6A",
"o. c #9B5967",
"O. c #A4496D",
"+. c #B25077",
"@. c #986A64",
"#. c #B4606F",
"$. c #AC726E",
"%. c #B56879",
"&. c #A77571",
"*. c #AF7571",
"=. c #B37671",
"-. c #B77974",
";. c #BA7B76",
":. c #BD7D78",
">. c #C17E7A",
",. c #DC8005",
"<. c #DDAB08",
"1. c #E7B105",
"2. c #FDD000",
"3. c #EBE615",
"4. c #B3854E",
"5. c #A58353",
"6. c #B4827D",
"7. c #D28D46",
"8. c #E59A4E",
"9. c #E89D51",
"0. c #F7A956",
"q. c #C4817C",
"w. c #C9847F",
"e. c #D5A469",
"r. c #F6B86F",
"t. c #FBFB4A",
"y. c #FFC66E",
"u. c #BC5886",
"i. c #BD628D",
"p. c #BC749A",
"a. c #C15B89",
"s. c #C6708E",
"d. c #C66895",
"f. c #C7759B",
"g. c #C977A1",
"h. c #CD7BA4",
"j. c #D37DA7",
"k. c #B28681",
"l. c #B38984",
"z. c #B68E89",
"x. c #BD8D88",
"c. c #B5928E",
"v. c #BE928D",
"b. c #B69590",
"n. c #BE9691",
"m. c #B99A96",
"M. c #BC84A5",
"N. c #CA8580",
"B. c #CD8984",
"V. c #CE8E89",
"C. c #D08B86",
"Z. c #D38E89",
"A. c #D4928C",
"S. c #C19E99",
"D. c #D39792",
"F. c #D89A94",
"G. c #DEA39C",
"H. c #E0A59E",
"J. c #D387AC",
"K. c #D492AA",
"L. c #D48AB1",
"P. c #D791B6",
"I. c #DC94BA",
"U. c #DD9ABC",
"Y. c #E196BD",
"T. c #DCA7A0",
"R. c #DDAAA4",
"E. c #DEAEA8",
"W. c #DFB1AB",
"Q. c #E0A7A0",
"!. c #E2ABA4",
"~. c #E3AFA9",
"^. c #E4B3AC",
"/. c #E5B7B1",
"(. c #E6BAB4",
"). c #E8BCB7",
"_. c #E7BEB9",
"`. c #E8BEB8",
"'. c #FFDF88",
"]. c #FDE98A",
"[. c #FFF490",
"{. c #E7C2BD",
"}. c #E8C2BD",
"|. c #FEFEBF",
" X c #E39DC3",
".X c #DEA3C2",
"XX c #E2A3C5",
"oX c #E7A9CA",
"OX c #E4ABCA",
"+X c #E4B2CE",
"@X c #EBB6CF",
"#X c #E6B6D2",
"$X c #EAB4D3",
"%X c #EABAD5",
"&X c #ECBCD9",
"*X c #F0B9D4",
"=X c #E7C6C1",
"-X c #E8C7C2",
";X c #E3C4DA",
":X c #EDC4DC",
">X c #F2C3DD",
",X c #F8C8DE",
"<X c #F5CBE3",
"1X c #F6CBE5",
"2X c #FACDE5",
"3X c #F9D2E5",
"4X c #F5D2EA",
"5X c #FBD3EB",
"6X c #FBDAEC",
"7X c #FDE2F3",
"8X c #FDEAF4",
/* pixels */
"X o 3 3 4 3 4 o $.;.;.*.*.*.*.:.:.:.q.=.*.;.:.*.$.;.;.*.*.*.*.:.:.:.q.=.*.;.:.*.$.;.;.*.*.*.*.:.:.:.q.=.*.;.:.*.3 4 4 o X 2 o o ",
"  o 2 2 3 3 3 2 R.^.(.`.}.).).}.~.(.(.!.(.!.^.).R.^.(.`.}.).).}.~.(.(.!.(.!.^.).R.^.(.`.}.).).}.~.(.(.!.(.!.^.).X o o o X . X . ",
"o o 2 X 2 4 2 3 G.G.G.!.^.^.^.^.!.Q.!.!.!.~.!.!.G.G.G.!.^.^.^.^.!.Q.!.!.!.~.!.!.G.G.G.!.^.^.^.^.!.Q.!.!.!.~.!.!.3 X X 3 4 3 X   ",
"  2 3 2 o .     G.Q.!.~.^.^.D.H.!.!.!.!.^.^.^.G.G.Q.!.~.^.^.D.H.!.!.!.!.^.^.^.G.G.Q.!.~.^.^.D.H.!.!.!.!.^.^.^.G..   X 3 X o X   ",
"3 2 X X   o . o W.(.D.!.(._.{.=X}.}.!./.{.{.!.^.W.(.D.!.(._.{.=X}.}.!./.{.{.!.^.W.(.D.!.(._.{.=X}.}.!./.{.{.!.^.3 3 X 3 o o 2 2 ",
"o o X 2 o o o 3 !./.^.!.~.!.^.^.T.!.(.(.}.(.^.(.!./.^.!.~.!.^.^.T.!.(.(.}.(.^.(.!./.^.!.~.!.^.^.T.!.(.(.}.(.^.(.o o X X 4 3 3 o ",
"2 o o o X 4 5 o ^.^./.^.^.!.!.!.R.^.!.!.^.~.!.^.^.^./.^.^.!.!.!.R.^.!.!.^.~.!.^.^.^./.^.^.!.!.!.R.^.!.!.^.~.!.^.. o o .     o o ",
"2 X o X o . o o ^.^.^.^.(.(.~.G.G.!.^.~.^.!.!.!.^.^.^.^.(.(.~.G.G.!.^.~.^.!.!.!.^.^.^.^.(.(.~.G.G.!.^.~.^.!.!.!.2 3 2 X X X o 3 ",
"X . X   o o X   (._.)._.{.=X^.!.g +Xd g d  XY.d g g g d h h u.f.g #.oX> d oX7Xg g 2X+.6Xg g %X6XG.^.G.^.=X=X-X-Xo . o . . X X 2 ",
"o 2 2 2 X o o 2 ^.G.!.^.(./.(.{.$ +XL.w 7 XX.X7 ; 8 oXI.j > @ @ > @ @ g 8 I.8X6 @ 8 :X<Xk d u.7X!.^.^.!.(.^.(.(.2 2 3   . o 2 2 ",
"3 X X X 3 3 3 3 ^./.!./.!.!.!./.*X<X:XM.:Xs.<Xk @ 7.h.f.<X2X4.%Xf.; l 1X&XQ $X8 $ 2XoXI.oX%XJ.<X_.^.!.G.G.G.G.D.3 o X 5     X o ",
"o X 2   2 o o 2 G.H.~.^././.(.!.U.+.P.u.J.%Xf.:X$ E b 1X+XoX5X2X.X7 y.oX$X1X& R $ +Xo.h.I.z :X@.T.~.^.^.).(.^.!.3 2 X 3 2 . X 3 ",
"2 3 X o X X X o ^.(.A.T.^.{.}.-X$ , ].8.XX2X<X@ ; f &X&Xa.( XX# : &Xg.O.j.5X& @ ; d <XU.P.[., & -X(./.).(.=X!.!.X . X X X X X o ",
"3 2 2 2 4 2 2 2 ^.(.(.!.^.!.^.(.d., * = T >X:XY e.& f $X/ Q $X; oX>Xg.A j.R @ j k ; U.,X8.= T L E./.^.~.(.^.(.{.2 2 X o 2 X o 2 ",
"3 4 2 X o     3 ).G.G.H.Q.!.!.!.XX, y.2X3XJ.i.W T * : 2X XU.$X$ U.$XXXf.XX6Xz h ].:X#.1 <X7.8.& R.G.G.!.^././.(.2 o o o 2 2 3 . ",
"X 3 2 3 2 X   X ).(.(.(.(.(.(.^./ * 1X$XoX<X%Xj.$Xf.$XJ._ 7Xr.$ U.4X2XP.i.d.( +XL.3X<X>XU.U.<Xh E.^./.(.(.!./.`.o 3 o o 2 2 X o ",
"3 3 o 2 2   X o ).{.{.}._.).Q.Q..X4X<Xd.( P.>X5X<X6X.Xf.:X5XL.U.> %.# &X<Xg.;X,X>X9.<Xu.%.I.5X@ E.(.G.R.).)._.}.3 3 2 o o . o . ",
"o o o 2 X 3 o o G.!.^.^.).).(.{.; 7 ;Xa.Q p.I.J.@.+X& @ j k Y # : k W k # O , P.P.a.l +./ P.h.: (./.(.).).)._./.X o o o X . X X ",
"o X o X X 3 3 3 T.!.Q.!.!.!.!.!.; e.5XXXU.oX7 P.:Xr.% % t t , ; > l , t t @ % U T U.> $Xg.:X7X> G.G.G.H.H.!.H.H.2 X X 3 o 3 X . ",
"X o 2 o . .     G.~.Q.!.^./._.H.; R - W E , u.7XW 2X$X>X0.1 W ; : k 7., 5XoX<Xg T %Xh.L 7.T W > !.!.~.^./.^.^.H..     2 X X X . ",
"o o X X X 2 3 3 m.S.m.c.k.6.k.v.; 4.+X+.y.2XL.$X@ :Xg.) 6XU.<X; > k oXL oXK. X@ @ >XXX9.&X! 4X: v.z.x.x.k.k.x.S.2 3 o o o o 2 2 ",
"X o 2 o 2 2 4 2 )./.^.(./.(.(.!.<Xi.8.y.T 1 0.U ; 2XP.) 3XoX&X@ : 7 $X,X$X+.U.7X6XU t , ].r.@Xf.R.~.(.).}.(.~.^.o . X   3 2 o 2 ",
"2 o o 3   5 4 X !.!.^.!.!.!.H.H.U.P.2XE y 1 % f.f.5XE $Xy 4.R @ > @ 4.E 6X,X>X2X#.<X= t '.Y >Xh.!.^.!.!.!.G.H.!.2 . o . . X 2 2 ",
"3 3 X o o 5 3 o ~.^.^.^.^.^.!.G.; @ # d g g d #X:Xg g g g d @ @ : +X$ d g 6Xd g +Xg d g g > @ @ G./.!.!.~.^.^.!.3 2 2 2 X 2 o 3 ",
"o 2 X 2 X X . . k.l.l.l.z.z.z.c.n.n.c.m.k.k.k.k.k.l.l.l.z.z.z.c.n.n.c.m.k.k.k.k.k.l.l.l.z.z.z.c.n.n.c.m.k.k.k.k.o o o X X X o 2 ",
"2 2 3 o o X 2 2 /.G.!.~.(.^.^._._.^.^.(.)._.{.^./.G.!.~.(.^.^._._.^.^.(.)._.{.^./.G.!.~.(.^.^._._.^.^.(.)._.{.^.o 3 . X       o ",
"2 X o X o o X o /.).(.(.G.H.G.^.(.~.H.H.H.G.G.H./.).(.(.G.H.G.^.(.~.H.H.H.G.G.H./.).(.(.G.H.G.^.(.~.H.H.H.G.G.H.2 o X 2   o X 2 ",
"2 o . X X   . o G.~.!.~./.).{.!.Q.^.(.(./.^.^.Q.G.~.!.~./.).{.!.Q.^.(.(./.^.^.Q.G.~.!.~./.).{.!.Q.^.(.(./.^.^.Q.3 X 2 X . . X   ",
"o 2 4 . X X X o b.z.z.c.k.k.l.k.l.k.&.k.k.k.k.b.b.z.z.c.k.k.l.k.l.k.&.k.k.k.k.b.b.z.z.c.k.k.l.k.l.k.&.k.k.k.k.b.o X 2 3 o 2 o o ",
"3 2 o X 2 o o o {.{.{.=X^.^.(.^.W.(.^.!.^.^.!._.{.{.{.=X^.^.(.^.W.(.^.!.^.^.!._.{.{.{.=X^.^.(.^.W.(.^.!.^.^.!._.o o 2 X o 2 X o ",
". 3 3 X X . . 2 ^.H.H.H.G.H.Q.H.E.G.G.!.!.!.!.^.^.H.H.H.G.H.Q.H.E.G.G.!.!.!.!.^.^.H.H.G.G.H.Q.H.E.G.G.!.!.!.!.^.3 .   X X X X X ",
". o 2 o 3 o 2 o (.(.(.!.^./.^.!.^._.^.(.^.^.~./.(.(.(.!.^./.^.!.^._.^.(.^.^.~./.(.(.(.!.^./.^.!.^._.^.(.^.^.~./.. 3 3 3 3 2 o 2 ",
"  2 2 2 3   o o x.l.l.l.6.6.6.c.D r m N m ' V v B B V B i s m s m a s m m ! B v B m m Z m m v a b.c.b.b.l.k.k.v.2 3 X X o . o X ",
"2 2 2 o o X X 2 R.!.Q.!.^.^.^./.s N N Z ! Z D D H S ^ B D Z Z N 9 Z Z D ~ r H Z G H ^ 0 S ! Z ! ~.!./.(.(._.^.).X   o o X . . X ",
"X X o o X 2 o o R.^.^.^.~.^.(.(.a G Z ~  .V ' ^ ^ ~ ~ m F ^ Z ! 0 G D |  .a ~ ! S ' } a | ~ H G !.!.!.!.Q.!.!.!.2 X X 2   3 X X ",
"X 3 2 2 . .     E.~.^.^.^.^.^.H.s ^ H } X.V ` H ` ' | F | | ~ ^ r ' ~ | X.B | } | `  .a } | } ~ G.!.^.(.(.^.^.G.    . 3 o X o 3 ",
"X   2 X o o o 2 B.V.V.:.=.=.;.:.b ^ | ` ..N ..' } | +.D ..~ '  .i ] ~ ` X.s } } |  . .n ` | | J 6.:.;.=.$.$.-.;.2 4 4 2 o o o 2 ",
"2 o 2 X o 2 5 3 ^.!.^.(.(._.^.^.K } | ! } H D | ' ' } ! ' ~ ~ C u Z ! ~ ' | } ` H ! H ~ | } ' K ^.^.^.^.).^.Q.^.X . X . X 2 X 4 ",
"X 3 2 4 2 3 3 o ^.^.^.3.t.!.Q.G.! ' X.} | ..} ' | X.| O.}  .' | ! ' ~ | } O.| X.| } | ..| } O.D ~.)./.3.3.!.!.~.X o 2 X . X 2 2 ",
"3 2 o 2 2 4 2 o !.!.~.1.t.^.!.Q.^ | | ! | ' } ^ } ' ~ ~ ^ ! ! ^ H ' ! G ! ~ | ! ] ^ ~ ~ D ! | ~ G./.^.<.|.^.!.!.2 o 3 2 2 2 o 3 ",
"  X 2 o   X X o =.=.=.<.2.=.:.:.] ! ! '  .| } ! ^ | } ! ^ ' ! ~ ^ ~ ^ ~ ~ | ^  .| ^ | ^ ^ ! } D -.:.B.,.2.=.;.-.o o o X .   X 3 ",
"2 2 3 2 3 2 3 2 _.Q.Q.5.5.~.!.(.! H Z Z ! ! ! Z G ~ Z H S Z C N ! M Z Z Z ! ! G Z C F ~ ! Z Z ! {.!.^.x { {././.2 o o X   X o 2 ",
"o o 2 o 3 o o 3 /.{.}.4.[ Q.!./.- r 0 0 s e r * 0 e 0 % - = - - + 0 - - u * e e - 0 i % r - 0 s (.^.~.I { G.H.G.3 X o o 2 3 X . ",
"3 3 o o o 3 2 o R.^./.5.Y `.).!.p m v m C s B s s p s r m r a m 9 m s s Z * s s s M V - M M m C G.!.^.x Y ^.^.^.o X 2 2 o 2 o X ",
"3 4 3 o X X X o :.N.>.{ x $.=.N.a C C Z V u Z m s s m a V s m B - m m m V * v s s m C e m Z Z V q.q.B.z c N.N.w.o X 2 2 4 o X o ",
"3 2 2 X 2 3 2 o (.!.`.[ z /.~./.m C A D G a V B s m C s m m v B - m v V Z = v m B m D r Z V Z D (./.!.z x !.!.(.o o 2 X X 2 2 2 ",
". 2 o 2 o . X . (.H.H.x w !.~.H.m D Z Z ! s Z B B m e s S S y Z - 1 N C D , m m B B H 0 Z Z D D W.!.!.j j !.^.(.o 2 X o o 2 X X ",
"X 2 3 2 2   o o !.^.(.j q (.^.!.K m ! Z H B Z D B N , u C Z 1 Z 9 , V Z Z , M B B H Z 0 ! Z D J /.}.}.q q !.H.~.o 3 4 3 4 o o X ",
".   3 3 o 2 2 o q.:.w.>.>.:.>.w.J Z C G ! C D Z Z S e , , , * V - = , , , , Z C Z F Z - H ! Z b N.w.C.B.B.C.=.w.2 3 . . X o X   ",
"o X 2 o 3 . 2 3 G.H.G.G.!.!.^.!.s V D ! ' C A C D D Z r B v v V e m V m F u F Z C D F 0 G C S B G.G.!.(.^.^.(.^.X o . o X X   X ",
"X X   o   X X   ^.(././.^./.).).C C C F | S C Z H C Z a H C C G 0 Z C D } s Z D V S ! e ~ ! S S ^.^.F.!.!.!.!.!.o X X 2 2 2 o   ",
"X 3 2 o o . .   G.!.F.!.!./.^.!.n ` ` H | C ~ D ~ ^ ^ a | ` } ` i ' ' } O.v ~ ! H H | i ` H S | !.!.(.!.(././.H.. . X 2 o X o 4 ",
"o 2 2 o X 2 2 X Z.A.A.N.=.q.:.>.F | G P X.G | ~ ! ] ] n } } | ..a } } ' O.N ] ^ ' ! | a ..P P } N.w.;.;.:.;.:.;.3 4 2 X X o o 2 ",
"3 o 3 3 X 2 4 3 !.!.~.).).).).!.^ H } } | ^ ~ ' ~ ! H ~ ' H | ! D F ' ' ! D D H ' S ' V H ! ~ ! R.~.~.~.!.!.!.!.o X X .   2 X 5 ",
"o 2 3 X . o X o ^.^./.^.^.!.H.H... .} ~  ...' H | } ^ H | ! |  .` | | } ' ^ ^ ~ ' ' | } ~ }  . .^.(.^.~.!.!.~.~.o 2 2 o X X   2 ",
"3 2 2 2 o 3 o X ~.!.!.~.~.^.!.!.^ D ~ S ~ D D C F C Z V F ^ D Z D ! ~ C D Z H F S S F ~ S D D H R.^.F.!.!.^.!.~.o X o 3 o o o o ",
"o   2 o o X . 2 >.w.q.>.:.=.=.B.! S S H ^ H ^ Z ! Z D C H H ~ D ! D Z F A D F H F Z F ! ~ ! S H q.N.A.q.>.q.N.:.o 3 X X o X . o ",
"2 2 4 2 3 3 3 2 ^.Q.Q.!.!.^.!.^.D Z N S H Z ! ! ! Z Z Z H D M Z Z C D C ~ Z ! Z H H F ! F D Z Z (.H.!.^.F.(.(.^.3 2 5 o .   o . ",
"X 2 2 2 3 2 3 3 ^.(.(.(.Q.!.^./.< 9 - e r - r 0 0 e r = r r 0 e O 0 r e r * r r - e r % - 0 0 < ^.^.!.G.G.G.G.G.2 X 2 2 2 o X X ",
"o 2 2 o X 2 2 2 G.~.F.!./.`./.!.< u p s N r N m m v n r N i M s % B N s N 0 v m M m N * a N p < !.^.V.(.!.!.^.).X o 2 o X X 4 X ",
"2 3     o o o 2 N.C.:.w.>.q.N.C.r m v B m v M B m N Z p C C Z Z 9 Z Z C Z r V N v B N * s a s p C.C.A.A.Z.B.A.A.o X o 2 3 X X   ",
"3 o 3 o 2 4 3 X !.Q.~./.!.!.^.^.a Z m C N a N Z B C ! M G Z V D r B B Z ! 9 N N B N D - s Z Z v ^.!.F.G.!.!.!.^.o o 2 o X X o 4 ",
"X o X 2 2 X   2 (.Q.Q.H.!.!.!.G.s D v Z C s ! Z C Z H s Z M s Z e Z m B F 0 Z C V Z Z r V C V Z /.!.!.!.!.^.!.(.2 2 3 X 2 . X X ",
"4 2 2 o   .   2 G.!.~.^.!.)./.:.9 0 9 e r 0 e 9 - r M 0 - - - 0 - - - - r r 9 - 0 0 v 0 0 9 - N ^.!.).^.^.~.!.!.4 3 . X o 2 2 o "
};
