/* XPM */
static char *_faf40143c5347f2ade8739cb9f12f05ks3ObtFlWmbgEVJA[] = {
/* columns rows colors chars-per-pixel */
"128 128 237 2 ",
"   c #250000",
".  c #2C0000",
"X  c #340000",
"o  c #3B0000",
"O  c #200F18",
"+  c #271819",
"@  c #2B1E19",
"#  c #2E211D",
"$  c #31231E",
"%  c #352A1A",
"&  c #2A1821",
"*  c #2C1A22",
"=  c #331C25",
"-  c #371D27",
";  c #3C1D2A",
":  c #332621",
">  c #362924",
",  c #3B242D",
"<  c #302B2F",
"1  c #382828",
"2  c #3D2731",
"3  c #430000",
"4  c #4B0000",
"5  c #530000",
"6  c #5A0000",
"7  c #422F17",
"8  c #49341A",
"9  c #563D1E",
"0  c #411F2C",
"q  c #6F1B2E",
"w  c #43212E",
"e  c #473726",
"r  c #533F25",
"t  c #452431",
"y  c #4C2434",
"u  c #472A37",
"i  c #512637",
"p  c #532738",
"a  c #57273A",
"s  c #55293B",
"d  c #5B2A3D",
"f  c #463835",
"g  c #4A3B35",
"h  c #662C35",
"j  c #59401F",
"k  c #594328",
"l  c #534236",
"z  c #674925",
"x  c #79552A",
"c  c #6B4C31",
"v  c #695233",
"b  c #765B36",
"n  c #7D613C",
"m  c #3E3B45",
"M  c #5D2D41",
"N  c #443D48",
"B  c #593444",
"V  c #632E43",
"C  c #692F45",
"Z  c #653146",
"A  c #693147",
"S  c #673349",
"D  c #6C334A",
"F  c #73354D",
"G  c #77374D",
"H  c #753750",
"J  c #7B3751",
"K  c #753952",
"L  c #7C3A54",
"P  c #7D3D58",
"I  c #4A4653",
"U  c #6F4A50",
"Y  c #7D405A",
"T  c #6E5B51",
"R  c #855C2E",
"E  c #835F32",
"W  c #8B6435",
"Q  c #966834",
"!  c #976C3A",
"~  c #A36E37",
"^  c #A9743B",
"/  c #B37A3C",
"(  c #94284F",
")  c #803754",
"_  c #823A56",
"`  c #843D59",
"'  c #8A3E5C",
"]  c #953255",
"[  c #A73867",
"{  c #AE386E",
"}  c #86534D",
"|  c #84415C",
" . c #8B415E",
".. c #914856",
"X. c #91415F",
"o. c #9B595F",
"O. c #8D6E47",
"+. c #99784B",
"@. c #AD7D46",
"#. c #8D4361",
"$. c #8B4663",
"%. c #934463",
"&. c #994565",
"*. c #934966",
"=. c #9B4768",
"-. c #954A69",
";. c #9B4B6B",
":. c #9D516F",
">. c #A44A6C",
",. c #AA4B72",
"<. c #B5497A",
"1. c #A75375",
"2. c #B35376",
"3. c #AC726E",
"4. c #B36675",
"5. c #AE7571",
"6. c #AA7975",
"7. c #B27672",
"8. c #B57974",
"9. c #BA7B76",
"0. c #BD757C",
"q. c #BD7D79",
"w. c #C17E7A",
"e. c #B3893F",
"r. c #E19F05",
"t. c #FBF606",
"y. c #EFE21C",
"u. c #B1864F",
"i. c #BF9860",
"p. c #B3837E",
"a. c #C78945",
"s. c #D4944D",
"d. c #E79C4F",
"f. c #EFA455",
"g. c #F5A756",
"h. c #C4817C",
"j. c #C9837F",
"k. c #D4A264",
"l. c #E9B26C",
"z. c #FBB968",
"x. c #F1EE5B",
"c. c #FECB73",
"v. c #B84E81",
"b. c #BC5885",
"n. c #BA678E",
"m. c #C15B8A",
"M. c #C56C8A",
"N. c #C66B96",
"B. c #C8759B",
"V. c #CC7AA3",
"C. c #D27CA7",
"Z. c #B28681",
"A. c #B48984",
"S. c #BD8C87",
"D. c #B68E89",
"F. c #B6928E",
"G. c #BF928D",
"H. c #B69691",
"J. c #BA9894",
"K. c #BC84A5",
"L. c #CA8681",
"P. c #C98A85",
"I. c #CD8A84",
"U. c #D18C87",
"Y. c #C8928D",
"T. c #D4928C",
"R. c #CF8297",
"E. c #C69A95",
"W. c #CF9A94",
"Q. c #D29C96",
"!. c #D89A94",
"~. c #D59F98",
"^. c #C4A19C",
"/. c #D6A29C",
"(. c #DDA39D",
"). c #E0A59E",
"_. c #CE8AAC",
"`. c #D386AB",
"'. c #D78CB3",
"]. c #D793B6",
"[. c #DC95BA",
"{. c #DC9BBD",
"}. c #E199BE",
"|. c #DBA6A0",
" X c #DDAAA4",
".X c #DCAEA8",
"XX c #DDB1AB",
"oX c #E0A7A0",
"OX c #E2ABA4",
"+X c #E3AFA8",
"@X c #E4B1AA",
"#X c #E4B3AC",
"$X c #E5B3AC",
"%X c #E5B5AE",
"&X c #E2A3BF",
"*X c #E6B7B1",
"=X c #E6B8B2",
"-X c #E7BAB4",
";X c #E7BCB6",
":X c #E8BCB6",
">X c #E6BEB9",
",X c #E8BEB9",
"<X c #F9E38F",
"1X c #FEED8E",
"2X c #E7C2BD",
"3X c #E8C2BC",
"4X c #DD9DC1",
"5X c #E29DC2",
"6X c #DDA5C4",
"7X c #D5B3C8",
"8X c #E2A3C5",
"9X c #E4ABCB",
"0X c #E7AACA",
"qX c #E6B2CE",
"wX c #EBB0CE",
"eX c #E5B7D4",
"rX c #EAB4D3",
"tX c #EABAD5",
"yX c #EDBDD9",
"uX c #F1BCD9",
"iX c #ECBEE2",
"pX c #E6C6C1",
"aX c #E8C7C2",
"sX c #E2D9CD",
"dX c #E7C4DA",
"fX c #EDC3DB",
"gX c #F2C4DD",
"hX c #F6C9DD",
"jX c #FAD0DF",
"kX c #F4CBE3",
"lX c #F5C9E4",
"zX c #FACDE4",
"xX c #F4D2EA",
"cX c #FBD3EA",
"vX c #FAD5E8",
"bX c #FDE4F4",
"nX c #F0EEF0",
/* pixels */
"3 4 4 4 3 o 4 o 3 X X . . . o 3 ;X=X2XaX2X2X2XaX>X%X;XaXoXoXoXD..XOX=XOX(.>X|.OX;X-X;X;X>X2X3X;X;X=X2XaX2X2X2XaX>X%X;XaXoXoXoXD..XOX=XOX(.>X|.OX;X-X;X;X>X2X3X;X;X=X2XaX2X2X2XaX>X%X;XaXoXoXoXD..XOX=XOX(.>X|.OX;X-X;X;X>X2X3X;X3 4 X 6 5 6 4 3 3 4 3 3 3 o o X ",
"X X o . 4 4 4 3 5 5 4 3 5 o o o 3.5.9.8.9.8.5.5.5.5.5.5.5.9.q.q.q.q.q.q.h.q.7.5.5.8.9.8.q.h.5.7.3.5.9.8.9.8.5.5.5.5.5.5.5.9.q.q.q.q.q.q.h.q.7.5.5.8.9.8.q.h.5.7.3.5.9.8.9.8.5.5.5.5.5.5.5.9.q.q.q.q.q.q.h.q.7.5.5.8.9.8.q.h.5.7.4 6 6 6 5 o X . X o 3 3 o 3 3 o ",
"    o 3 3 4 3 o 4 3 4 4 4 5 3 X  X@X@X=X-X%X,X3X3X3X:X,X;X@X2X3X+X>X-X*X=X-XOX;X-X(.OX@X%X$X;XF. X@X@X=X-X%X,X3X3X3X:X,X;X@X2X3X+X>X-X*X=X-XOX;X-X(.OX@X%X$X;XF. X@X@X=X-X%X,X3X3X3X:X,X;X@X2X3X+X>X-X*X=X-XOX;X-X(.OX@X%X$X;XF.X X o o o X o X X . . . X X X o ",
". X X 3 3 3 o 3 4 o X 3 3 4 4 3 |.).).(.).OX).).oX(.oXOXOX%X|.(.).(.(.oX(.oXoX$X+XOX).).).oXoXp.|.).).(.).OX).).oX(.oXOXOX%X|.(.).(.(.oX(.oXoX$X+XOX).).).oXoXp.|.).).(.).OX).).oX(.oXOXOX%X|.(.).(.(.oX(.oXoX$X+XOX).).).oXoXp.o X o o o . . .   . . . .     . ",
"o o o o 3 3 X o 3 X 5 o 3 4 4 4 (.OX(.(.(.).OX+X@X@X@X$X%XOX@XOXOX).oXoXOXOXOXOXOXOX+XOXOXOXOX^.(.OX(.(.(.).OX+X@X@X@X$X%XOX@XOXOX).oXoXOXOXOXOXOXOX+XOXOXOXOX^.(.OX(.(.(.).OX+X@X@X@X$X%XOX@XOXOX).oXoXOXOXOXOXOXOX+XOXOXOXOX^.4 3 X X X 3 4 4 6 4 4 o X X X X ",
"o o o X . o . . . o o o o X . . -X2X;X-X=X*X*X*X%X*X=X=X-X>X%X*X=X%X%X+XOXOX).).).OXOXOXOX@X;X^.-X2X;X-X=X*X*X*X%X*X=X=X-X>X%X*X=X%X%X+XOXOX).).).OXOXOXOX@X;X^.-X2X;X-X=X*X*X*X%X*X=X=X-X>X%X*X=X%X%X+XOXOX).).).OXOXOXOX@X;X^.. . X . X o X o   4 4 . X X . . ",
"X . 3 3 4 3 3 3 o . . . . . . . (.oXoX).OXOX+XOX$X@X$X%XW.(.).OXOXOXOXOXOXOXOX$X%X=X%X%X%X@X(.E.(.oXoX).OXOX+XOX$X@X$X%XW.(.).OXOXOXOXOXOXOXOX$X%X=X%X%X%X@X(.E.(.oXoX).OXOX+XOX$X@X$X%XW.(.).OXOXOXOXOXOXOXOX$X%X=X%X%X%X@X(.E.. .   X X 3 4 o X o o X X . . . ",
"o X 3 4 3 o X X o X .         . |.OXOXOX+XOX@X+X@X$X=X2X>X+X(.OXoXOXOX$X=X:X;X:X*X$X@X@X%XOX(.E.|.OXOXOX+XOX@X+X@X$X=X2X>X+X(.OXoXOXOX$X=X:X;X:X*X$X@X@X%XOX(.E.|.OXOXOX+XOX@X+X@X$X=X2X>X+X(.OXoXOXOX$X=X:X;X:X*X$X@X@X%XOX(.E.. o X X . X X o o 3 X . X o .   ",
"4 4 3 o X X X . . o o   . . o 3 XXOX-XOXQ.-XOX+X-X:X>X>X3XpXpX3X3XOX2X2XOX*X*X-X3X;X3XaXOX+X@XE.XXOX-XOXQ.-XOX+X-X:X>X>X3XpXpX3X3XOX2X2XOX*X*X-X3X;X3XaXOX+X@XE.XXOX-XOXQ.-XOX+X-X:X>X>X3XpXpX3X3XOX2X2XOX*X*X-X3X;X3XaXOX+X@XE.4 4 4 X X X 4 3 o . o X o 3 3 3 ",
"o o 3 4 3 4 3 3 o o 4 4 3 3 o 3 L.w.h.L.L.h.9.7.5.7.5.8.3.3.7.9.q.8.8.7.5.5.7.3.7.q.8.5.8.7.9.8.L.w.h.L.L.h.9.7.5.7.5.8.3.3.7.9.q.8.8.7.5.5.7.3.7.q.8.5.8.7.9.8.L.w.h.L.L.h.9.7.5.7.5.8.3.3.7.9.q.8.8.7.5.5.7.3.7.q.8.5.8.7.9.8.4 5 X X X   . o o X o o o o o 3 ",
"X o o o X X 3 X o o o 4 o 4 4 3 OX;X*X$X%X*XOX@X+XOXOXOX@XOX%XS.|.OXOX%X=X=X-X,X3X2X-X%X%XOX=X;XOX;X*X$X%X*XOX@X+XOXOXOX@XOX%XS.|.OXOX%X=X=X-X,X3X2X-X%X%XOX=X;XOX;X*X$X%X*XOX@X+XOXOXOX@XOX%XS.|.OXOX%X=X=X-X,X3X2X-X%X%XOX=X;Xo o o o X . X 4 5 3 3 3 4 4 4 o ",
"o X 3 o o 3 o o 4 o o 3 4 3 o 3 OXOX%XOXOXOX+X=X%X%XoXoXOXOXoXS.%X@XOXOXOX$XOX+X$X@X$X+XOX+X+XOXOXOX%XOXOXOX+X=X%X%XoXoXOXOXoXS.%X@XOXOXOX$XOX+X$X@X$X+XOX+X+XOXOXOX%XOXOXOX+X=X%X%XoXoXOXOXoXS.%X@XOXOXOX$XOX+X$X@X$X+XOX+X+XOXX X . X o X     . X X o X X o o ",
"4 3 o 3 o o o 4 X 5 5 6 6 6 o 3 %X$X%X$X*X*X%X$X@X+XOXOXOXoXOX/.|.$X@X+XOXOXOX+X@X$X+XOXOX+X@X$X%X$X%X$X*X*X%X$X@X+XOXOXOXoXOX/.|.$X@X+XOXOXOX+X@X$X+XOXOX+X@X$X%X$X%X$X*X*X%X$X@X+XOXOXOXoXOX/.|.$X@X+XOXOXOX+X@X$X+XOXOX+X@X$X. o o o o X . .   .   4 o 4 6 4 ",
"o 4 3 3 3 X o o X 3 4 4 4 4 o X @X@X%X@X@X%X$X@X@X@XOXOXoXOX$XW.*X3X=X%X@X+XOXoXoXOXOXOXOXOXOXOX@X@X%X@X@X%X$X@X@X@XOXOXoXOX$XW.*X3X=X%X@X+XOXoXoXOXOXOXOXOXOXOX@X@X%X@X@X%X$X@X@X@XOXOXoXOX$XW.*X3X=X%X@X+XOXoXoXOXOXOXOXOXOXOXX X o o X X o o o o .   X . X o ",
"4 3 X . o o X X o o X 4 o o o X @X@X@X@X@X@X%X*X=X-X=X%X+XOX(./.(.oXOXOX@X+X+X+X@X@XOXOXOXOXOXOX@X@X@X@X@X@X%X*X=X-X=X%X+XOX(./.(.oXOXOX@X+X+X+X@X@XOXOXOXOXOXOX@X@X@X@X@X@X%X*X=X-X=X%X+XOX(./.(.oXOXOX@X+X+X+X@X@XOXOXOXOXOXOX3 5 4 3 3 o X X X X X o 3 o o 4 ",
"3 4 o 4 3 3 3 o o . o o 4 o 4 o @XOXOXOXOXOXOXOXOXOXOXOXOX).).G..X@X$XOXOXOX+XOXOX@X=X=X%X$XOX@X@XOXOXOXOXOXOXOXOXOXOXOXOX).).G..X@X$XOXOXOX+XOXOX@X=X=X%X$XOX@X@XOXOXOXOXOXOXOXOXOXOXOXOX).).G..X@X$XOXOXOX+XOXOX@X=X=X%X$XOX@Xo X X . o 3 o X 3 o X 3 3 3 3 4 ",
"3 X . . X o   o o o o X X o . o -X=X>X2X;X;X>X2X2X3XaX2X%X%XOXG.g vXqX6Xf g g 2 f cX5X,.}.vXf f g g g vXf [.f f g f g f b.} B.f f V.4.[ 0Xg 1 f f g 0X8XbXg g f g f zX0X2.'.vXf g f g f tX8XcXg /.).%XOX(.>X@X=XaXpXpXaXaXaXaX3Xo X . X o . . X . o X . X X o 3 ",
"3 o 3 3 3 3 3 3 3 . . . X X 3 X 8.3.3.5.7.5.5.7.7.5.7.8.9.q.9.9.> xXN.>.8XkX: # $ @ # rXrX@ @ # $ @ $ gX{ 2.0XcX$ + @ @ fXn.0XgX1 &X0X6X+ @ + # @ fXR.n.8X> @ # @ # # gX8X# xX$ @ : @ rXB.<.tX> 9.9.8.q.L.I.L.9.h.h.q.q.L.h.8.q.X o o 3 X X X X X o X X X X X 3 ",
"o o 3 4 3 3 3 o X . o o o 4 3 o %X).(.OXOXOX@X$X-X;X*X=X-X@X2X3X$ kXqX<.`.1 r z 8 kX8XtX8X9 8 @ : 7 9 b 0XB.[.9 k k 2 @ @ @ @ @ > + @ @ + 2 g j 9 0X].8XbX9 7 > @ 8 9 tXfXqXkX8 z r f ].v.{.bX@ OX*X@X X@X%XOX=X-XOX@X@X=X%X-XW.3 4 3 4 4 . .   . . o X 3 3 3 . ",
"4 4 3 o 4 4 4 4 3 4 4 o 4 4 4 4 =X-XOXOXOXOXOX+X%X@XOXOXoXOX+XOXfX0X].0XrXQ k.z R {.G 6X0Xx 9 # $ +.R kXV.,.V.x ! R W 9 1 @ @ : fX+ @ : 8 x Q ! x 8X[ M.yXR u.$ @ 9 x 0XqXG V.kXz k.! eXrX{.0XfX$XOX+XoX(.oXoX@XOX@X).OX).oXT.W.4 4 4 3 o 3 o o . . . . . o 3 3 ",
"3 4 X . X 3 X X 4 o 4 3 4 3 4 4 $X-X*X$XOX%X*X3XOXoXOXOXOX$X*X:XuXkXzXfXfXqXK.tXfX6XM.{.zXhXz > @ 8 a.gXV.2.B.gXlXlXxX~ u.: tX'.N.eX: +.x lXlXgXyX'.] b.rXs.9 1 $ k zXxX0XB.[.fX0X{.tXqX`.cXkXjX,X*X%X+XOXOX(.(.(.(.(.).(.).T.~.4 4 o o X 5 6 .   .   o X X o 4 ",
"o o o o o o o 3 4 4 o 3 4 3 4 4 .X-X@X@X@X@X@X@XoX(.OXOX@X$X@XOXgX[.8XkXtX<.B.fXg.fXqX6X'.tXx : : x a.s.fX{.rXbXtX0XtX~ W 7 eXB.8X0X2 x Q gXuX8XvXhX{.0X* R W > @ z yX{._.6XzX_.tX'.,.0XfX8X[.tXOXOXOXOX(.OX(.(.(.).(.(.(.OX%XQ.o o X X o o 4 3 o X o . . . X o ",
"o o X 4 3 o . 3 3 . o 4 o X 3 5 (.).).oX+X+X$X%X*X*X*X*X-X;XOXoX{.R.<.kX].q b.8X`.<.tX] B.0XfX: $ E / * N lXlXU wX{.0X/ cXzXzX0X6XvX7 cXc.rX0X8XtXyXlXeX* u.W 1 $ 9 qXB.o.{.V.2.{.].c `.fX`.o.].oXOX+X@X@X%X$X-X;X*X=X*X%X%XOXW.4 3 3 o X 4 4 o 3 3 . 3 X X X 3 ",
"o X 3 4 3 3 3 4 3 o . X o X X o |.OX@X@X$X$X*X%X%X-X3XaX2X:XOXOXhX].0XQ s.6X7X6X[ ( gX8X6X6XfX$ @ g x , B cXyX5X`.{.4Xn.uXuX# @ cX: wXzX`.{.}.`.`.rXcX0X= R b @ @ f 0XV.{.6X,.' '.gX]./ s.gX6X0X@XOX@X%X%X=X=X*X$X@X+X@X$X+X@XW.3 3 3 3 3 4 o o X .     3 6 6 4 ",
"o 3 4 o X X o o X X X X X o o o @X$X-XOXT.OX|.OX%X;X2X2X2XaXaX2X$ > , , 1X0Xd.qX8X[.zXkXfXe @ # : $ f & yXcXyX'.m.4.[ m.8XlX$ @ > @ yX8XV.[ >.,.C.rXcXfX* * @ # : @ f fXkXvX{.{.].qX1X1X, , * : aX2X-X$X*X+X;X2X=X2XaXaXOXOXOXG.X . . . X o X o X X X X X o X . ",
"o 3 . X 3 3 . . X 3 3 3 3 o 3 o q.7.h.j.j.q.8.8.7.3.8.q.h.I.L.U.bXvXu - , / d.d.vXzXx x k @ @ 8 8 > B B W wX5XC.R.h q m.wXcX: + > @ vXrXB.( h &.N.4X8XbXB B : 8 8 $ @ f x x a.zXf.g.f.g = u U cXh.L.j.I.U.I.U.I.L.I.L.L.p.q.9.9.o o o X X 3 3 3 4 3 X X o o o o ",
"3 4 3 4 3 3 3 4 5 4 3 3 3 3 3 3 %X>X-X-X-X>XOX=X@XOXOXOX@X@X-XF.N.> , R = = - ^ Q W gX{.fX# W z k.W * * f W wX`.] 0.( ,.rXwX: tX0X@ gXtXV.( G ] C.0XQ 7 @ + k u.z u.: kX{.].hXW d., - * Q 2 U [..X%X*X*X@XW.+X@X=X*X%X=X-X@X2X3X3 3 3 o X o o o 3 X X 4 o . o o ",
". 4 4 3 X 3 3 3 X 3 4 o 3 o o o OX+XOXoX(.).oX+XOX).).).(.).oXD.4.8XT z.c.u 2 * + 7X`.] N.tX^ c.z.l., $ $ bXyX[.`.<.M.'.0XN.rXv.[ cXV.0X{.N.,.C.[.rXcX> @ , 2 z.c.u.dX'.] b.6X+ , 2 u c.z.B rX`.=XoX).).(.OX).).OX(.oXOXoX+X@XOXo o o o o o o X o 4 4 4 3 3 3 3 ",
"5 4 6 4 3 X X X o o . .   3 4 4 ;X).(.(.(.).).oXoXoXOXOXOXOXOXJ.8X: , @.c.a.zXgXzXO _.=.n.yX~ 1XQ u = cX> vXzXrX5X1.{.wXrX'.$ [.[.lXrXyX8X'.B.5X8XzXcX1 c I u l.1X/ fX_.4.v.2 gXlXlXs.c.d.: * 8X|.oX(.(.(.OXOX%X%X*X*X%X*X=X=X=X3 4 o . o . o 3 3 o 3 o 4 4 6 5 ",
"    X . X X 4 3 X . X X X o o 3 *X@XOX).).OX).oXOXOXOXOXOX@XOXJ.zXzXu Q s.c.lX{.gXcXtX0X_./ lXzX<Xc.B 0XrX> zXrXrX6XzXzXzX! $ $ bX@ z cXzXvXqXeXrXzX: cXrX0X2 <Xz.gXa.6X6X6XeXtX0XyXz.s.W 2 jX6X>X=XOXOXOXOXOXOXOXOX@X%X*X*X*X*Xo 5 4 3 3 3 . 4 X X o X . o X . ",
"X X 4 3 3 o 4 4 3 o X . . . X X ;X-X-X:X-X=X-X-X-X:X-X-X=X=X%XJ.] ].* lXlXqXrX].0XgXlXzXtXg.C.`.rXrXB.4.rXB.`.'.} V.bXzXz.gX$ wX{.$ xXzXzXbX].o.n.rXN.lX[ R.wXlX'.{ vXa.zXzXgX0X[.rX4XlXlXO g [ .XOX%X$X*X*X=X:X-X*XOX%X*X=X,X,Xo 4 4 3 o 3 o X 3 o 3 o X X . . ",
"X o o 3 3 o o o 4 3 o X X o 3 4 @X(.@X*X=X=X*X%X*X=X*X%X$XOXOXH.4._.eXyXlX0XB.}.8X[.wXlX1X^ m.M.z.a.'.{.gXh kX{.'.6XtXzXwXV.0X].B.rX`.[.vXyXqX].6XfXT N.8Xm.a.g.`.{ ^ 1XuXtXn.{.[.C.5XyXlXU ].1..X%X=X*X;X:X$X).(.(.OX%X$X@XOX@X3 4 X 6 5 6 4 3 3 4 3 3 3 o o o ",
"  4 4 3 o o 3 3 3 X .   X 3 o 3 ;X=X2XaX2X2X2XaX>X%X;XaXoXoXoXD.6X+ xXcXzX8XN.&.[ v.].cXgXf.cXuXzXhXbXsX{._.B.yXfX[.cX# '.U }.{.1 wX4.<.# lXyXyXkXB.V.{.dX7XhXxXgXrXd.1XlX6Xb.] 0.b.[.fXcXlX@ 6X.XOX=XOX(.>X|.OX;X-X;X;X>X2X3X;X4 5 4 4 3 X o 3 o o . o o X X o ",
". X o o 3 5 6 5 5 6 6 5 5 4 3 3  X/./././././././././.~././././.: $ zXzX5X'.[ ..c [ 5XzXkXqXzXvX6XtXg.u 2 W 6X@ cXf g f hX`.cX$ > cX0XuXf g f zX@ qXfX, 2 g.gX_.vXzX'.yXcX0Xb.U c R.C.}.rXqX> tX/.|./././././././.~./././.~.|.F.o . X 3 o X X X o X X . . . . . ",
"X X o o o 4 3 3 X 3 4 o o X o o /.OXOXOX@X@X%X-X;X;X:X=X=X>X2X$X: @ 7 8XyX5Xm.] ( b.n.9 [.M.`.0X3._.qX2 & + @ @ k 9 z u.W x # @ > @ z R @.z z k # @ O + , fX].Y ].'.M.C.x b 2.( &.M.].rXV.+.> # =X*X*X*X=X;X;X>X;X>X;X;X>X=X*XF.X . o o o 3 o X X X . X X o . . ",
"X o 4 4 3 3 3 o X 4 4 4 5 4 4 4 *XOXOXOXOXOXOXOX+X@X%X*X-X,X@XOX# : 8 gXcX0X[.N.N.'.8XlXV.h {.qX<.n.d.+ O - + k x <Xa.Q ; W # @ 1 # b , Q / 1XR c * , O = z.{.N.6X4X..<.wX0X'.N.v.'.5XlXbX9 > $ OXoXOXOXOX+XOXOXOXOX).OXOXOX%XH.o X X . X o o X 3 o o . .     X ",
"o X X X o X X o X 4 4 o 4 4 4 o |.%XOXoXoX).OXOXOXoXOXOXOX@XOX).: @ k.bXcXlX8X5X{.8X0X> 7 8X].c.fXfXl.* * @ * t t t u , , ^ : : 1 @ x - , u u 2 u O @ * * l.R fXQ z.{.8 1 tXrX}.V.5XfXzXbXu.1 : (.).(.(.(.).).(.).oXOXOX(.(.(.S.3 3 X . X X 4 4 o 4 4 3 X X o X ",
"o o o X 3 o X X X 3 o X X X X . .X).OX@X+X%X%X%XOX:X=X*X|.OX+X$X: @ ! / zXcXrX! cXvXzXkXlXlXW / x l.bX7X& uXlXcXu , s.c.c.x # : > # k c.c.c.= u 7XuXgX* B bXk.~ @.Q lX: hXvXvXvXQ rXlXcXW x > @ %X*X%X$X@X+X+XOX(.+X$X*X=X-X$X^.  . . X .   . . . X X X o X X . ",
"X X o 4 3 3 o o . X . . .   . . /.(.+X+XoX+XOXOX@XOX*X;X>X).).OX: + W Q , = ~ ~ / dX, '.b.8XbXz ! xXzXzXrX'.lXzXg., 2 a.~ x : @ > $ z W s.a., * cXuX0XrXlXcXf x W 9 tXC.V.g T ~ s./ Q = ^ ! > $ OXOXOX@X+X@X$X%X*X%X$X$X@XOX).E.. X . . . 3 3 X X X X X X . . X ",
"    o o X X .   o 3 . .     . .  XOX+XOXOXOX@X-X-X;XOX~.OX$X|.(.$ @ @.x 0X{.{.hXc.d.zX[ ] V.@ k c @ gXwX`.B.`.0X/ , fXa.W z # : 1 + 9 d./ fX7X/ 8X'.v.V.0XuXbXl W @ `.M.( tXs.c.z.0X_.6XR u.> @ ).I.(.OXOX$X%X%X$X(.+X@XOX@X).E.. X X X X   X . o X   X 3 . . . ",
"o o o o X X . . X X 3 X 4 4 4 4 J.E.E.^.J.A.F.D.Z.Z.p.Z.Z.S.G.G.: # u.R qX>.,.8Xc.f.zXrX'.0XrX+ @ @ iX8XB.n.{ }.vXB {.8XkXx : > 1 : z lX0X`.U bXwX<._.b.5XrX@ @ @ tXgXV.8XlXd.c.tXn.) {.xX@.> # G.Z.D.D.S.S.S.Z.Z.p.Z.S.S.J.E.E.3 4 4 4 o o o 3 X X o 3 3 o o X ",
"3 o 3 4 5 6 5 6 5 X o 6 6 3 4 5 ~.~.~.~./.|./.(./.~.(.Q.~.W.Z.G.: @ yXhXtX{.`.~ a.z.u gXtX, x @ @ r dX].b.h o.0XwX4XU b.s.u.# @ > @ i.a.`.o.B.gX8X,.o.4.`.0X9 $ @ f 2 lXgXu f.a.u.[.{.].kXtX> @ ~.~./.P.(.(.(.(.~.~.~.~.Q.Q.Q.Q.4 o o 3 3 X . o o o X X o 3 o 3 ",
"X . o 3 3 X o X o o 3 3 6 6 3 . ;X*X*X$X*X-X=X=X*X=X=X=X=X@XOXY.kXV.n.&Xd./ c.1XQ s.2 u f.x E zX: k zX[.'.R.{ rXvXvX0X0XuX8 @ @ > @ 8 x rX8XhXbXrXb.<.B.{.rXbX: vXc R d.u , , s.<Xz.z.d.rXB.B.yX XOX+X$X=X-X:X2X2X2X=XOX+X*X%X$Xo X . . X X . . 4 o 3 o o o X o ",
"3 4 3 o X o X 3 6 . . . X 4 o 6 >X=X-X,X=X-X@X+XOXoXOX+X+X@X>XE.rXb.) [.lX^ ~ d.f.u u = d.~ 6X`.6XlXlX8X}.5X`._.bX~ <Xs.~ e @ : > # f x a.1X~ nXyX'.}.`.5XyXlX8X_.{.<Xd.= u u d.g.~ ~ c.{.4.>.0XaX:X-X-X*X%X$X$X=X:X3X3X,X,X:X,X4 o . X X o X . . X   3 X X X 3 ",
"3 3 o o o 3 4 4 . 6 6 6 6 4 X X OXOXOXOX@X+XOXOXOXOXOXOX).(.).W.{.V.].tXzXR / s.u t , = & yXB.h B.zXcXlX^ kXrXxXu ^ u.a.W @ @ $ 1 @ @ +.u.z.^ u.cXlXhX^ gXzXlX{.4.[ kXa.= 2 u u <X/ W k.gX`.V.{.OX$X$X@XOXOXOXoXOXoX(.(.(.).OX).3 X . 3 o X . . . . X 3 3 o 6 4 ",
"4 3 3 3 3 . o X X o 3 3 4 4 o X OX$X%X%X%X*X;X=X*X=X%X$X%X%XOXW.: fXkX> O.x z W + 1 k., u kX[.2.8XlXx W z bXvXbX@.l.k +.# @ @ # > @ @ @ n j l.! l.cXbXz W x 8 8X2.'.fXl.u O R @ O z x b > kXkX$ .XoXOXOX|.OXOX(.OX+XOXOXOXOXOXOXX o   . X X .   .   o o o 3 . 3 ",
"o 4 4 . o X o X o . 6 3 4 5 o X +X@X@X@X@X@X@X@X@X$X%X$XOX(.(.W.: @ @ @ # 1 f f g g f g f f eXqXfX7Xg f g bXg g g f f $ @ qX@ # > @ qX0X$ $ f g g cXcXg f g g kX0X0Xg f f g f g g f > $ @ @ @ $ /.OX*X%XOX@XOXOX+X@X@X$X%XOXOXOX4 3 3 3 3 4 3 3 X o 3 o o X o 3 ",
"3 3 o X . o o X X 3 4 X X X 3 o OX).).(.).OXOXOXoX).).OX).).).S.> @ @ tX$ @ # : # @ wX<.rX@ @ # @ $ > @ # fX@ : : @ # hXV.2.{.kXrX0Xb.,.wX@ $ @ : @ lXcX# : : $ @ @ @ yXN.5XzX@ : : @ @ # # $ > .XOX%XOXOXOX+X*X=X=X@XW.!.@X@X$XX X X X X 3 . . 3 3 3 4 4 5 4 4 ",
"X o 3 o X o 3   X o X X . X . X Z.A.Z.Z.A.Z.Z.D.D.D.D.A.D.H.F.E.G.G.G.J.F.F.J.H.Z.Z.Z.Z.Z.Z.Z.p.Z.A.Z.Z.A.Z.A.D.D.D.D.A.D.H.F.E.G.G.G.J.F.F.J.H.Z.Z.Z.Z.Z.Z.Z.p.Z.A.Z.Z.A.Z.A.D.D.D.D.A.D.H.F.E.G.G.G.J.F.F.J.H.Z.Z.Z.Z.Z.Z.Z.p.o o o X o X X . X X X o o 4 3 o ",
"3 3 4 4 4 4 o o . o 3 X .   4 . XX(.(.(./.(././.(./.~.~./.Y./././.Q.~././.|.|.|./././././.~. XW.XX(.(.(.(.(.(.(.(./.~.~./.Y./././.Q.~././.|.|.|./././././.~. XW.XX/././.(.(.(.(.(./.~.~./.Y./././.Q.~././.|.|.|./././././.~. XW.X X X o o X o o X o o o X X 3 3 ",
"o 3 3 4 4 4 o o o X X o 3 3 3 4 *X(.(.oXOXOX+X%X=X=X%X@X%X;X>X,X>X@X@X@X@X%X=X;X;X+X>X>X3X-X%XW.*X(.).oXOXOX+X%X=X=X%X@X%X;X>X,X>X@X@X@X@X%X=X;X;X+X>X>X3X-X%XW.*X(.(.|.OXOX+X%X=X=X%X@X%X;X>X,X>X@X@X@X@X%X=X;X;X+X>X>X3X-X%XW.o o 4 o . o X X . o       X X 3 ",
"3 3 o 4 o 3 5 4 6 6 5 o 5 5 5 4 pX,X3X>X>X>X>X;X,X=X=X-X-X:X-X:X>X-X-X-X$X%XOXoX).oXOXOX+XOX=XW.pX,X3X,X>X>X>X;X,X=X=X-X-X:X-X:X>X-X-X-X$X%XOXoX).oXOXOX+XOX=XW.pX,X3X>X>X>X>X;X,X=X=X-X-X:X-X:X>X-X-X-X$X%XOXoX).oXOXOX+XOX=XW.3 3 3 3 X o 3 o . . . . . 3 3 o ",
"X 3 X X o o X 3 o 4 o X X X o 3 =XpX;X=X=X%X=X$X(.).).(.(.).@X@X-X=X+XOX).(.).).).!.(.).(.(.).W.=XaX;X=X=X%X=X$X(.).).(.(.(.@X@X-X=X+XOX).(.).).).!.(.).(.(.).W.=XpX;X=X=X%X=X$X(.).).(.(.oX@X@X-X=X+XOX).(.).).).!.(.).(.(.).W.3 4 o X X 3 o 3   o o 3 X o . X ",
"4 o o 3 3 3 3 3 6 3 o 3 3 3 4 3 (.OX).(.).OXOXOX+XOXOXOX+X@X+X).).OXOX+XOXOXoXOXOXOXOX@X$XY.$XQ.(.OX(.(.).OXOXOX+XOXOXOX+X@X+X).).OXOXOXOXOXoXOXOXOXOX@X$XY.$XQ.(.OX).(.).OXOXOX+XOXOXOX+X@X+X).).OXOXOXOXOXoXOXOXOXOX@X$XY.$XQ.3 3 X X o X 3 3 3 3 o .   . o 3 ",
"3 3 o . . X X   X X . . . . o o (.(.+X@XOX@X+X%X*X-X;X2X2X>XOX).oXOX@X*X=X=X=X=X*X$X$X$X@X+XoXY.(.(.+X@XOX@X+X%X*X-X;X2X2X>XOX).oXOX@X*X=X=X=X=X*X$X$X$X@X+XoXY.(.(.+X@XOX@X+X%X*X-X;X2X2X>XOX).oXOX@X*X=X=X=X=X*X$X$X$X@X+XoXY.4 3 X X 3 3 X . . . . 3 X X 4 4 ",
"X X o 3 o 3 3 4 o X . o X o X o |.OX*X*XOX@X@X;X;X;X@X(.OX-X=XOXOXOXoXOXOX!.@X%X@XOXOXOXOXOXOXQ.|.OX*X*XOX@X@X;X;X;X@X(.OX-X=XOXOXOXoXOXOX!.@X%X@XOXOXOXOXOXOXQ.|.OX*X*XOX@X@X;X;X;X@X(.OX-X=XOXOXOXoXOXOX!.@X%X@XOXOXOXOXOXOXQ.o o o 3 4 4 o o X o . X . X X . ",
"o o 3 5 5 5 . 3 X X X X X o o X H.F.D.H.D.Z.F.D.Z.Z.Z.Z.A.A.Z.Z.A.D.Z.Z.6.6.Z.A.Z.Z.Z.Z.Z.F.H.S.H.F.D.H.D.Z.F.D.Z.Z.Z.Z.A.A.Z.Z.A.D.Z.Z.6.6.Z.A.Z.Z.Z.Z.Z.F.H.S.H.F.D.H.D.Z.F.D.Z.Z.Z.Z.A.A.Z.Z.A.D.Z.Z.6.6.Z.A.Z.Z.Z.Z.Z.F.H.S.o X X X 3 4 4 o o 3 3 o o o . X ",
". 3 5 4 3 3 4 . X o X o o o X o /.Y./.(.~././.Q.W.~././.(.~.|.E..X/.~.Y.~.~.~././.(.(././././././.Y./.(.~././.Q.W.~././.(.~.|.E..X/.~.Y.~.~.~.(./.(.(././././././.Y./.(.~././.Q.W.~././.(.~.|.E..X/.~.Y.~.~.~././.(.(./././././.o 3 4 4 3 4 o   o o o o X o o o ",
"3 4 3 X o 4 X 3 3 4 o X o o o o 2X>X3X>X2X2XaX:X$X%X%X%X=X%X%XH.XX+X=X*X$X+XOX$X$X$X$X$XOX$X>X;X2X>X2X>X2X2XaX:X$X%X%X%X=X%X%XH.XX+X=X*X$X+XOX$X$X$X$X$XOX$X>X;X2X>X2X>X2X2XaX:X$X%X%X%X=X%X%XH.XX+X=X*X$X+XOX$X$X$X$X$XOX$X>X;Xo o o 4 3 o X o o 3 3 X X X o o ",
"3 . 3 o X 3 o o 3 o 4 4 3 o o 3 >XOXoXOX).OX(.).(.(.(.(.).OX-XJ.2XOXOXOX+X+X$X@X%X*X%X+X-X,X-X-X>XOXoXOX).OX(.).(.(.(.(.).OX-XJ.2XOXOXOX+X+X$X@X%X*X%X+X-X,X-X-X>XOXoXOX).OX(.).(.(.(.(.).OX-XJ.2XOXOXOX+X+X$X@X%X*X%X+X-X,X-X-X3 3 3 4 X o o X o 3 o 3 3 3 3 o ",
"X . 4 3 4 o X X X X . . . o 3 4 %X(.).).).).).(.(.(.).OXoX).).Z..X+X(.).(.(.OXOXOXOXOXOXOX+X$XOX%X(.).).).).).(.(.(.).OXoX).).Z..X+X(.).(.(.OXOXOXOXOXOXOXOX$XOX%X(.).).).).).(.(.(.).OXoX).).Z..X+X).).(.(.OXOXOXOXOXOXOXOX$XOX4 3 . . . 3 X o X o X X X 4 6 X ",
"    . . o o 3 o o X X X X X 3 o %X3XOX+XOX+X@X+X@X%X=X-X,X*X$XH..XOX).(.).oXOXOX@X$X+X$X%X*X%X%X%X3XOXOXOX+X@X+X@X%X=X-X,X*X$XH..XOX).(.).oXOXOX@X$X+X$X%X*X%X%X%X3XOXOXOX+X@X+X@X%X=X-X,X*X$XH..XOX).(.).oXOXOX@X$X+X$X%X*X%X%X3 3 4 4 o X X o X X o X . X . X ",
". . o 3 3 o o o 4 o X . 3 3 o   -X;X-X:X=X+XOX%X%X*X*X*X@X$XOXH.%X%X>X;X$X-X-X-X%X%X%X*X+X%X*X*X-X;X-X:X=X+XOX%X%X*X*X*X@X$XOXH.%X%X>X;X$X-X-X-X%X%X%X*X+X%X*X*X-X;X-X:X=X+XOX%X%X*X*X*X@X$XOXH.%X%X>X;X$X-X-X-X%X%X%X*X+X%X*X*X. 3 4 3 4 4 4 6 4 3 3 o o X X o ",
"X o o o 3 o o 3 4 3 o X X X X 3 (.~.~.OX@X*X$X$X%X%XOXOXOXOXOXF.XX@X=X=X+X=X+XOX+XOXOXY.!.@XOX@X(.~.~.OX@X*X$X$X%X%XOXOXOXOXOXF.XX@X=X=X+X=X+XOX+XOXOXY.!.@XOX@X).~.~.OX@X*X$X$X%X%XOXOXOXOXOXF.XX@X=X=X+X=X+XOX+XOXOXY.!.@XOX@X3 3 4 o o 5 4 3 4 o 4 o o 3 X 3 ",
"3   3 3 3 3 3 3 4 X . . o X o 3 S.A.A.A.A.Z.Z.D.p.p.p.p.p.F.F.F.J y y d V M Z V V Z  .Z S M M A A M A Z S A A Z s d d d V d d V V d a d d d V d V | _ Z A V M M A V V V V  .F V V Z V d M a a F H.F.F.J.H.D.H.F.Z.Z.Z.Z.Z.A.G.S.3 5 4 3 X o X X o X . . o X X . ",
"X o 3 o . 4 4 5 6 6 6 6 6 5 4 o %X3XpX2X3X2X2X+X).).OXOXOXOX3X2Xd _ _ L F ' #. .%.p D &.P P _ ' ' '  .#.=.d M ;.P ' J _ L J H w ; L F L _ ) ' %.%.H t ;.&. .' ` ' ' ' L  .` ; ;.#. .` F L H _ D ,XaX,XpX2XpX@X=X2X+X;X,X>X%X>XJ.X X o X X X X X X X . . . . . X ",
"X 3 3 3 3 3 o 4 o X X X X X 3 3  X@XOXOXoXOXOXOX$X+X$X%X@XOX*X@Xd ` Z J Z L F H _ p F %.H ' H L L F H L ' a A %.H _ F F F F Z y 0 _ F F F F L J ` L t ' L L F _ J D L L ' _ w %.H F _ Z F Z _ F +X@XOX%X*X:X=X-X-X@X>X>X%X-X;XD.X 3   o o 3 o X X X . X .   . . ",
"3 4 5 5 3 3 4 3 X 3 3 3 4 4 4 o -XOXOXOXOXOXOXOX@X@X@X%X*X-X$XOXV ` L _ Z H H _ X.p F _ ` L H _ ' _ L ` X.d Z =.H J L _ J D _ y w ' Z L _ L _ _ %.H y &.` H L ` _ ` ' ` _ ` t >._ H _ Z H L H D oXOXOXOXOXOX+XOX@X+XOXOXOX+X@XF.o X X . . X X 4 4 3 X . . . . X ",
"o X X 3 o X o o X 4 3 o o X o o  X$X%X@X$X$X@X@X+X@X$X*X-X*X-X+Xa _ J ` F L ' %.&.C S %. .%.' L ' _ ` ' ` A V >.L  .' _ F L _ a w X.J F H _ %. .&.S a %.` _ _ ` H `  .' #._ a ,.%.` ` A L G J F OXOXOXOXOXOXOXoXoXOXOXOXOXOXOX^.3 4 X X X X 3 o . o 4 3 X o o o ",
"o o X 3 4 3 o o o 3 3 . . X X X .X@X+XOXOXOX%X-X=X:X-X=X:X+XOX@XV ` ` _  .%. ._ %.V H ;._ ` _ H P L _ ' %.J Z ,.%.&.' J `  .' d t ' ` P _ L &._ ;.H M %.%._ _ P P L ` P %.| s >.P P L _ ` _ ` S $X@X@X@X@X@X@X@XOX%X*X*X%X-XoXE.. . X . X . o . . X o X X X . X ",
"X X 4 4 3 3 3 X . o . .         .XOX+XOX$XOX$X+X@X$X%X%X%X(.).(.d ' ' $.P &.$.&.;.D S ,.|  .P  .|  . .%.%.L H 2.&.&.%._ ` %.' s y %. .P ` %.&.%.;. .A ;.&.#.$._ %.| | P &.| d >.#.` &.#.#.' ` S (.oXOXOX%X*X-X:X=X*X%X$X$XOX(.Y.    . . . 5 4 o o o X . o . X X ",
"o X .   . . . o     .   . . o X  X).OX;XOX+X|.(.W.-X%X;X>X%X).U.s ' %.&.|  .%.$.%.Z Z ,.#.=. .%.$.P %.;.;.H K 2.;.$.X. .P | %.V s =. .P %.X.=.*.>.| M >.%. .$.$.$. .&. .>.P u *.;.-.X.P &.=.` A (.T.I.).oX(.).(.).%X=X;X3XaX>XE.X . X X X o o .   o o   X o 3 4 ",
"X X . o 3 X X X o X o . o 3 3 4 I.U.U.T.U.j.9.7.8.9.8.9.9.9.q.h.N < ' ;.&.Y | | *.K Z 2.*.%. . .$.| %.;.,.D H ,.*.| ` ' X. .&.V i ;.X._ ` ` | %.;.| d 1.$. .$. .%. .&.;.&.P M ;.| Y %.Y *.&.I m p.q.q.9.9.9.7.3.3.3.3.7.8.8.9.L.3 4 6 6 6 3 3 3 o o o o o X X X ",
"4 3 X 3 6 4 4 3 3 . o 3 6 6 6 6 ;XpX>X3X2X2XOXOX-X=X$X$X-X$X=X^.I I | | | P F P P D M ,.K  .P F | P P | %.M S $.Y F D H H _  .s u  .J H H D K Y | K i ;. .P | P P P P | | H d | _ H K K K | I I @X-X>X-X;X;X3XOX).).OXOXOXOX;X2X3 o o o X X X X X o o 3 4 5 4 3 ",
". 3 o 3 3 3 X o o 3 3 3 6 5 4 X %X%XOX*X%X=X=X(.-X3X>X;X@X=X@XG.I I #._ %.#._ $.#.#.P _ H H %.`  . . .#.#.#._  . .| ` _ ` J D s p D F _ _ ' `  . .P %.%.#.| | #.L %._ _ L #.` %.&. .$.#. .$.I I $X*X@X$X$X$X%XOX;X=X%XOXoXOX$X%XX X . X X o . . X 3 3 X X X X o ",
"3 3 o o o o X o 4 3 3 3 5 o X 6 ,X,X:X:X=X*X=X%X$X$X@X@X+X@X:XE.I I P 1.1.:.:.1.1.:.;.-.$.$.-.-.:.;.-.*.1.1.;.;.-.-.-.-.$.$.*.H D $. .| ;.;.-.-.:.1.1.-.;.*.;.1.;.-.*.$.$.1.;.:.-.-.:.-.:.| I I aX,X:X=X*X%X%X%X=X-X:X:X-X:X,X:X4 3 X o . X X . . . o 3 o o . 6 ",
"3 X 4 o 3 3 5 X 3 o 4 6 4 X o X +X@X$X$X*X*Xy.t.x.r.OXOXoX).(.Q._ D  .&.;.&.#.#.%.;.=.%.#.&. .%.&.;.;.%.&.>.>.%.$.` &.'  . .%. ._ &. .' ` &.%.$.#.;.>.&.%.>.=.;.%.&. .%.%.,.-.#.&.' #.;.>.#.J L +X=X;X*X=X%Xy.t.t.r.OXOXOX+X+XOXX 3 o X 3 o X X . X X 3 3 X 4 5 ",
"3 3 3 3 . X . X X X 3 4 5 6 4 3 @X$X$X%X%X%Xy.t.x.r.=X%X@XOXoXW.' ' ` %.%.` #.' | _  .| L #.` _ ` ' '  . .#.' %. .H ` _ H '  .` ` %.#. .P ' _ `  .` %. .%.` ' ' `  ._ L H  .` J L  .J &.%._ ' ` |.@X@XOXOXOXy.x.t.r.+XOXOXOX+X@X3   . o 3 3 4 X 3 4 3 3 3 3 o 3 ",
"3 4 3   o o 3 o 3 5 6 5 3 3 o 4 OXOXOXOXOX@Xr.t.x.<X$X+XOXOXoXY.' ' %.&.%.' _ H %._  . .#.` '  .#.%. .%.` ' ` _ ' ` _ ' _ ` ' ` L  . ._ ` ' J ' _ _ _ ' %.` _ ' X.` ' P ' ' `  .J F _ &.%.%.' #.(.$X%X@X*X@Xr.t.sXnX@XOXOXOXOXOX3 X o 3 4 4 3 3 3 3 3 3 o o X 3 ",
"3 o 3 o . o X X X X X X X X o . (.).(.(.(.).x.y.x.y.%X%X-X2X>XG.' L ' '  .J _ L &.' %.` %._ ' H ' #.' ` %.#._ ' ` ) _  .L J %.' '  ._ L X.%.) ' _ L ` ' ' _ ' ' ' _ ` L  . .L ' ' ` L  .X.X._ _ |.T.OX3XOX+Xr.y.t.x.-X-X%X+XOXOXX X X X o o X . . o 4 6 4 5 5 4 ",
"o   X . 3 o o 3 . X X X X X o o 8.8.8.7.8.3.r.t.t.l.7.3.9.7.9.9.X._ _  ._  . . .&.' &.#.#._ _ #.' %.%.' #.&._ ' ' %. . ._ _ ` ` ' ' ` J ' %.` ' ` _ %.%.' ' &.#.%.` ' ' %.%.' %.' ' _ ` #.L H X.8.q.q.h.I.h.r.t.y.sX7.7.9.8.8.9.o o o o o . X X . X   . X o 3 . ",
"3 o X 4 4 4 3 3 . o o 3 . . X X 2X$X*X=X-X-Xk.z.e.b |.OX|.OX3XaX%.' ` _ ` _ | &.&.&.>.&.` %._ #.%. .&.#.&.&._ %.`  .` %.J '  .&.%. .%._ %._ %._ ' ` #.` %. .&.%.#. .#.%.=.>.=.=.%.' P ' _ '  .%.-X3X-X3X2X3X! l.u.u.>X3X3X*X>XW.o o X o o o 3 4 o 3 o o X 3 4 4 ",
"3 3 3 3 4 3 3 6 4 o 3 3 4 4 3 o ;XOXoXOX|.OXu.O.u.v +XOXOXOX-X,X_ J L F F F F _ _ L _ L _ H F H J ' ` L F ` L _ H L F H D V Z J _ F V A F F F H F H _ D _ H J L F Z D L L _ ` _ _ F F F F J _ J 3X+XOX$X@X%Xb O.+.O.2X;X*X>X*XW.3 o o X o 3 X . . X X o o o o 3 ",
"4 4 4 X X . X 6 6 5 3 3 4 6 6 5 pX,X,X3X>X>X+.u.+.k +X$X%X=X:X=Xd d d a d d a a d d p d a p y y a d d d a d a d d a p y y t p d a d p y y p a d p p d p d V d a y p d a d d d d d y a a d d d d ;X;X=X*X$X@Xn i.u.b oXoX).+X*XW.4 6 4 3 3 . . 3 X X X X X 3 3 3 ",
"3 o o 3 3 o o 3 4 5 o o o 3 4 3 *X-X2X3X3X3Xu.O.O.k oXOXOX%X*X%X; d p w w ; w t d ; t d y w = = w t t w w ; * M ; ; = ; ; w 0 * + t w ; ; - ; w p ; = t t y t w ; = w t s a & V y w ; ; w y d w =X=X%X@X+XOXn +.+.v (.(.).(.(.Q.4 3 X X o o o o 3 o 4 3 X X X o ",
"4 o 3 3 3 3 3 4 6 4 3 o o o 4 3 /.OXoXOXOXOX+.u.O.k +X$X*X=X@XOXy A C d V d d V F w s S p d p y y a p p a w w F V a a p y p d w ; Z d y p p a M Z y - d p a a p y y d V Z M - H M d d d V V Z M OXOXOXOX+XOXb i.+.v OX$X%X%X+XW.3 3 3 o X X X 4 3 3 X . . X 3 . ",
"4 4 4 3 o o o o o o 4 5 3 4 o X  XOX@XOX*X@Xu.u.W k ,X:X;X:XOX).p D V A M V V V D w d H A V d a d d p a d ; y D V d y a a d V t 0 A V d d y d A F a = V d y d a d a V Z S Z ; _ V Z V V V A D s (.OXOX@X*X-Xb +.W v %X$X@X%X$XW.o o X o 3 o 3 o o X 3 . o 5 4 4 ",
"X . . 4 3 3 3 3 o X . X X o X 4 |.OX@X2XOXOX+.u.v e %X;X;X%X$XOXy D A S D D F V D t p S Z V d d d d d s M ; y D V V p d d V V y ; F V d V i V V S V = V s d d d d d V Z S Z ; H S D V M D A V d OXOXOXoXOX(.v u.v k *X=X3XpX3XG.3 4 o X 3 4 3 o o 3 . X o 3 o X ",
"o 4 5 3 4 4 o 3 X X X o X 3 o o q.q.L.j.q.L.O.u.b r 3.8.7.q.L.h.a F D F D F F D S a p L F d V V d d d d V ; a F S V d V V V C w ; D V d V a V S S F = D M d d d d V V Z D s t F V F F A F D S M j.j.j.I.I.j.v O.n v L.L.L.L.j.I.o X X o 3 3 3 3 5 3 o X X X X o ",
"3 4 4 3 3 3 4 3 6 X 3 X . .   . 3XaX3X>X-X>XO.+.b e =X=X;X%X>X^.M L J D F F S F F s a  .F V V V d d V V D w d H F F V d V V A w ; F V V s V D H D A ; F V V M d a V C F L V t D S F F F F D F D =X3X2X%X*XOXv +.n k OXOXoXOX3X2X. X o 3 3 . o 4 . 4 3 o o X X o ",
"5 4 3 o 3 4 X o 3 4 4 3 3 o o o -X3XOX%X>X2XO.O.v e *X*X+X=X*XH.V H D Z G S L L J d a | S C C V d M V V D w d H V F V V M d A t ; A V s M V S D F V - F M V V s A C V D H Z y H F _ S F F F J Z -X3X*X@XOXOXc O.b k OXOXOXOX-X;Xo o o 3 3 o X o X 3 3 5 3 3 o o ",
"3 3 o X 3 3 4 4 3 . 3 o 4 3 o 3 :XOX(.(.(.(.c O.v e |.OXOXOX*XJ.d H L J F D F F F d d #.F A F C C s V M D w d J F H F V V M J a t _ D Z V V J H _ C = F V V M V C F C A ` V y H F F F D L L D D 2XOXOXoX(.@Xk O.v k =X=X=X-X;X=X4 3 4 4 o X o X o 3 X 3 3 3 3 3 ",
"X . 3 X o o 3 3 o o . . X X . X =XOX).).).).b n r % OXOX+XOX).J.V H L L F D F J _ p d  .F Z A D A M V V t , d F H F H S u t F t ; L 2 t Z H D L H A , , V V V C C D A S L S w H F D F L L _ H D XXOXOXOXOX+Xk n k r OX$X%X-X-X*Xo o 3 o X X o 3 o 4 3 o X 4 X X ",
"  . o . . 3 . o o X . . X X o X =X,X-X%X*X*Xc v k % ,X,X:X%X@XH.s J ) L _ G F _ _ d V F _ S D F A V Z Z , , p _ F H F D t 2 _ p w ' , , D F F F F V , , V Z V V F V D F F Z y ' _ F F _ L L J Z *X;X+XOXOXOXe v k e *X=X-X-X-X-X3 3 3 o o X . . X X o o o X X X ",
"X X 3 3 4 o 3 3 3 3 . X o o o X OX+X%X*X=X=Xk v e % =X%X$X@XOXF.I I V J _ F F L L y A H F H H F A A Z C , , p _ D H F Z 2 , F p 0 _ , , S D F H G V , , V S A V A A L H F F 0 ` _ F F L J M I I *X-X3X;X2X>Xe c e e OXOX(.OX+X+Xo X 4 4 5 4 4 4 6 o o o o o o o ",
"o 4 o 3 3 o 3 3 3 o X . X X X X ).(.(.OXOXOXk v e + +X$X-X3X>XH.N I V V _ F F H ` p V S A H D A F Z F D u , p  .L F D F , & F y 0 F * , F F H H L d , u S S A A F F D H D F 0  .F F D J S V N N .XOXOX2X%X=Xe k r % OX@X%XOX).oXo o 4 3 3 X o o 3 o o 4 3 3 o X ",
". .   3 4 4 3 4 o 3 3 3 3 3 o 3 h.q.9.w.j.I.w.9.w.9.q.w.w.L.j.L.I m F J D J J _ _ y D F H H F A F F J V u t , , , 1 , , = = S w ; D = , , t , , , t , , F F D F F F H D F H ; %.L H _ F F F N N L.h.j.L.U.U.I.j.I.j.U.L.7.j.j.I.3 3 4 3 . . . X X X o X X . X   ",
"o 3 o . X X 3 4 6 5 4 4 6 5 5 . .X3XpX3X3X3X3XpX-X3X3XOX!.OX*X$XN m V J J J ` ' P p D D F H F Z H J H S D , , 2 2 , , t = M S y ; F Z + , t , , , , 2 D D L H D H F H S F _ 0 #.` _ J F H D m I >X>X-X*X3X|.OX|.+X+X+XOX XOX|.D.o o o X X X . X X X . . . . .   ",
"o o X X 3 3 o 3 4 X . 3 3 4 4 o (.+X).).(.(.(.OXOXOXOXOX@X|.OX(.d S S H H J _ H  .y D ' G D D F H F H F F M y | Z V M S M A S y t F V d S Z V Z L y y D H H F D D F H D L _ w _ J L D L H Z Z D (.(.(.OXOX*X=X*X%X%X%X$X=X@X$Xp.X . o . . o o X X . X .   . . . ",
"o 3 4 3 o 3 3 3 4 o 4 o o 4 5 3 /.OXOXOXOXOXOXOX@X$X%X*X=X=X@XOXM S H H F H _ _  .a H ' _ F F D J _ H D F D y *.L D S M Z A F p w P Z A M Z A H #.V d ` H F _ F D H F F _ %.t %._ _ _ D H F D Z (.OXOXOXOXOXOXOX@XOXOXOXOXOX%XE.o X X X . 3 . 4 4 3 o X X X . X ",
"X X X o   X o . . o X X X . . X %X-X=X=X*X*X*X*X%X%X*X:X:X3X:X=XS H D L D L L ` %.p K P D H F F L H D S F H a ;.P P D S S F J s w ' F D D D H ' $.d d H F F H H S J K F P P t  .` H _ _ K F H F %X$X@X+X!.T.OXOXOXOXOXOXOXoXOX^.o X X X X 3 3 . 3 4 3 o o X X . ",
". o o 3 3 3 o 3 o . o X .   . .  X+XOXOXOXOX@X+X%X*X=X=X*X).oXOXZ P H P P L P P %.y  .' H L ` J  ._ _ J J F a 1.#. . ._ _ H ' M s &.H J _ ` X.%.&.S M _ S _ J ` P ` P F L %.y &.' P L P F H K P OXOXOXOX+X+XOX$X@X%X=X*X*X*X(.E.X       X 3 3 o o o o X o . .   ",
"X X 4 5 3 3 o . o . . . .     . /.OXOXOX!.oXOXOXOX@X*X:X@XOXOXOXM %.| K | | P #.*.s D  .` _ H _ ` ` ' ` ' D s 1.%.#.|  .#.%.| Z s $. .|  . .#.%.>.M V ' ` ' _ ' P H P L %._ i 1.| P P P K | %.P OXOXOX$X=X:XOX:X-X=X*X%X*X+X).S.. X . X X 3 3 o o o X X o X o X ",
"3 3 o 3 X X .   . X     X X . . .X+X%X!.@X%X-X=X2X-X=XOX-X=X@XOXK $.| &.| P $.;.*.D | >. .P L ' ` ' ' X.X.D d 1.$.>.&.%.&.;.*.F M ;.;.=.%.%.;.&.$.K d &.'  . .X.` P |  . .$.d ;.$.%.| K &.$.| | @XOX(.oX).(.P.).OX%X=X,XaX@XOXY.. . X X o o   o X o X o o 6 4 5 ",
"X o 3 X 3 o o X X o 3 X 3 o X X U.U.T.T.T.U.L.j.7.h.j.j.q.w.w.j.H %.%.&.P Y Y ;.;.S P ,.%.$.`  ._ %.X. .X.F M 1.$.$.$.| %.#.;.M d 1.#.%.$.$. .*.>.F Z &.X.%.' _  .H _ $.%.%.d 1.;.Y Y P Y &.$.#.L.L.j.q.9.3.9.9.9.h.9.9.q.9.9.8.4 6 5 4 3 3 X X X o o o o o . X ",
"4 3 X 3 3 o o o X 4 4 4 3 5 5 6 -X=X*X@X;X XOX!.(.|.|.OX(.|.(.Y.M $.P ` K P K | ;.d P &.| K K H P ` L L ` M s $.K Y K H  .| | M u $.P |  .P | P K D i | P ` P K _ P K Y &.;.u 2.$.P _ Y P P | P /.$X-X=X*X*X*X3X=X3X>XOXT.(.+X Xo 3 X X X X o 5 3 o 3 4 6 6 6 3 ",
". 4 o o 4 3 4 3 X 3 3 3 5 3 4 3 OXOXOX+X+X=X:X;X;X3X;X-X;X@XOXS.' L L &.#.L #.#.%.H ' ` ` L | _ ` _ _ J L L ` _  .| L _ %.' _ L H _ L  . .H  .| _ _ H _ H ` L _  .| H  . .` S %.P %._ P ` L ` `  X*X+X+X+X!.+X%XOX-XOXOXOX(.OXoXo o X X X X .   .   3 X X X o . ",
"o 4 X o X o X o o 4 6 6 6 5 X X =X:X:X;X*X%X%X%X%X@XOX+XOXOX-X/.:.1.$.1.$.*.#.;.$.$.;.1.1.*.-.*.;.$.%.;.$.$.*.;.-.-.*.-.;.;.%.| P $.;.-.;.#.*.*.%.#.$.$.-.$.-.%.-.-.$.-.1.$.$.;.;.&.-.;.-.,.&.1..X-X;X-X*X%X+X@X%X=X=X%X%X%X*X*XX 3 X X X X . . . X . 4 o 3 4 6 ",
"o o 3 3 4 3 X o . 3 o o X 3 o o $X$X%X%X*X=X%X%X%X$XOXOX).(.).Q.=.&.&.=.#.#.' %.&.P ;.&. ._ P %.%.| #.%.' ' L ' %.#._ =.&.' &.%.| %.%.%.&._ $.$. .L ' _ ' #.` %. .|  ._ &.;.#.&.' ' #. .&.&.&.=.%X;X-X=X%X$X+XOXOXOXOXOX+X+X+X@Xo o 3 3 3 o o X X X X 4 . o 4 o ",
"X . X 4 X 3 o X X o 4 3 o 5 5 5 OX+X+X@X%X%X*X-X,X;X=X*X%XOX(.Q._ ` ' %.F L H L _  .%._ L F K _ J L _ L L H D H ' K ' #. .` _ ' ` J J  .` ' P ' L D J _ H P F ` _ K J L L %.%.` ` H H _ ' %.K #..X%X$X+XOXOX+X+X@XOX+XOXOXOXOXOXX o 3 X o o 3 3 o o X 3 4 3 o 3 ",
"3 4 3 o 3 o 3 4 o 5 4 3 o . X o +X+XOXOXOX+X+X+X+X@X$X@XOXOXOXY.' %.L L ` L H H ` _ H H H D D H H L D _ F J S F H L ' ' L _ F J H L _ J ` ' D H J Z F J L H H L H S H F H L ` ` H H H _ H ' L _ |.OX$XOX!.oXOXOXOX+X$X+XOXOX+X+Xo X X X o 4 4 3 o o o o o 3 3 3 ",
"3 o o o X   4 3 X X X X X o X X (.oX(.).).(.(.(.OX*X-X3X2XOX(.S._ ` ` H H J _ _ _ L H L L _ D H P _ H J G L Z F L D H _ ` S F F J F L _ _ ` F L F D J G _ H H H L D J D H L J H ' L ' _ L ` _ ' |.OX%X(.@X@X=X=XaX3X>X2X;X*X%X@XX X o X X o . . o . 4 4 3 3 5 o ",
"X o   o 3 o o 4 o   X . . o 3 o w.L.j.j.h.h.w.w.9.w.7.5.7.h.I.j._ P H H H H L L ' H L H ' J F F _ _ F P L L D F P L P H ` F J L _ S J H F H L L G S L L H J L L L F F _ H L _ %.` L _ D H H P L j.L.L.I.T.L.j.w.w.j.j.j.L.w.q.9.o 4 4 4 X . X X o o X . . X . 3 ",
"o X X 4 4 3 3 o . X o o o 3 o o *XOX@X@X+X@X$X;X%X>X;XOXT.OX*X%XJ D L D H L ' ' '  .L L &._ L P ' J _  .J J D L _ _ _ ` _ J ` ` ' H _ _ L _ P ` _ D _ F ` ' _ J P ` H ' ' '  ._ ' ' _ H F H D H -X$X@XOX=X|.OX|.+X+X+XOXOX+X|.W.o 3 4 o 4 3 o . X 4 3 3 3 3 5 o ",
"4 3 3 X 5 4 3 4 4 3 4 4 4 4 3 3 $X>XoXOXoXoXOXOXOX=X@XOXOX(.$XOXJ H F H Z D H H L L F H _ F _ L _ D F ' F F F J P F H H V D F J F S D D H H D L ` F F F _ J F _ L ` L _ H _ _ H H H H Z F F F H -X).).OXOX*X%X%X!.*X=X=X-X@X@XW.4 5 3 o 6 o o . . . . X o X 4 3 ",
"4 4 X o o o o 3 5 o 3 3 4 4 4 4 .X:X>X3X>X:X=X3XOXOX+X$X%X*X-X:Xa y y y s y s i V V d s p a M a d a p d d a p d M d d a p p y a y p p a d d d d d a y p d d p d a V a d d d d V s d y s y y y p :X:X=X%X@XOXoXoXOX(.).oX(.(.-XQ.6 4 3 o o 6 X 3 o X X . X X . . ",
"4 X 3 o 3 o 3 3 4 6 3 3 4 4 4 4 %X-X=X=X=X-X=X%XoX(.OX+X$X%X*X%X< < 0 w ; w t ; y = ; a y y w ; w t t t p ; = i y y t t w t t + O t w y y t t y y , = s y t t t ; w t t y w & a ; , w w w 0 < < %X$X@XOXOXoX(.oX(.).(.(.(.(.(.~.3 o X o 3 4 3 o 3 . o X X X o X ",
". X 4 4 4 4 3 5 6 5 5 3 3 3 3 4 /.OX).OXOXOX@X%X%X$X$X%X*X=XOX).* < p a p d s y s ; y D M V d y y d p M M w t A M d y d d a d ; & d d V s s s d M d - Z V a d u a d d M D M = M s y V a a a < < ).OXOXOX(.+X+X$X$X%X*X=XOX+X+XW.5 3 o X . X o 4 3 3 . . X . . X ",
"3 o 3 3 3 3 o 3 X 4 3 3 3 o 3 3 (.OX+XOX!.OXOX%X*X-X,X3X*X:XOXOX< < p p p V d s Z w y M Z M V A V V M M M p y K Z M s M V V d ; * V A A Z s d d Z d w M M s V V V M V M Z M = F a M Z s p y < < OXOX@X%XY.;X=X-XOX*XOX%X%X+X;X~.X 3 o o 3 3 o X X X X X 5 5 6 5 ",
"o 3 o X 4 3 6 X o X . X X X X X  X*X;X(.OXOX%X%X+X*X*X=X;X=X*X(.< < y y a V M s Z ; s S F S d d M d d V Z d y _ S A A D S D F t ; L F D A S S S D s y S Z d M V V V d F F Z = A M V V s y i < < -X@XoX(.(.).).OX@X;X;X3XaXOXOXS.o o 3 3 X 4 3 X 3 X X X X . o X ",
"3 3 4 . . . . o o o o o o X 3 3 L.I.U.U.q.U.j.j.w.j.j.j.L.I.U.T.y i V V M M A d V w M D V F A V V Z Z D F d p ` D F D F F D F p 0 _ F D F F D S F V y H S D Z V M M A D Z S = F d Z s V d V p a U.I.U.U.T.T.T.U.U.!.I.T.T.T.T.I.o o X 3 o 3 3 3 4 o X X X X X X ",
"3 3 4 3 4 3 5 4 5 6 4 3 3 . o X 2X>X;XOX>X XOX(.|.|.OXOX|. X|.Y.M S D D A V V V Z w d F F F D S D D Z S F a s L F J J G F D _ a w ` F F F J J J D D w ' S D S D S F H F H Z - H d Z F S F H S F  X-X(.*X@XOX%X;X%X-X;XOXY.oX*X$XX . . o o 3 3 3 4 3 5 4 3 o X . ",
"4 4 o 4 4 4 o X 3 3 5 5 3 3 X o OX%XoXOX+X=X*X$XOXOXOXoX%XOX@XA.s H F F V F D d Z t s H Z G F G Z Z D M _ t V ' J F F D S V J a t ` A V C H F L _ H 0 %.Z D Z Z A F Z D H Z ; D d F F Z F F M D %X=XOXOX!.).(.OXOXOXOXOXOX(.%XOXo 3 o X 3 3 o X X o X 4 o o 3 4 ",
"6 6 o 4 X 3 3 4 3 o o X o 4 3 3 :XOX).).oX).).OXOXoXOXOXOXOX-XJ.s D V H Z C D Z D y s L F F D F F V D F J p V _ H D V Z Z Z Z a t L S Z D M S H H H ; X.F F M Z D _ F S H Z w H M F F D F M V S .XOXOX+X@X@X@X*X=X-X+X:X:X-X=X=X3 4 3 4 4 o o o 3 o o 3 4 3 5 5 ",
"X X o . X o 3 3 o X X . . o 3 3 =XOXoXoXoX).).OXOXOXOXOXOXOX(.J.d D H D M D F Z D p d L _ H F S D S F F L y d L F D C V d J F t w F F V V V A J H D w ` F F D Z S F F J F D t H S F D d S S F S =X+XOXOXOXOXOX+XOXOX@X*XOX-X-X-X3 3 3 o 4 3 X 3 3 3 . . X . 3 . ",
". X . 4 o . o . X o . X X X   X *X=X,X>X3X3X,X,X>X,X:X:X:X=X$XJ.M L S A V F F F H d d _ _ H F S F D F F _ M a &.H S V D s F F t ; _ G d V V S F H V a _ J J D F F F J J L V t L F F F S A S J S *X>X;X%X$X+X%X=X=X=X+X-X-X-X-X=X3 3 o o o X .   o 3 o X X X X X ",
"X X 4 3 4 3 3 3 3 4 o X X o 3 4 @XOX%X=X-X+X=X-X-X:X-X*X$X@X$XJ.s _ D D D D F D L a a %.' ' H H L D _ ` ' A p %.D D D A F L J y ; L G F F F Z Z ` d V ` ' _ F F _ _ L `  .D ; P D D H S V D D D  X+X:X-XOX@XOXOXoXoXOX+XOXOX@X@X3 3 3 4 5 6 6 5 3 4 o 3 3 o o X ",
"3 6 4 3 o 3 4 o o . X . . . 3 3 OX(.OXOXOX+XOX$X*XOX$X;XOX*XoXq.D 0 ; w 0 0 w t w t L w t t w 0 ; ; 0 t t V H w ; ; ; ; ; ; ; w d ; ; ; ; ; 0 ; y t y t w 0 ; ; ; w y w t M p w w w 0 0 0 ; w Z OX$X%XOX-X;X$X$X*X$X@X+X%XOXOXOX6 6 5 4 6 . o X o o 3 3 o 3 3 o "
};
