/* XPM */
static char *_0268bf9521647a0c49634e014440291vGqPNRsSJXQiZYhP[] = {
/* columns rows colors chars-per-pixel */
"64 64 207 2 ",
"   c #040404",
".  c #0B0B0B",
"X  c #140708",
"o  c #1B1305",
"O  c #1C160E",
"+  c #1F190F",
"@  c #131313",
"#  c #191717",
"$  c #1B1B1D",
"%  c #250000",
"&  c #2C0000",
"*  c #230F0D",
"=  c #340000",
"-  c #3B0000",
";  c #2A110F",
":  c #221B0E",
">  c #2D1310",
",  c #231D12",
"<  c #281E16",
"1  c #331512",
"2  c #351B13",
"3  c #3C1916",
"4  c #282116",
"5  c #342915",
"6  c #362919",
"7  c #1C1D23",
"8  c #1F2025",
"9  c #212126",
"0  c #24252B",
"q  c #28282A",
"w  c #382622",
"e  c #3D3323",
"r  c #272A36",
"t  c #292C33",
"y  c #2D313E",
"u  c #343537",
"i  c #3C3B3B",
"p  c #430000",
"a  c #4B0000",
"s  c #530000",
"d  c #5A0000",
"f  c #48190C",
"g  c #411B17",
"h  c #451D19",
"j  c #491E1A",
"k  c #4B261C",
"l  c #772312",
"z  c #6E361E",
"x  c #74381E",
"c  c #4A3B22",
"v  c #433938",
"b  c #6D3820",
"n  c #753B21",
"m  c #544226",
"M  c #594729",
"N  c #5D4B39",
"B  c #66472D",
"V  c #734B2D",
"C  c #6E4530",
"Z  c #6A5330",
"A  c #715B35",
"S  c #7E683E",
"D  c #323644",
"F  c #3B3C45",
"G  c #353B4A",
"H  c #3A3F4E",
"J  c #483A41",
"K  c #3F404A",
"L  c #3D4253",
"P  c #454545",
"I  c #45454C",
"U  c #4C4B4B",
"Y  c #544D4A",
"T  c #5E5544",
"R  c #484A52",
"E  c #414759",
"W  c #43495C",
"Q  c #535353",
"!  c #5A5756",
"~  c #5B5B5B",
"^  c #755A4F",
"/  c #726159",
"(  c #464C60",
")  c #5A5D66",
"_  c #656465",
"`  c #686768",
"'  c #6C6C6C",
"]  c #747474",
"[  c #7B7A7B",
"{  c #9C280D",
"}  c #AF3115",
"|  c #FB3D1A",
" . c #854623",
".. c #8E5531",
"X. c #915833",
"o. c #AE522B",
"O. c #F3501E",
"+. c #D25028",
"@. c #F75628",
"#. c #D27231",
"$. c #865C4A",
"%. c #806740",
"&. c #846C42",
"*. c #8B7245",
"=. c #917847",
"-. c #917749",
";. c #957A4B",
":. c #997E4C",
">. c #886759",
",. c #9A7C51",
"<. c #8E7A7E",
"1. c #90767B",
"2. c #AD726E",
"3. c #A77571",
"4. c #AF7571",
"5. c #B47672",
"6. c #B77974",
"7. c #BA7B76",
"8. c #BD7D78",
"9. c #FF7E4B",
"0. c #C07F7B",
"q. c #FC9820",
"w. c #F48833",
"e. c #FCDD18",
"r. c #9D814E",
"t. c #9F8151",
"y. c #A28552",
"u. c #AA8B55",
"i. c #AB8C57",
"p. c #B08F5B",
"a. c #B3915D",
"s. c #B1837E",
"d. c #BF807B",
"f. c #F99B46",
"g. c #F5A74D",
"h. c #F9B85B",
"j. c #C4827D",
"k. c #C8847F",
"l. c #F9CB68",
"z. c #F8D771",
"x. c #FCE57A",
"c. c #8F7F83",
"v. c #937C82",
"b. c #848384",
"n. c #8B8A8A",
"m. c #978F8C",
"M. c #999898",
"N. c #B28681",
"B. c #B38984",
"V. c #B68E89",
"C. c #BC8D88",
"Z. c #B6928D",
"A. c #BE928D",
"S. c #A29E9D",
"D. c #A89E9A",
"F. c #B69590",
"G. c #BC9994",
"H. c #B0A39E",
"J. c #AAA8A7",
"K. c #B7ABA7",
"L. c #BEBAB8",
"P. c #C98681",
"I. c #CD8A85",
"U. c #CF8E89",
"Y. c #D1948F",
"T. c #C19E99",
"R. c #D49691",
"E. c #D39994",
"W. c #C1A193",
"Q. c #DEA39C",
"!. c #E0A59E",
"~. c #DDA7A0",
"^. c #DDABA5",
"/. c #DEAFA9",
"(. c #C7B3AA",
"). c #D4B7AA",
"_. c #DFB1AB",
"`. c #D0B9AF",
"'. c #E0A7A0",
"]. c #E2ABA4",
"[. c #E3AFA9",
"{. c #E4B2AC",
"}. c #E5B4AE",
"|. c #E5B7B1",
" X c #E6B7B0",
".X c #E5B9B3",
"XX c #E5BBB5",
"oX c #E7BAB4",
"OX c #E7BAB5",
"+X c #E7BDB7",
"@X c #E8BCB6",
"#X c #E7BEB9",
"$X c #E8BEB8",
"%X c #FCEE81",
"&X c #FDFA8A",
"*X c #E7C1BC",
"=X c #E7C2BC",
"-X c #E6C5BF",
";X c #E8C1BC",
":X c #FEFEA6",
">X c #FEFEBB",
",X c gray77",
"<X c #CCCCCC",
"1X c gray82",
"2X c #E7C6C1",
"3X c #E8C9C3",
"4X c #FFFFC9",
/* pixels */
"= - a a s a s - 2.7.7.4.4.4.4.8.8.8.j.D y L 8.4.2.7.7.4.4.4.4.8.8.8.j.5.4.7.8.4.2.7.7.r D H 4.8.8.8.j.5.4.7.8.4.a s s - = p - = ",
"% - p p a a a p ^.{.OX$X*X@X+X-X[.OXOXH <.L }.+X^.{.OX$X*X@X+X-X[.OXOX].OX].}.+X^.{.OXD L r +X-X[.OXOX].OX].}.+X= - - - = & = & ",
"- - p = p s p a Q.Q.Q.].{.{.}.{.].'.].L v.( ].].Q.Q.Q.].{.{.}.{.].'.].].].[.].].Q.Q.Q.D G R }.{.].'.].].].[.].].a = = a s a = & ",
"% p a p - & % % Q.'.].[.{.{.R.!.].].].L G ( }.Q.Q.'.].[.{.{.R.!.].].].].}.}.}.Q.Q.'.].D G y R.!.].].].].}.}.}.Q.& % = a = - = = ",
"a p = = % - & - _.OXE.].OX#X;X2X-X-X].G L ) ].{._.OXE.].OX#X;X2X-X-X]. X*X*X].{._.OXE.H L F ;X2X-X-X]. X*X*X].{.a a = a - - p = ",
"- - = p - - - a ]. X}.].[.].{.}.~.].OXH c.L }.OX]. X}.].[.].{.}.~.].OXOX-XOX}.OX]. X}.D L r {.}.~.].OXOX-XOX}.OX- - = = s a a % ",
"p - - - = s d - }.}. X}.{.].].].^.{.].L v.( ].{.}.}. X}.{.].].].^.{.].].{.[.].{.}.}. XD G R ].].^.{.].].{.[.].{.& - - & % % - - ",
"p = - = - & - - {.{.{.}.OXOX[.Q.Q.].{.L G ( ].].{.{.{.}.OXOX[.Q.Q.].{.[.{.].].].{.{.{.D G y [.Q.Q.].{.[.{.].].].p a p = = = - p ",
"= & = % - - = % OX#X+X#X*X2X}.].Q.}.Q.G L ) 3X3XOX#X+X#X*X2X}.].Q.}.Q.{.2X2X3X3XOX#X+XH L F }.].Q.}.Q.{.2X2X3X3X- & - & & = = p ",
"- p p p = - - p }.Q.].{.OX XOX*X].{.{.H <.L OXOX}.Q.].{.OX XOX*X].{.{.].OX{.OXOX}.Q.].D L r OX*X].{.{.].OX{.OXOXp p a % & - p p ",
"a = = = a a a a {. X]. X].].]. X$X}.].L 1.( Q.R.{. X]. X].].]. X$X}.].Q.Q.Q.Q.R.{. X].D G R ]. X#X}.].Q.Q.Q.Q.R.a - = d % % = = ",
"- = p % p - - p Q.!.[.{. X XOX].'.[.{.L G ( }.].Q.!.[.{. X XOX].'.[.{.{.+XOX}.].Q.!.[.D G y OX].~.[.{.{.+XOX}.].a p = a p & = s ",
"p a = - = = = - {.OXY.~.}.*X-X3X3XOX XG L ) ].].{.OXY.~.}.*X-X3X3XOX X+XOX2X].].{.OXY.H L F -X3X3XOX X+XOX2X].].= & = = = = = = ",
"a p p p s p p p }.OXOX].{.].{.OX/. X{.H <.L OX*X}.OXOX].{.].{.OX/. X{.[.OX}.OX*X}.OXOXD L r {.OX/. X{.[.OX}.OX*Xp p = - p = - a ",
"a s p = - % % a +XQ.Q.!.'.].].].^.Q.Q.L v.(  XOX+XQ.Q.!.'.].].].^.Q.Q.].}. X XOX+XQ.Q.D G R ].].^.Q.Q.].}. X XOXp - - - p p a & ",
"= a p a p = % = +XOXOXOXOXOXOX}./.}. XL G (  X$X+XOXOXOXOXOXOX}./.}. XOXOX]. X#X+XOXOXD G y OX}./.}. XOXOX]. X$X- a - - p p = = ",
"a a - p p % = - +X*X*X-X#X+X'.'./.OXQ.G L ) #X*X+X*X*X-X#X+X'.'./.OXQ.^.+X+X#X*X+X*X*XH L F '.'./.OXQ.^.+X+X#X*Xa a p - - & - % ",
"- - - p = a - - Q.].{.}.+XOXOX*XOX XOXH <.L #X XQ.].{.}.+XOXOX*XOX XOX+X+X+X#X XQ.].{.D L r OX*XOX XOX+X+X+X#X X= - - - = & = & ",
"- = - = = a a a ~.].'.].].].].].Q.Q.Q.G Q.( !.!.~.].'.].].].].].Q.Q.Q.!.!.].!.!.~.].'.D ].y ].].Q.Q.Q.!.!.].!.!.p = = a - a = % ",
"= - p - & & % % Q.[.'.].{. X#X!.].].[.G G ( {.!.Q.[.'.].{. X#X!.].].[.{. X{.{.!.Q.[.'.D G r #X'.].].[.{. X{.{.!.& % % p = = = % ",
"- - = = = p a a G.T.F.Z.N.s.N.A.A.V.( L E W C.T.G.T.F.Z.N.s.N.A.A.V.C.C.N.N.C.T.G.T.W W L E N.A.A.V.C.C.N.N.C.T.p a - - = - p p ",
"= - p - p p s p +X X}.OX XOXOX].^.[.z z z z [.}.OX X}.OX XOXOX].^.[.OX@X*XOX[.}.+X Xz z z z OX].^.[.OX@X*XOX[.}.- & = % a p - - ",
"p - - a % d s = ].].{.].].].!.!.].E E y L ( E ].].].{.].].].!.!.].{.].].].Q.Q.].].W E E L H W !.].{.].].].Q.!.].p & - & & = p - ",
"a a = - - d a - [.{.{.{.{.}.].Q.Q.z o.#.#.#.z ].[.{.{.{.{.}.].Q.Q. X].].[.{.}.].[.z o.#.#.#.n Q.Q. X].].[.{.}.].a p p p = p - a ",
"- p = p = = & & N.N.B.B.V.V.V.Z.G.z w.l.l.f.x N.N.N.B.B.V.V.V.Z.G.G.Z.G.N.N.N.N.N.b w.h.l.g.x Z.G.G.Z.G.N.N.N.N.- - - = = = - p ",
"p p a - - = p p  XQ.].[.OX}.}.#X#Xx l.&X:Xz. .}. XQ.].[.OX}.}.#X#X{.{.OX+X#X*X}. Xn h.%X:Xx. .#X#X{.{.OX+X#X*X}.- a & = % % % p ",
"p = - = - - = - .X+XOXOXQ.!.Q.{.OXn l.:X>Xx. .!..X+XOXOXQ.!.Q.{.OX[.!.!.!.Q.Q.!..Xn h.&X4X%X .{.OX[.!.!.!.Q.Q.!.p - = p % - = - ",
"p - & = = % & - Q.[.].[. X+X*X].'.b h.z.x.h.n '.Q.[.].[. X+X*X].'.{.OXOX X{.{.'.Q.z f.z.x.l. .].'.{.OXOX X{.{.'.a = p = & & = a ",
"- p s & = = = - F.V.V.Z.N.N.B.N.B.W E L E L L F.F.V.V.Z.N.N.B.N.B.N.3.N.N.N.N.F.F.L E W L E W N.B.N.3.N.N.N.N.F.- = p a - p - p ",
"a p - = p - - - *X*X*X2X{.}.OX}._.OX{.].{.{.].#X*X*X*X2X{.}.OX}._.OX{.].{.{.].#X-X*X*X2X{.}.OX}._.OX{.].{.{.].#X- - p = - p = p ",
"& a a = = & & p }.!.!.!.Q.!.'.!./.Q.Q.].].].].{.}.!.!.!.Q.!.'.!./.Q.Q.].].].].{.}.!.!.!.Q.!.'.!./.Q.Q.].].].].{.a & % = = = = & ",
"& - p - a - p - OXOXOX].}. X{.].}.#X{.OX}.}.[. XOXOXOX].}. X{.].}.#X{.OX}.}.[. XOXOXOX].}. X{.].}.#X{.OX}.}.[. X& a a a a p - - ",
"% p p p a % - - C.B.B.N.s.s.s.Z.F.Z.F.F.N.N.N.A.C.B.B.N.s.s.s.Z.F.Z.F.F.N.N.N.A.C.B.B.N.s.s.s.Z.F.Z.F.F.N.N.N.A.p a = = - & - & ",
"p p p - - = = p ^.].'.].{.{.{. X[.]. XOXOX#X}.+X^.].'.].{.{.{. X[.]. XOXOX#X}.+X^.].'.].{.{.{. X[.]. XOXOX#X}.+X= % - - = & & = ",
"= = - - = p - - ^.}.{.{.[.{.OXOX].].].].'.].].].^.}.{.{.[.{.OXOX].].].].'.].].].^.}.{.{.[.{.OXOX].].].].'.].].].p = = p % a = & ",
"= a p p & & % % /.[.{.{.{.}.}.!.Q.].}.OXOX}.{.Q./.[.{.{.{.}.}.!.Q.].}.OXOX}.{.Q./.[.{.{.{.}.}.!.Q.].}.OXOX}.{.Q.% % & a - = - & ",
"= % p = - - - p I.U.U.8.5.5.7.8.d.8.7.5.2.2.6.7.I.U.U.8.5.5.7.8.d.8.7.5.2.2.6.7.I.U.U.8.5.5.7.8.d.8.7.5.2.2.6.7.p s s p - - - p ",
"p - p = - p d a }.].}.OXOX#X{.{.{.{.{.}.+X}.'.{.}.].}.OXOX#X{.{.{.{.{.}.+X}.'.{.}.].}.OXOX#X{.{.{.{.{.}.+X}.'.{.= & = & = p = p ",
"= a p s p a a - [.{.}.}.{.].'.Q.[.+X X].].].].[.[.{.}.}.{.].'.Q.[.+X X].].].].[.[.{.}.}.{.].'.Q.[.+X X].].].].[.= - p = & = p p ",
"a p - p p s p - ].].[.{.{.{.].'.Q. X}.{.{.{.].].].].[.{.{.{.].'.Q. X}.{.{.{.].].].].[.{.{.{.].'.Q. X}.{.{.{.].].p - a p p p - a ",
"% = p - % = = - 5.5.5.2.2.5.8.8.6.8.I.8.5.5.7.6.5.5.5.2.2.5.8.8.6.8.I.8.5.5.7.6.5.5.5.2.2.5.8.8.6.8.I.8.5.5.7.6.- - - = & % = p ",
"p p a p a p a p OX'.'.].}.[.].OX*X].{.}.OX*X X XOX'.'.].}.[.].OX*X].{.}.OX*X X XOX'.'.].}.[.].OX*X].{.}.OX*X X Xp - - = % = - - ",
"- - p - a - - a  X*X*X;X!.'.]. XOX}.[.'.Q.Q.!.Q. X*X*X;X!.'.]. XOX}.[.'.Q.Q.!.Q. X*X*X;X!.'.]. XOX}.[.'.Q.Q.!.Q.a = - - p a = p ",
"a a - - - a p - ^.{. X XOX$X+X].Q.].}.OX].}.{.{.^.{. X XOX$X+X].Q.].}.OX].}.{.{.^.{. X XOX$X+X].Q.].}.OX].}.{.{.- = p p - p - % ",
"a s a - = = = - 8.P.0.7.2.2.5.P.k.k.I.P.P.P.P.k.8.P.0.7.2.2.5.P.k.k.I.P.P.P.P.k.8.P.0.7.2.2.5.P.k.k.I.P.P.P.P.k.- = p p s - = - ",
"a p p = p a p - OX].$X;X{. X[. XOX X].!.].].].OXOX].$X;X{. X[. XOX X].!.].].].OXOX].$X;X{. X[. XOX X].!.].].].OX- - p = = p p - ",
"& p - p - & = & OX!.!.'.!.].[.!._.].].].].].}.OXOX!.!.'.!.].[.!._.].].].].].}.OXOX!.!.'.!.].[.!._.].].].].].}.OX- p = - - p = = ",
"= p a p p % - - ].}.OXOXOXOX{.]. X*X-X;X{.].!.[.].}.OXOXOXOX{.]. X*X-X;X{.].!.[.].}.OXOXOXOX{.]. X*X-X;X{.].!.[.- a s a s - - p ",
"& % a a - p p - 9 8 7 7 7 7 0 7 7 7 7 7 7 7 # 7 , 6 e 6 e 6 ....X.X...2 w 6 6 , i u i P U U U P U U ! Q U u P u p a & & = - = = ",
"- = p - a & p a 7 q 0 0 9 7 0 q t 0 t 9 9 $ 7 9 , S r.-.y.:.2 V V V c *.y.=.*.+ U _ _ ` ` P ` ` ' ] ~ U ' ! ~ P = - & - = = % = ",
"= = % - % = = % 0 0 9 7 8 0 9 0 t t q 9 0 8 9 9 4 ;.p.a.p.a.y.2 k e ;.*.r.*.;.O Q P ` [ [ ~ b.b.b.b.] ] [ ] ] U - = = p p p - = ",
"= a p - - & & % 0 0 8 8 $ 9 0 t t t 0 q $ 7 9 0 , *.i.: ;.:.y.< , A ;.: 5 ^ &., Q P [ ] !   .     @     ] ] [ Q & & = p - = - a ",
"- p p - = p p = 7 7 * ; ; ; > > ; ; > ; ; > 7 7 , m Z o m B m , 4 m M : 4 : c + U ' ] ~ . .   .   .       ' Q U a s p = = - - p ",
"a - a a = p s a 9 9 ; h j j g g h h j g h j $ 7 + &.;.: :.r.r., , &.r.S : c S O Q ` [ . @ @ @ @ # # @ . . u ! U - = = & % p = s ",
"- p a = & - = - 0 0 ; v k 3 j j j I h R F j 7 0 , ;.i.: r.:.:., , ;.u.,Xo 4 e 4 P ' n.. # $ $ $ 9 $ $ $ @ ] b.P - p p - = = % p ",
"a p p p - a - = 0 q ; I h w 1 h w ; 3 3 D h 7 9 , -.r.4 :.:.=., , t.y.T 1XL.m + U Q ~ b.n.' b.n.n.U [ ~ ~ [ ' P - = - a - - - a ",
"- % p - - = & p 0 0 ; F 1 C 1 1 ; 2 2 3 I > 7 9 , c m : m M B O , M B M <X<XM , U F [ U ] b.' [ b.n.Q Q ] [ U U - a = = - = & a ",
"p p s p a a a p $ 7 ; C 3 C h k g K h g H h 7 9 O ;.A ~ U t.:., 4 *.&.&.<X<X-.+ i [ M.M.M.S.S.S.S.M.M.M.m.m.M.P a p d - & % - p ",
"= p p p a p a a 8 9 * C h C 2 j j I j J 1 3 7 9 9 ;.N m.] ;.:.O , S *.S <X<X%.O Q ` J.J.(.`.`.`.`.(.(.K.S.S.M.U p - p p p - = & ",
"- p p - = p p p 9 9 ; C 2 I 3 g j h I u 3 3 # 9 , ,.i.a.p.a.i.O + S ;.-.<X,X:.+ U ~ J.K.).V 6 2 % X   ).H.D.n.P = - p - = = s = ",
"p a % % - - - p 9 @ ; * ; * 1 2 2 2 H * 2 > $ 0 + M A Z M M Z O , m Z A <X<XZ , ! ! K.(.f e.q.q.@.O.+.{ B K.m.U - = - p a = = - ",
"a - a - p s a = 8 9 * 3 h 3 3 g g h > 3 3 h # 0 , *.;.y.u.;.:.: , &.:.y.*.*.;., Q ! K.$.o.@.9.| +.@.} O.w.).D.i - - p - = = - p ",
"= - = p p = & p 0 0 * 3 3 3 j h g h h g h h 7 0 q &.;.u.y.p.u.4 : ;.u.y.r.t.y.4 U _ (.x @.} l +.q.o.+.O.n W.m.U p p a = p & = = ",
"a a - - - & % p @ @ > > ; 1 1 * ; ; > * 1 * @ . , ;.,.,.;.;.&.: , &.*.%.-.&.&., i i Y ^ ^ ^ ^ >.>.>.>.>./ v v F d s - & - p p = "
};
