/* XPM */
static char *result[] = {
/* columns rows colors chars-per-pixel */
"64 64 206 2 ",
"   c #040E14",
".  c #061116",
"X  c #06141A",
"o  c #09161D",
"O  c #09181F",
"+  c #250000",
"@  c #2C0000",
"#  c #340000",
"$  c #3B0000",
"%  c #27391F",
"&  c #0C1C24",
"*  c #0E1F28",
"=  c #2E0F2E",
"-  c #2E112E",
";  c #341334",
":  c #391639",
">  c #3C193C",
",  c #12242D",
"<  c #12282F",
"1  c #1D292C",
"2  c #152931",
"3  c #242F2F",
"4  c #243335",
"5  c #283532",
"6  c #293939",
"7  c #430000",
"8  c #4B0000",
"9  c #530000",
"0  c #5A0000",
"q  c #6E361E",
"w  c #643E19",
"e  c #733A1F",
"r  c #713921",
"t  c #4F5F1D",
"y  c #6C431B",
"u  c #75451D",
"i  c #485D23",
"p  c #555F22",
"a  c #7B4821",
"s  c #7A5628",
"d  c #4D6325",
"f  c #526424",
"g  c #546B2B",
"h  c #586B2A",
"j  c #57712E",
"k  c #5C722D",
"l  c #5A7732",
"z  c #64782D",
"x  c #627D33",
"c  c #657A34",
"v  c #411D41",
"b  c #452245",
"n  c #4A264A",
"m  c #4D2A4D",
"M  c #522D52",
"N  c #563256",
"B  c #5A355A",
"V  c #5F3A5F",
"C  c #623E62",
"Z  c #7D3761",
"A  c #7F3863",
"S  c #2A4845",
"D  c #31534E",
"F  c #3B6157",
"G  c #4D5C5E",
"H  c #795351",
"J  c #595C63",
"K  c #664266",
"L  c #6B496B",
"P  c #765067",
"I  c #704D70",
"U  c #745374",
"Y  c #775877",
"T  c #7C5C7C",
"R  c #5D6467",
"E  c #4A7869",
"W  c #63656B",
"Q  c #66676C",
"!  c #696B71",
"~  c #864622",
"^  c #935328",
"/  c #B05D2A",
"(  c #B8672F",
")  c #CD6F2E",
"_  c #E27C32",
"`  c #853C68",
"'  c #965B66",
"]  c #8B4876",
"[  c #954677",
"{  c #984779",
"}  c #AD726E",
"|  c #A66F7C",
" . c #A77571",
".. c #AF7571",
"X. c #B47672",
"o. c #B77974",
"O. c #BA7B76",
"+. c #BD7D78",
"@. c #C07E7A",
"#. c #70922D",
"$. c #6C8232",
"%. c #688535",
"&. c #6A8936",
"*. c #6C8C3A",
"=. c #738B38",
"-. c #77943C",
";. c #6C9247",
":. c #789942",
">. c #7AA145",
",. c #6BA15C",
"<. c #5C8C66",
"1. c #659B72",
"2. c #84993F",
"3. c #83A43C",
"4. c #84A83C",
"5. c #B5AE2F",
"6. c #F2913D",
"7. c #839046",
"8. c #89A748",
"9. c #91A947",
"0. c #A0AE49",
"q. c #B1837E",
"w. c #BD8079",
"e. c #D68A43",
"r. c #DF9F52",
"t. c #F5AD52",
"y. c #F0AC56",
"u. c #C6837E",
"i. c #9BC563",
"p. c #EDC159",
"a. c #FBD16A",
"s. c #FCE77D",
"d. c #8E5288",
"f. c #AE528A",
"g. c #B64D90",
"h. c #BA4F92",
"j. c #836383",
"k. c #896A89",
"l. c #917391",
"z. c #977B97",
"x. c #AA7192",
"c. c #C7539C",
"v. c #CD55A0",
"b. c #D759A7",
"n. c #DC5BAA",
"m. c #DF66AC",
"M. c #E864B4",
"N. c #F469BD",
"B. c #ED78B7",
"V. c #E774BB",
"C. c #F676C4",
"Z. c #659A81",
"A. c #B28681",
"S. c #B38984",
"D. c #B68E89",
"F. c #BC8D88",
"G. c #B6928D",
"H. c #BE918C",
"J. c #B69590",
"K. c #BB9994",
"L. c #AE8DAE",
"P. c #C98681",
"I. c #CE8B86",
"U. c #D3938E",
"Y. c #C19E99",
"T. c #C3A787",
"R. c #DEA39C",
"E. c #D7AC9D",
"W. c #E0A59E",
"Q. c #EF81B8",
"!. c #DDABA5",
"~. c #DEABA5",
"^. c #DFB1AB",
"/. c #D9A3B3",
"(. c #E0A7A0",
"). c #E2ABA4",
"_. c #E3AFA9",
"`. c #E4B3AC",
"'. c #E6B6B0",
"]. c #E7BAB4",
"[. c #E8BCB6",
"{. c #E7BEB9",
"}. c #E8BEB8",
"|. c #FCF686",
" X c #FEF492",
".X c #E7C2BD",
"XX c #E8C1BC",
"oX c #FFE8A5",
"OX c #FD87CF",
"+X c #CBAECB",
"@X c #D6BCD6",
"#X c #DCC2DC",
"$X c #DACDDC",
"%X c #E7C8C3",
"&X c #FFEFCA",
"*X c #FFF4D5",
"=X c #E3CAE3",
"-X c #EAD4EA",
";X c #EED9EF",
":X c #EFDBF0",
">X c #F1DEF1",
",X c #F3E4F5",
"<X c #F6E8F7",
"1X c #F6EAF9",
"2X c #F8EEFB",
"3X c #FBF2FD",
/* pixels */
"# $ 8 8 9 8 9 $ } O.o.....} ..#.#.w.w...} +.w.} } w.O...X.X.X.#.#.w.u.....O.w...} O.O... .X...#.#.+.u.X...O.+...9 9 9 $ # $ $ 7 ",
"+ $ $ 7 8 8 8 7 !.`.'.XX.XXXXX$.4.c '._.]._.XXXXE._.'.XXXX[.[.>.4.$.`.).]._.`.XX!._.].{..X{.].3.4.$.].~.].).`.}.# $ $ # # @ # @ ",
"$ $ 7 # 7 9 7 7 R.R.R.~._.E.#.$.$.g 3.3.T.`.)._.E.W.W.W._.7.#.$.$.f 4.4.).`.W.W.R.R.R.(.`.7.#.$.$.d 4.4._._.).W.8 # $ 8 9 8 # @ ",
"@ 7 8 7 $ @ @ @ R.R.!.!.$.4.Z OXN.N.Z #.$.#.u.E.R.E.XXu.z 3.` OXN.N.H #.$.#.'.R.R.(.).T.c 4.` OXN.N.H #.$.#.`.W.@ + # 8 # $ # + ",
"7 7 # # @ $ @ $ _.$.` N.OXN.n.{ A g.C.N.OXN.).`.E.#.h.N.OXN.b.[ ` g.N.N.OXM._.`._.c c.N.OXM.n.{ ` g.N.N.OXM.)._.8 8 # 8 $ $ $ 7 ",
"$ $ # 7 $ $ $ 9 ).m.OXM.N.g.[ e.p.e.[ v.N.N.OXM.).M.OXM.M.f.` e.r.e.{ v.N.C.OXn.).M.OXm.M.f.` e.r.e.[ v.C.C.OXn.$ # $ # 9 7 8 $ ",
"7 $ $ $ @ 9 0 $ | OXN.C.N.g.g.Z [ Z g.h.N.OXC.f.[ OXN.N.N.g.g.` [ Z h.c.N.C.OX[ [ OXN.N.N.g.g.` [ Z g.c.N.C.OX[ # $ # @ + + $ $ ",
"7 $ $ # $ @ $ $ _.N.N.n.N.c.g.g.n.g.g.n.N.n.N.B._.N.N.n.N.g.c.b.n.c.h.n.N.n.B.)._.N.N.n.N.h.c.b.b.c.g.n.N.n.C.).7 8 7 # # $ $ 8 ",
"# @ # + $ # # @ ].g.OXN.N.N.N.C.N.N.N.N.N.N.OXg.].g.OXN.N.N.N.N.N.N.N.N.N.N.OX/.}.g.OXN.N.N.N.N.N.N.N.N.N.N.OX/.$ @ $ @ @ # $ 7 ",
"$ 7 7 7 # $ $ 7 `.OXOXN.N.N.M.OXC.N.n.N.N.N.OXOX`.OXOXN.N.OXN.OXN.N.M.N.N.N.OXV.`.OXOXN.N.OXN.OXN.N.M.N.N.N.OXV.7 7 8 + @ $ 8 7 ",
"9 @ $ @ 8 8 8 8 ^.M.OXOXOXV.B.].[ Q.h.OXOXOXOXn.^.N.OXOXOXh.N.'.V.N.g.OXOXOXOXn.`.N.OXOXOXg.N.'.V.N.g.OXOXOXOXn.9 $ # 0 + @ # $ ",
"$ # 7 @ 7 $ $ 7 R.n.N.N.B.'.].).W._._.b.n.n.N.n.R.n.N.n.'.'.]._.E.).`.m.n.n.N.n.R.n.N.n.].`.]._.R._.`.m.n.n.N.n.8 $ # 8 7 @ # 7 ",
"7 8 # $ # # # $ ^.].U.W.^.XX.X%X%X[.].XX].%X_.~.^.[.U.~.`.XX.X%X%X[.`.[.[.%X).).^.].U.~.`..X%X%X%X].`.XX].%X).).# # # # # # # $ ",
"8 $ 7 8 9 7 $ 7 `.[.]._.^.E.`.].!.]._._.'.`.].XX`.{.'.!._._.`.].!.]._.`.].`.].XX^.].].)._.~._.].^.'.`._.].`.}.XX7 7 # $ 7 # $ 7 ",
"8 0 7 # $ + + 8 XXR.W.W.W.).).W.R.R.W.).'.'.].'.[.R.R.R.W.(._.W.~.R.R.).`.`.].].{.R.R.(.(.).).).~.R.R.).`.'.'.].7 $ $ $ 7 7 8 @ ",
"# 8 $ 8 7 # @ # ].].].].].].].'.^.'.`.].].).`.XX[.[.[.[.].].].`.!.`.].].[.).].[.[.].].].].].].`.^.`.'.].[.).'.}.$ 8 $ # 7 7 # $ ",
"8 8 $ 7 8 @ # $ ]..X.X.X{.[.W.(.!.].R.~.].].}.XXk z f s z *.-.2.*.:.%.7.f *.>.-.].XX.X%X{.].(.(.!.'.R.E.].}.[.XX8 8 7 $ $ @ $ @ ",
"# $ 7 7 # 8 # $ R.(._.'.[.].].XX].'.'.[.].{.{.'.l k i $.&.-.%.9.c *.a g z ;.8.%.R.).`.`.[.[.].XX].'.].}.[.}.[.].# $ $ # @ @ # # ",
"$ @ 7 # # 9 8 8 ~.~.W.).~.(.).).R.R.W.W.W.).(.W.;.i d g j :.%.z $.2.p c ^ *.$.0.~.R.(.).).).)._.W.W.R.W.W.).W.).7 # # 8 $ 8 # @ ",
"# $ 7 $ @ @ + @ R._.(.).`.'.{.~.).)._.`.'.`._.W.;.l ( g f #.x &.$.$.k k d.U =.$.R._.R.).`.`.[.W.W._._.`.'.`._.W.@ @ @ 7 # # # @ ",
"$ $ # @ # 7 8 8 Y.Y.K.G.q.q.q.H.H.D.F.F.A.A.F.Y.f j s g k -.c :.t $.k d.' x.#.s Y.K.K.G.A.q.S.H.H.D.F.F.A.q.F.K.7 8 $ $ $ $ 7 7 ",
"@ $ 7 $ 7 7 9 7 [.'.`.].].].]._.~._.].}.XX]._.`.%.oXu h s.j k g d 9.>.z t f =.f {.'.`.].`.].]._.~._.].}.XX].`.`.$ @ # @ 8 7 7 7 ",
"7 $ $ 9 @ 0 9 # ).).`.(.).(.W.W.).`.).).).R.W.).oX*Xy %.c h k k &X>.-.-.%.*.p l ).).`.~.).(.W.W.).`.).).).R.W.).7 # $ @ @ # 7 7 ",
"8 8 # $ $ 0 8 $ _._._.`.`.`.(.W.R.].).).).`.`.).z =.i c *X&.x f l *.-.8.t 8.u l _._._.`.`.`.).R.R.'.).).).`.`.).8 7 7 7 $ 7 $ 7 ",
"$ 7 # 7 # # @ @ A.A.S.S.D.D.D.G.K.K.G.K.A.A.A.A.z *.{ k.*X=.w %.y 8.y %.*.g z s A.A.S.A.D.D.D.G.K.H.G.K.A.A.A.A.$ $ $ # # # $ 7 ",
"7 7 8 $ $ # 7 7 '.R.).`.].`.`.}.{._.`.'.[.[.{.`.y P | ] p.*.f g a -.*.h =.=.-.*.'.R.~.^.].`.`.[.}._.`.].[.{.XX`.$ 8 @ # @ + + $ ",
"7 # $ # $ $ # $ '.[.].].W.W.W.`.[._.W.W.W.W.W.W.a.h d.c x =.f *. X%.7.j &.=.9.u '.{.].].R.W.R.`.[._.W.W.R.R.W.W.7 $ # 7 @ $ # 7 ",
"7 # # # # @ @ $ E._.).).`.].XX_.(._.'.].`.`._.~.*Xl h l l :.=.8.9.*.d g d j l k R.).)._.'.]..X_.(._.].].'.`.`.(.7 # 7 # @ @ # @ ",
"$ 7 9 @ # @ $ $ G.D.D.G.A.A.S.A.S.A. .A.A.A.A.K.g z h %.u 7.-.8.:.=.d.] a j u :.J.D.D.G.A.A.A.A.S.A. .A.A.A.A.G.$ # 7 8 $ 7 $ # ",
"8 7 $ $ 7 $ $ $ .X.X.X%X`.`.].`._.].`._.`.`.).}.d z :.*.5.-.8.-.c d.' x.y.j c p XXXXXX%X`.`.].`.`.].`.).`.`.).}.$ $ 7 # $ 7 $ $ ",
"@ 8 7 # # @ @ 7 '.R.R.W.R.W.(.W.^.R.R.).).(.).`.-.s =.%.-.9.9.z l j h g *Xc h z '.W.W.W.W.W.~.W.^.R.R.)._.).).`.8 @ @ # # # # @ ",
"# $ 7 $ 8 $ 7 $ ].].]._.'.'.`.).`.{.`.].'.'._.'.i c f g u 9.-.>.c h :.&.t z #.i.].[.'._.'.`.`.).`.}.`.].`.`.`.'.@ 8 8 8 8 7 $ 7 ",
"+ 8 7 7 7 @ $ 7 I.S.S.S.q.q.q.G.G.G.K.G.A.A.A.F.I.S.S.A.q.q.q.D.J.G.K.G.A.A.S.H.F.S.S.A.O.A.O.J.J.D.J.J.S.A.A.H.7 8 # # # # $ # ",
"7 7 7 $ $ @ $ 7 !.).(.(.`.`._.'.).).`.].[.XX`.[.!.).(.).`.`._.'._.(.'.'.].{.`.[.~.).).).'.^._.'.^.(.'.[.[.{.`.{.# + 7 $ # @ @ # ",
"# # $ $ # 7 $ # !.'.`._._._.].].).).).).(.)._.).!.'.`._._.`.[.[.).).).).(.).).).).'.`._.).'.'.'.).).).).(.).).).7 # # 7 @ 8 # # ",
"# 8 7 7 # @ @ + !._.`.`.`.'.`.W.R.).`.[.].`.`.R.!.^.`.`.`.`.`.W.W.(.`.[.].`.'.R.)._.`.`._.'.'.~.W.).'.'.'.'.`.W.+ + @ 8 $ # # 8 ",
"# @ 7 # $ $ $ 7 I.I.I.+.o.o.@.@.u.+.O.X.} ..O.O.I.I.I.+.X.o.O.+.@.O.O.X.} } o.O.I.I.I.@.X.o.O.+.+.+.o.X.} ..o.o.7 9 0 7 7 $ $ 7 ",
"7 $ 7 # $ 7 0 8 '.~.`.].[.[.)._.^.`.`.`.}.'.W.`.'.~.`.].[.}._.`.`.`.`.`.[.'.(.`.'.(.'.'.[.{.`._.`.`.`.'.].'.(.'.$ @ # @ # 7 $ 9 ",
"# 8 $ 9 7 8 8 7 _.`.].`.`.).W.R._.].`._.(.(.)._._.`.'.'._._.(.R._.[.'._.(.).)._._.`.'.'._.).(.R._.[.'.).(.).).).# $ 7 # # # 7 $ ",
"8 7 $ 7 7 9 $ $ ).)._.`._.`.W W R R `.`.`.`.(.(.).)._.`._.`.).(.R.'.`.`._.`.).).).)._.`._.`.Q Q W Q '._._.`.).).7 $ 8 7 7 7 $ 8 ",
"+ # 7 $ @ # @ $ X...X.} } ..e q q q P.+.X.X.O.o.X.X.X.} } X.+.+.o.+.P.+.X...O.O.X.X.X.} } X.q q q e P.+.X.X.o.o.$ $ $ # @ + # 8 ",
"$ 7 8 7 7 8 8 7 .XR.W.).'.W Q J J ! W `.].XX'.'.{.).~.(.'.).).[.XX~.`.`.].}.`.'.].~.W.(.`.W ! J J J Q `.].XX'.'.7 7 # # @ # # 7 ",
"$ $ 7 $ 8 $ $ 8 `.XXXX}.W.e ^ / ) ( r ~.R.W.R.R.'.{.XX{.R.(._.'.].'._.(.W.W.W.W.'.XXXX}.R.r ^ ) ) / r (.R.W.W.R.7 $ $ 7 7 8 $ @ ",
"8 8 $ $ $ 8 7 $ )._.'.'.'.e _ t.y.6.r ].(.`.`.`.~._.'.'.].[.[.(.W.).`.].W.'.`.`.~.`.'.'.'.r _ t.y.6.e ].(.`.`.`.$ # 7 7 $ 7 $ # ",
"8 9 8 7 # # $ $ @.u.u.O...r t.s.|.a.~ P.u.P.P.u.+.P.@.+.} } X.P.u.u.I.P.u.P.u.u.O.P.@.O.} e t.|.|.a.a I.u.P.P.u.$ # 7 8 8 $ # $ ",
"8 7 7 # 7 8 $ $ [.).}.XX'.r t. X*X|.~ R._.)._.[.[.).}.{.`.'.).'.].`.).~._._.).].].).}.XX`.e a. X*Xs.~ W.`.).).}.$ $ 7 # $ 7 7 7 ",
"@ 7 $ 7 $ @ # @ ].W.W.W.W.r t.s.|.s.~ ).).).`.[.].W.(.(.(.)._.W.^.^.).).).).`.].].W.W.(.W.e t.s.|.a.~ _.).).`.[.# 7 # $ $ 7 # # ",
"# 7 7 7 7 @ $ $ ).'.].].].Q J Q G W W XX`.(.W._.).'.'.].'.'.`.).'..X.XXX_.).W.`.).'.].].].W W Q J Q R XX_.).W._.$ 8 9 8 9 $ $ @ ",
"# + 8 7 $ $ 8 7 z.j.L M n C I T k.k.I M M T T k.u.+.P.@.@.@.@.P.u.u.u.u.U.u.@.x.z.j.L N b C I T k.j.I M M T j.k.$ 7 # @ # $ @ + ",
"$ # 7 $ 8 @ 7 8 Y T m v : v m V j.j.T T U K m C R.R.W.R.(._._.).W.W.`.'.`.`.`._.Y Y m > : b m C k.j.T T U K m K # $ @ $ # # + @ ",
"# # + # @ # # @ M j.N v ; > n m Y B B B B b n b `.].'.'.`.'.[.[.'.`.R.W.W.).).).M j.B v = : n m Y B N B B b n b # # # 7 7 7 $ + ",
"# 9 $ $ $ @ @ + V T n v = > B 1X2X3X> ; v - > n R._.U.).).'._.).).).].).[.].`.~.B j.n b = > B 1X3X3X> ; v - > b @ @ # 7 $ @ $ 9 ",
"$ 7 7 $ # 7 7 # j.K b > : : >X-X>X>X3X1X3X- b v . . X . X       + . . . . . . . j.C n v : : ,X-X:X,X3X1X3X= b b 7 9 8 # # $ $ 7 ",
"8 7 8 8 # 7 9 8 I b > 1X,X,X,X:X1X;X1X>X2X1X> I 1 4 6 1 4 6 4 4 E 6 5 3 4 6 4 6 I v > 1X,X,X,X;X1X-X<X>X1X1Xv I $ # # @ @ 7 # 0 ",
"$ 7 8 # @ # # $ C N >X3X<X,X>X;X@X>X<X1X<X1XT Y 1 6 6 3 1 5 5 6 3 4 3 3 1 1 4 3 K M >X2X,X>X>X>X#X:X,X1X<X1XT Y $ 7 7 $ # # @ 7 ",
"8 7 7 7 $ 9 $ # T I n ,X,X;X=X-X+X>X>X>X-X<Xl.T   6 3 & , 2 , & 6 3 o 1 * & & * T I n ,X<X;X=X;X+X,X:X>X-X<Xl.] $ # $ 8 $ # $ $ ",
"$ + 7 $ $ $ # 7 T j.j.<X2X>X=X@XL.+X:X;X<XK B I X 6 3 O O < 2 S D S o 3 , * o o T j.j.<X2X,X=X@XL.@X:X;X1XK B I $ 8 # # $ # @ $ ",
"7 7 9 7 8 8 7 7 B T N ,X<X-X#XL.#X+X#X>X,X1Xv m . * & & * < E 1.Z.1.S 3 , o , . B T N <X,X-X@XL.@X+X#X>X,X1Xv m 8 7 0 $ @ @ $ @ ",
"# 7 7 7 7 7 8 8 I K n ,X,X,X-X=X#X-X#X;X1X<Xb C   < < O & S 1.i.% <.F , o o , * I C m ,X,X,X-X=X@X-X$X;X1X<Xb V 7 # 7 7 7 $ # # ",
"7 7 7 $ # 7 7 $ M b 3X3X,X>X<X:X=X:X,X;X2X1Xn j.. < O O & S <.,.% ,.F * * . , o M n 3X2X,X>X<X;X=X;X>X;X2X1Xm j.# 7 7 $ $ # 8 # ",
"7 8 @ @ $ $ $ 7 B v v 1X,X;X:X#X<X<X<X,X2XK N K   & O * , 2 F 1.Z.1.S & , & , o B v v 1X,X;X:X#X,X1X1X,X2XK N K $ # $ 7 8 # # @ ",
"8 $ 8 $ $ 9 8 # n v > b : ; $X<X<X,X- : > > l.N   < O o & , 4 D F 6 * & & X , & n v > v : ; $X<X,X,X- : b > l.M $ $ 7 $ # # $ 9 ",
"# $ # 7 $ # @ 7 C m v N N N N U Y B : > m N Y Y . & , . & , & X X & & & X , & , C n b N B M N U Y B > v n N U Y 7 7 8 # 7 @ # # ",
"9 7 7 $ @ @ @ $ l.k.L n V j.C Y Y N b N V K j.l.. . . .   .     X X . . . .   o l.k.L n V j.V T T M v M V K k.z.0 8 # # $ 7 7 $ "
};
