/* XPM */
static char *b6ee5453b8034ee1e73e4317a9834e80Skxgq4HJIECrLsmR[] = {
/* columns rows colors chars-per-pixel */
"64 64 222 2 ",
"   c #250000",
".  c #2C0000",
"X  c #340000",
"o  c #3B0000",
"O  c #200F18",
"+  c #261B17",
"@  c #2B1E19",
"#  c #2F221E",
"$  c #32241F",
"%  c #2B1923",
"&  c #331E27",
"*  c #372B26",
"=  c #35222A",
"-  c #3B242D",
";  c #292D38",
":  c #3F2630",
">  c #2D313D",
",  c #373737",
"<  c #430000",
"1  c #4B0000",
"2  c #530000",
"3  c #5A0000",
"4  c #463219",
"5  c #573A19",
"6  c #6C381D",
"7  c #783D1F",
"8  c #41342E",
"9  c #412731",
"0  c #452834",
"q  c #492A36",
"w  c #4D2D3A",
"e  c #522E3C",
"r  c #582F3F",
"t  c #483835",
"y  c #54303F",
"u  c #733B21",
"i  c #4C541D",
"p  c #644614",
"a  c #6A411A",
"s  c #77481E",
"d  c #475C22",
"f  c #575023",
"g  c #495D31",
"h  c #674824",
"j  c #714A29",
"k  c #795624",
"l  c #4C6325",
"z  c #4B622E",
"x  c #4F6B28",
"c  c #566826",
"v  c #546C2A",
"b  c #5C6E2B",
"n  c #5B722C",
"m  c #5C782C",
"M  c #4F6832",
"N  c #597733",
"B  c #587D38",
"V  c #65782B",
"C  c #637B2E",
"Z  c #647B32",
"A  c #687B34",
"S  c #72783B",
"D  c #2F3340",
"F  c #323644",
"G  c #353B4A",
"H  c #393C48",
"J  c #3A3F50",
"K  c #563240",
"L  c #5C3343",
"P  c #623547",
"I  c #643649",
"U  c #6C364C",
"Y  c #66384A",
"T  c #6C3A4D",
"R  c #753B4D",
"E  c #743A51",
"W  c #7B3C55",
"Q  c #7F3E58",
"!  c #7A3E79",
"~  c #3D4149",
"^  c #3D4254",
"/  c #444A59",
"(  c #57585B",
")  c #664A50",
"_  c #5D5E64",
"`  c #734569",
"'  c #696A6A",
"]  c #855128",
"[  c #A95929",
"{  c #8E6231",
"}  c #926736",
"|  c #B46E25",
" . c #AA7034",
".. c #CF732F",
"X. c #8C364E",
"o. c #833D59",
"O. c #833E5A",
"+. c #AA396A",
"@. c #86415C",
"#. c #8A425E",
"$. c #9F635B",
"%. c #8D4361",
"&. c #924563",
"*. c #9A4768",
"=. c #98556C",
"-. c #A4496C",
";. c #B25377",
":. c #B56D6E",
">. c #AD726E",
",. c #B76979",
"<. c #AD7571",
"1. c #B37571",
"2. c #B77874",
"3. c #BA7A76",
"4. c #BE7D78",
"5. c #C87C43",
"6. c #C17E7A",
"7. c #5F863D",
"8. c #6B8434",
"9. c #6B8C36",
"0. c #698739",
"q. c #768C36",
"w. c #758B38",
"e. c #74933D",
"r. c #799639",
"t. c #7BA131",
"y. c #6A9442",
"u. c #799942",
"i. c #889337",
"p. c #C38A35",
"a. c #EA8133",
"s. c #F39033",
"d. c #FF9736",
"f. c #849E43",
"g. c #909D40",
"h. c #B28045",
"j. c #86A546",
"k. c #90B250",
"l. c #AD916A",
"z. c #B8817C",
"x. c #D58B48",
"c. c #DF9A51",
"v. c #ED9A4A",
"b. c #EB9F51",
"n. c #F4B558",
"m. c #C4817C",
"M. c #C9837F",
"N. c #D49E7F",
"B. c #FFB962",
"V. c #B3C85A",
"C. c #FAC95E",
"Z. c #CAD262",
"A. c #FBCD6A",
"S. c #FEF378",
"D. c #9D5C80",
"F. c #955495",
"G. c #B7568A",
"H. c #B3688A",
"J. c #AC77AA",
"K. c #C05888",
"L. c #C46F95",
"P. c #CB7AA3",
"I. c #D47DA6",
"U. c #B28681",
"Y. c #B38984",
"T. c #B68E89",
"R. c #BC8D88",
"E. c #B6928E",
"W. c #BE918C",
"Q. c #B69590",
"!. c #BC9893",
"~. c #CB8580",
"^. c #C58A84",
"/. c #CE8984",
"(. c #CC8E89",
"). c #D08B86",
"_. c #D38E89",
"`. c #C7948A",
"'. c #C9938D",
"]. c #D4918C",
"[. c #CC9B95",
"{. c #C89C97",
"}. c #D59994",
"|. c #D89A94",
" X c #CAA491",
".X c #DEA39D",
"XX c #E0A59E",
"oX c #D48DAC",
"OX c #DA96B9",
"+X c #DCAAA4",
"@X c #DEABA5",
"#X c #DFB1AB",
"$X c #E1A7A0",
"%X c #E2ABA4",
"&X c #E3AFA8",
"*X c #E4B3AC",
"=X c #E5B6B0",
"-X c #E6BAB4",
";X c #E8BDB7",
":X c #E7BEB9",
">X c #FFDF88",
",X c #FDE988",
"<X c #FEF38F",
"1X c #E7C2BD",
"2X c #E8C2BC",
"3X c #FFF4A9",
"4X c #D99DC0",
"5X c #E39CC2",
"6X c #E5A9CA",
"7X c #E4B2CE",
"8X c #EBB7D5",
"9X c #EBBAD6",
"0X c #E8C7C2",
"qX c #EAC5DB",
"wX c #F2C4DD",
"eX c #F7C9DE",
"rX c #FFF8CC",
"tX c #FFF0D5",
"yX c #F4CBE3",
"uX c #F9CBE3",
"iX c #FAD6EA",
"pX c #FDE3F2",
/* pixels */
"X o 1 1 2 1 2 o >.3.3.<.t.t.9.p B B d.S.| t.4.<.>.3.3.J / F <.4.4.4.m.1.<.3.4.<.m.^.t.B | S.i.B 5 t.x t.l.^.^.'.1 2 2 o X < o o ",
"  o < < 1 1 1 < +X*X-Xx t.B t.b 5 B x d.N.t.*X;X+X*X-X> ~ H ;X1X&X-X-X%X-X%X*X;X4.=X Xq.| d.x f B t.t.B m *X=X`.X o o o X . X . ",
"o o < X < 2 < 1 .X.X.Xx g q.t.B p A B B t.&X%X%X.X.X.X> ; , *X*X%X$X%X%X%X&X%X%X2.*X+X*Xt.B B p B v t.q.x +X*X(.1 X X 1 2 1 X   ",
"  < 1 < o .     .X$X%Xl x t.x  Xp | d.Z.p j.*X.X.X$X%XD ; F }.XX%X%X%X%X*X*X*X.X3.[.t.t.p S.d.p [.q.x t.l [.[.'..   X 1 X o X   ",
"1 < X X   o . o #X-Xx x t.B q.z k x d.d.| t.%X*X#X-X}.~ H H 2X0X1X1X%X=X2X2X%X*Xm.&Xt.t.| d.| k g x q.B m x &X(.1 1 X 1 o o < < ",
"o o X < o o o 1 %X=Xx t.q.q.| z k %Xk | | t.*X-X%X=X*XF ( ; *X*X+X%X-X-X1X-X*X-Xz.%Xt.B t.| k k x x | q.t.&X&X'.o o X X 2 1 1 o ",
"< o o o X 2 3 o *X*X=Xx x 5 x | p B q.t.t.t.%X*X*X*X=X> ' ' %X%X+X*X%X%X*X&X%X*X^.*Xt.q.t.t.q.p [.d x 5 x +X+X'.. o o .     o o ",
"< X o X o . o o *X*X*Xx d B | p.g B q.v t.%X%X%X*X*X*XF ( D &X.X.X%X*X&X*X%X%X%X^.*X+X`.t.q.q.g | S.| 5 l &X*X(.< 1 < X X X o 1 ",
"X . X   o o X   - - - 8 t.q.d...M B 5 q.v : - - -X:X;X( _ F *X%X.X*X.X*X0X0X0X0X^.*X.Xt.x q.5 g | d.d.q.m *X*X'.o . o . . X X < ",
"o < < < X o o < - %.Q t.B | | i.t.q.q.p t.t.O.K *X.X%XF ( ; -X1X%X*X*X%X-X*X-X-Xm.*Xt.B r.p q.B g | s.| r.*X*X(.< < 1   . o < < ",
"1 X X X 1 1 1 1 9 &.e t.x d p M g K B p S t.W y *X=X%X> ' ' %X=X:X*X%X.X.X.X.X}.m.*Xt.t.(.p B z g q.p d r.+X&X'.1 o X 3     X o ",
"o X <   < o o < - #.K V d C g M x l q.g q.= O.e .XXX&XF ( D -X%X$X&X*X*X;X-X*X%Xz.%X+X'.q.g q.x g 8.g x l &X+X'.1 < X 1 < . X 1 ",
"< 1 X o X X X o 0 W L x x t.g m e q t.w.t.= O.w *X-X].( _ F 1X0X0X-X=X;X-X0X%X%X4..X|.'.t.q.t.1.x t.g q.x &X+X(.X . X X X X X o ",
"1 < < < 2 < < < 0 E @.O.%.t.r.W %.&.%.t.t.E U e *X-X-XF ( ; *X-X+X=X*X&X-X*X-X1X4.*X+X=Xt.t.=X=X#X#Xq.t.*X+X*X'.< < X o < X o < ",
"1 2 < X o     1 0 P e L I I K I I P P L I L E q ;X.X.X> ' ' %X%X+X.X.X%X*X=X=X-X1.*X*X*X*X*X*X*X&X&X&X&X%X+X%X^.< o o o < < 1 . ",
"X 1 < 1 < X   X 0 I K f.tXe.6 A 3Xy.r.8.l e #.y ;X-X-XF ( D -X*X+X*X=X-X-X%X=X:X4.[.[.[.[.[.[.[.[.[.[.[.[.[.[.'.o 1 o o < < X o ",
"1 1 o < <   X o 0 P P F.8.e.c w.w.j.b e.w.e O.w ;X1X1X( _ F $X$X= = - - - - - = - - = - - 9 9 - +X-X.X+X;X;X:X2X1 1 < o o . o . ",
"o o o < X 1 o o 9 E e 9 w w e 0 w 0 0 9 q - W w .X%X*XF ( ; -X1X- &.&.@.@.@.*.%.&.&.%.@.&.@.%.P -X=X-X;X;X;X:X=XX o o o X . X X ",
"o X o X X 1 1 1 0 E U Q E Q E %.@.W O.@.&.&.E q +X%X$X> ' ' %X%X9 -.K L P L L P Y L K I T K O.L .X.X.XXXXX%XXXXX< X X 1 o 1 X . ",
"X o < o . .     9 O.L e e I K P K I I I P L W w .X&X$XF ( D :XXX: &.w 6X8XyX% } $ 7X=.P.OX9 O.L %X%X&X*X=X*X*XXX.     < X X X . ",
"o o X X X < 1 1 9 U K 8.a e.u.u.A 9.D.` c e O.L !.{.Q.J ^ H U.W.9 Q I : 9 q 9 q e 0 9 q w - W K W.T.R.R.U.U.R.{.< 1 o o o o < < ",
"X o < o < < 2 < - O.K 9 : r r w e q w w r 9 P L ;X=X*XF ^ ; -X%X0 E &.@.@.&.&.U %.&.*.@.&.%.U K +X&X-X;X2X-X&X*Xo . X   1 < o < ",
"< o o 1   3 2 X q &.@.E U %.E I &.W E U &.*.U r %X%X*XF G / XXXX0 U K P T T L T T Y T I I I O.w %X*X%X%X%X.XXX%X< . o . . X < < ",
"1 1 X o o 3 1 o 9 K K K Y K q w L I K y T I L L &X*X*XF G > %X.X0 E I OXG.L.+.7XoXuXuXwXOXq #.K .X=X%X%X&X*X*X%X1 < < < X < o 1 ",
"o < X < X X . . U.U.Y.Y.T.T.T.E.!.!.E.!.U.U.U.U.U.U.Y.J ^ H T.E.q L T 9XyXP.qXeXwXb.yXG.,.q O.K !.!.E.!.U.U.U.U.o o o X X X o < ",
"< < 1 o o X < < =X.X%X&X-X*X*X:X:X*X*X-X;X:X2X*X=X.X%XF ^ ; *X:X0 U P - 9 q 0 9 q : q 0 0 = W K :X*X*X-X;X:X2X*Xo 1 . X       o ",
"< X o X o o X o -X;X-X-X.XXX.X*X-X&XXXXXXX.X.XXX-X;X-XF G / .X*Xq O.U W W O.@.-.&.W Q %.*.-.O.K -X&XXXXXXX.X.XXX< o X <   o X < ",
"< o . X X   . o .X&X%X&X=X;X1X%X$X*X-X-X=X*X*X$X.X&X%XF G > 1X%X9 @.y K K I y L T K L I E T W y $X*X-X-X=X*X*X$X1 X < X . . X   ",
"o < 2 . X X X o Q.T.T.E.U.U.Y.U.Y.U.<.U.U.U.U.Q.E.T.T.J ^ H Y.U.9 %.e ) 6XoX5X@ @ wX6Xb.9X0 O.L Y.U.<.U.U.U.U.Q.o X < 1 o < o o ",
"1 < o X < o o o 1X1X1X0X*X*X-X*X#X-X*X%X*X*X%X:X1X1X1XF ^ ; -X*X9 Q L - - 9 w e r 0 9 9 e - E P #X-X*X%X*X*X%X:Xo o < X o < X o ",
". 1 1 X X . . < *XXXXXXX.XXX$XXX+X.X.X%X%X%X%X*X*XXXXXF G / $XXX- E %.&.@.E W W %.W W @.-.@.E y +X.X.X%X%X%X%X*X1 .   X X X X X ",
". o < o 1 o < o -X-X-X%X*X=X*X%X*X:X*X-X*X*X&X=X-X-X-XF G > *X%X= L L I T P L L Y I Y E T T Y L *X:X*X-X*X*X&X=X. 1 1 1 1 < o < ",
"  < < < 1   o o x.j.q.N u.w.8.Z u.e.n y.j A 0.v R.Y.Y.J ^ H z.E.Q.E.Q.E.U.U.U.W.R.Y.Y.U.z.z.z.E.Q.E.Q.Q.U.U.U.W.< 1 X X o . o X ",
"< < < o o X X < b n V V d l 8.8.k i.8.y.v Z v 0.+X%X$XF ^ ; *X=X&X%X*X-X-X:X*X;X+X%X$X%X*X*X*X=X&X%X=X-X-X:X*X;XX   o o X . . X ",
"X X o o X < o o Z C q.8.d x 6 r.C.f.n r.N e.B Z +X*X*XF G / -X-X%X%X%X%X$X%X%X%X+X*X*X*X&X*X-X-X%X%X%X%X$X%X%X%X< X X <   1 X X ",
"X 1 < < . .     Z e.j.D.! v l V.c.u.8.j.N x l x +X&X*XF G > *XXX.X%X*X-X-X*X*X.X+X&X*X*X*X*X*XXX.X%X*X-X-X*X*X.X    . 1 o X o 1 ",
"X   < X o o o < tX0.F.) H.n b u.d q.V j.N c s b /.(.(.J ^ H 3.4.z.4.3.1.>.>.2.3./.(.(.4.2.2.3.4.z.4.3.1.>.>.2.3.< 2 2 < o o o < ",
"< o < X o < 3 1 v v d 7.k k.Z r.n l 0.5.Z m  .v *X%X*XF ^ ; *X*X*X*X*X*X;X*X$X*X*X%X*X-X-X:X*X*X*X*X*X*X;X*X$X*XX . X . X < X 2 ",
"X 1 < 2 < 1 1 o c n 9.r.b.k.w.r.c c n C.8.C x.tX&X*X*XF *X> $X.X&X;X=X%X%X%X%X&X&X*X*X*X*X%X$X.X&X;X=X%X%X%X%X&XX o < X . X < < ",
"1 < o < < 2 < o u.n s q.C j.u.C e.c r.8.f.b 9.Z %X%X&XF G ; %X$X.X=X*X*X*X*X%X%X%X%X&X*X*X*X%X$X.X=X*X*X*X*X%X%X< o 1 < < < o 1 ",
"  X < o   X X o b V.v N 0.8.9.0.8.n q.w.F.F.=.Z 2.2./ / ^ / 4.4.2.4./.4.2.1.3.2.t ,.6X* 8 6XpXt t uX;.iXt t 8XiXo o o X .   X 1 ",
"< < 1 < 1 < 1 < k u.w.b C s f.8.N n 0.C F.=.J.8.:X$X6 6 6 6 %X-X2X%X*X*X-X1X=X=X* @ + t 5 OXpX4 @ 5 wXyXh 8 G.pX< o o X   X o < ",
"o o < o 1 o o 1 ] e.q.0.0.s r.<Xq.A u.C n d ` tX=X/ / / ^ J / =X-X*X&X$X.X.XXX.XL.* k yX9XX.8X5 $ uX6XOX6X8XoXyX1 X o o < 1 X . ",
"1 1 o o o 1 < o tX0.s w.V M e.8.k.r.e.V n C N n +X6 [ ......u %X.X%X*X-X%X*X*X*X4X4 A.6X8XyX% } $ 7X=.P.OXj qX$.o X < < o < o X ",
"1 2 1 o X X X o 8.m 8.l B D.` 8.V u.k.w.w.m A m 4.6 a.B.A.n.7 ~.m.m./.~.~.~.~.M.* 9XP.-.I.iX% @ * 8 yXOXOX<X- % o X < < 2 o X o ",
"1 < < X < 1 < o Z v 7.v F.) H.f.v k.q.e.b k.C.0.-Xu n.,X3XS.] =X-X=X%XXX&X%X%X-X7XwXP.R I.} @ h h * OXeXc.& } ) o o < X X < < < ",
". < o < o . X . n v v d l 0.i 0.b j.q.j.c j.k q.-X7 B.<XrX,X] XX#X%X%X%X%X%X*X-XOX7X6XP.6XiXj w ,XqX,.: yXx.c.% o < X o o < X X ",
"X < 1 < <   o o 9.u.s N 0.0.g.e.A k.u.m c n b B %X6 v.A.S.A.] %X=X2X1X2X&X$XXX&XOXiXuXOXG.L.+.6XoXuXuXwXOX4XyXw o 1 2 1 2 o o X ",
".   1 1 o < < o m.4.M.6.6.4.6.M.~.M.)././.).1.M.m.^ / / ^ / / ~.~.M.)././.).1.M.* ,.# 9XyXP.qXeXwXb.yXK.,.OXiX+ < 1 . . X o X   ",
"o X < o 1 . < 1 .XXX.X.X%X%X*X%X.X.X%X-X*X*X-X*X.XXX.X.X%X%X*X%X.X.X%X-X*X*X-X*X* h  .h # O : OXoXK.k ;.*.OXI.* X o . o X X   X ",
"X X   o   X X   *X-X=X=X*X=X;X;X*X*X|.%X%X%X%X%X*X-X=X=X*X=X;X;X*X*X|.%X%X%X%X%X* k - 0 0 @ % { } OX* 8XP.wXpX* o X X < < < o   ",
"X 1 < o o . .   .X%X|.%X%X=X*X%X%X%X-X%X-X=X=XXX.X%X|.%X%X=X*X%X%X%X-X%X-X=X=XXX* h x.- iX6XyXt { 9XP._ x.}  .* . . X < o X o 2 ",
"o < < o X < < X _.].].~.1.m.4.6.~.M.3.3.4.3.4.3._.].].~.1.m.4.6.~.M.3.3.4.3.4.3.* j 6X) 6XoX5X@ @ wX6Xb.9XX.iX* 1 2 < X X o o < ",
"1 o 1 1 X < 2 1 %X%X&X;X;X;X;X%X+X&X&X&X%X%X%X%X%X%X&X;X;X;X;X%X+X&X&X&X%X%X%X%X* 4 8XeX8X;.OXpXiX] 0 - ,XB.8XL.o X X .   < X 3 ",
"o < 1 X . o X o *X*X=X*X*X%XXXXX*X-X*X&X%X%X&X&X*X*X=X*X*X%XXXXX*X-X*X&X%X%X&X&X* @ h. .iXeXwXuX:.yX& 0 >X{ wXP.o < < o X X   < ",
"1 < < < o 1 o X &X%X%X&X&X*X%X%X+X*X|.%X%X*X%X&X&X%X%X&X&X*X%X%X+X*X|.%X%X*X%X&X* 7X$ 8 t iX8 t 7Xt 8 t t * @ @ o X o 1 o o o o ",
"o   < o o X . < 6.M.m.6.4.1.1./.q - - - = - - - = - - - - : - - m.~.].m.6.m.~.4.6.M.m.6.4.1.1./.m.~.].m.6.m.~.4.o 1 X X o X . o ",
"< < 2 < 1 1 1 < *X$X$X%X%X*X%X*X- &.W @.&.&.&.@.&.*.%.@.-.*.@.L -XXX%X*X|.-X-X*X*X$X$X%X%X*X%X*X-XXX%X*X|.-X-X*X1 < 3 o .   o . ",
"X < < < 1 < 1 1 *X-X-X-X$X%X*X=X9 -.q I K I P I I P L P L y O.I *X*X%X.X.X.X.X.X*X-X-X-X$X%X*X=X*X*X%X.X.X.X.X.X< X < < < o X X ",
"o < < o X < < < .X&X|.%X=X:X=X%X9 O.e 6X8XyX% } $ 7X=.P.OX= @.L %X*X(.-X%X%X*X;X.X&X|.%X=X:X=X%X%X&X(.-X%X%X*X;XX o < o X X 2 X ",
"< 1     o o o < ~.).4.M.6.m.~.).9 Q P 0 q q w w e q 0 e r & W y ).).].]._./.].].~.).4.M.6.m.~.).).).].]._./.].].o X o < 1 X X   ",
"1 o 1 o < 2 1 X %X$X&X=X%X%X*X*X0 W O.W @.%.#.O.O.Q @.O.Q Q E y *X%X|..X%X%X%X*X%X$X&X=X%X%X*X*X*X%X|..X%X%X%X*Xo o < o X X o 2 ",
"X o X < < X   < -X$X$XXX%X%X%X.X0 U q L I I L P I P P I I L E w -X%X%X%X%X*X%X-X-X$X$XXX%X%X%X.X-X%X%X%X%X*X%X-X< < 1 X < . X X ",
"2 < < o   .   < .X%X&X*X%X;X=X4.K O.w oXyXeXoXB.K.,X6X6XP.I @.- *X%X;X*X*X&X%X%X.X%X&X*X%X;X=X4.*X%X;X*X*X&X%X%X2 1 . X o < < o "
};
