/* XPM */
static char *_1d11f09c8d64adbbd6401b57725fdbfzQRaBTUrAL6Mg2FT[] = {
/* columns rows colors chars-per-pixel */
"64 64 226 2 ",
"   c #0D0803",
".  c #1B1206",
"X  c #1D1509",
"o  c #250000",
"O  c #2C0000",
"+  c #340000",
"@  c #3B0000",
"#  c #24190B",
"$  c #231A0C",
"%  c #251D11",
"&  c #2B230D",
"*  c #2C2312",
"=  c #312513",
"-  c #332815",
";  c #312719",
":  c #342919",
">  c #343311",
",  c #041C2B",
"<  c #1B292E",
"1  c #012A37",
"2  c #043539",
"3  c #323237",
"4  c #430000",
"5  c #4B0000",
"6  c #400804",
"7  c #530000",
"8  c #5A0000",
"9  c #6E3210",
"0  c #6D351B",
"q  c #733B21",
"w  c #49560D",
"e  c #5E6C14",
"r  c #766A05",
"t  c #60720B",
"y  c #687818",
"u  c #58643A",
"i  c #747826",
"p  c #75762D",
"a  c #003342",
"s  c #023749",
"d  c #103346",
"f  c #253549",
"g  c #183863",
"h  c #2C396E",
"j  c #563749",
"k  c #0F454A",
"l  c #1B4658",
"z  c #2A4C53",
"x  c #3C4354",
"c  c #196F50",
"v  c #2A775B",
"b  c #184A67",
"n  c #3B5469",
"m  c #2A5570",
"M  c #385676",
"N  c #366870",
"B  c #484C4D",
"V  c #43495B",
"C  c #4F6E4B",
"Z  c #46795B",
"A  c #766453",
"S  c #49586A",
"D  c #525E6C",
"F  c #4D5770",
"G  c #55616F",
"H  c #49726D",
"J  c #576679",
"K  c #666768",
"L  c #6F7077",
"P  c #901715",
"I  c #A11716",
"U  c #922B1B",
"Y  c #A2211C",
"T  c #96352A",
"R  c #9A352C",
"E  c #A72A28",
"W  c #B92525",
"Q  c #A33B2E",
"!  c #AB3734",
"~  c #B43535",
"^  c #BA3939",
"/  c #C32F2F",
"(  c #8A7F0C",
")  c #8B5A2B",
"_  c #915029",
"`  c #9D4535",
"'  c #A35528",
"]  c #A74538",
"[  c #B1473B",
"{  c #A85E33",
"}  c #C86C2E",
"|  c #E37C32",
" . c #98384E",
".. c #8F474D",
"X. c #977944",
"o. c #9A7D45",
"O. c #897454",
"+. c #A86453",
"@. c #AD726E",
"#. c #B16A70",
"$. c #A57672",
"%. c #AF7571",
"&. c #B37672",
"*. c #B77974",
"=. c #BA7B76",
"-. c #BD7D78",
";. c #C17E7A",
":. c #328129",
">. c #798A2B",
",. c #778832",
"<. c #339075",
"1. c #2CA270",
"2. c #458552",
"3. c #4C8465",
"4. c #55896D",
"5. c #958A14",
"6. c #898E2D",
"7. c #879B35",
"8. c #A59A23",
"9. c #8CA236",
"0. c #AEA224",
"q. c #9E8047",
"w. c #9F8149",
"e. c #918954",
"r. c #A4844C",
"t. c #A8864F",
"y. c #A8894F",
"u. c #A68752",
"i. c #AD8B53",
"p. c #B18D56",
"a. c #B88A5A",
"s. c #AE9456",
"d. c #B59856",
"f. c #B5925B",
"g. c #BA945E",
"h. c #BFA159",
"j. c #978962",
"k. c #BC9962",
"l. c #B4827D",
"z. c #A69270",
"x. c #F7B054",
"c. c #C68E61",
"v. c #C19D66",
"b. c #C4817C",
"n. c #C9847F",
"m. c #FAD06C",
"M. c #FBE177",
"N. c #275C8D",
"B. c #347192",
"V. c #296BAA",
"C. c #367AA7",
"Z. c #466388",
"A. c #526882",
"S. c #55738E",
"D. c #496C96",
"F. c #477895",
"G. c #4D74A2",
"H. c #5278A6",
"J. c #407DB1",
"K. c #5079C2",
"L. c #329688",
"P. c #39A590",
"I. c #3A85AB",
"U. c #3B89B7",
"Y. c #458699",
"T. c #548698",
"R. c #4387A9",
"E. c #4F94AE",
"W. c #6E95AB",
"Q. c #5CA4B8",
"!. c #69A7BA",
"~. c #3BA0D9",
"^. c #5CA8CA",
"/. c #5AA7DA",
"(. c #6DB3CC",
"). c #6BB9D6",
"_. c #76CEE7",
"`. c #868686",
"'. c #9C9A9A",
"]. c #B28681",
"[. c #B38984",
"{. c #B68E89",
"}. c #BD8D88",
"|. c #B6928D",
" X c #BE928D",
".X c #B69590",
"XX c #BB9994",
"oX c #AFACAC",
"OX c #CA8681",
"+X c #CD8984",
"@X c #CE8E89",
"#X c #D18C86",
"$X c #D3928D",
"%X c #C19E99",
"&X c #D59893",
"*X c #DEA39D",
"=X c #E0A59E",
"-X c #DDA7A0",
";X c #DDABA4",
":X c #DEAFA9",
">X c #DFB1AB",
",X c #E0A7A0",
"<X c #E2ABA4",
"1X c #E3AFA9",
"2X c #E4B3AC",
"3X c #E6B7B0",
"4X c #E6BAB4",
"5X c #E7BDB7",
"6X c #E8BCB6",
"7X c #E6BEB8",
"8X c #E7BEB9",
"9X c #E8BEB8",
"0X c #FCF489",
"qX c #E7C1BC",
"wX c #E7C3BD",
"eX c #E8C2BC",
"rX c #92CBD8",
"tX c #89D2E9",
"yX c #96D8E6",
"uX c #A4DEEB",
"iX c #B5EAF6",
"pX c #D2C5C5",
"aX c #E7C7C2",
"sX c #E8C9C3",
"dX c #FFFFD4",
"fX c #C6EEF6",
/* pixels */
"+ @ 5 5 7 5 7 @ @.=.=.%.%.%.%.-.-.-.b.&.%.=.-.%.@.=.=.%.%.%.%.-.-.-.b.&.%.=.-.%.@.=.=.%.%.%.%.-.-.-.b.&.%.=.-.%.5 7 7 @ + 4 @ @ ",
"o @ 4 4 5 5 5 4 ;X2X4X9XqX6X5XqX1X4X4X<X4X<X2X5X;X2X4X9XqX6X5XqX1X4X4X<X4X<X2X5X;X2X4X9XqX6X5XqX1X4X4X<X4X<X2X5X+ @ @ @ + O + O ",
"@ @ 4 + 4 7 4 5 *X*X*X<X2X2X2X2X<X,X<X<X<X1X<X<X*X*X*X<X2X2X2X2X<X,X<X<X<X1X<X<X*X*X*X<X2X2X2X2X<X,X<X<X<X1X<X<X5 + + 5 7 5 + o ",
"o 4 5 4 @ O o o *X,X<X1X2X2X&X=X<X<X<X<X2X2X2X*X*X,X<X1X2X2X&X=X<X<X<X<X2X2X2X*X*X,X<X1X2X2X&X=X<X<X<X<X2X2X2X*XO o + 5 + @ + o ",
"5 4 + + o @ O @ >X4X&X<X4X8XeXaXqXqX<X3XqXqX<X2X>X4X&X<X4X8XeXaXqXqX<X3XqXqX<X2X>X4X&X<X4X8XeXaXqXqX<X3XqXqX<X2X5 5 + 5 @ @ 4 4 ",
"@ @ + 4 @ @ @ 5 <X3X2X<X1X<X2X2X-X<X4X4XqX4X2X4X<X3X2X<X1X<X2X2X-X<X4X4XqX4X2X4X<X3X2X<X1X<X2X2X-X<X4X4XqX4X2X4X@ @ + + 7 5 5 @ ",
"4 @ @ @ + 7 8 @ 2X2X3X2X2X<X<X<X;X2X<X<X2X1X<X2X2X2X3X2X2X<X<X<X;X2X<X<X2X1X<X2X2X2X3X2X2X<X<X<X;X2X<X<X2X1X<X2XO @ @ O o o @ @ ",
"4 + @ + @ O @ @ 2X2X2X2X4X4X1X*X*X<X2X1X2X<X<X<X2X2X2X2X4X4X1X*X*X<X2X1X2X<X<X<X2X2X2X2X4X4X1X*X*X<X2X1X2X<X<X<X4 5 4 + + + @ 5 ",
"+ O + o @ @ + o 4X8X5X8XqXaX2X<X*X2X*X2XaXaXsXsX4X8X5X8XqXaX2X<X*X2X*X2XaXaXsXsX4X8X5X8XqXaX2X<X*X2X*X2XaXaXsXsX@ O @ O O + + 4 ",
"@ 4 4 4 + @ @ 4 2X*X<X2X4X3X4XqX<X2X2X<X4X2X4X4X2X*X<X2X4X3X4XqX<X2X2X<X4X2X4X4X2X*X<X2X4X3X4XqX<X2X2X<X4X2X4X4X4 4 5 o O @ 4 4 ",
"5 + + + 5 5 5 5 2X3X<X3X<X<X<X3X9X2X<X*X*X*X*X&X2X3X<X3X<X<X<X3X9X2X<X*X*X*X*X&X2X3X<X3X<X<X<X3X8X2X<X*X*X*X*X&X5 @ + 8 o o + @ ",
"@ + 4 o 4 @ @ 4 *X=X1X2X3X3X4X<X,X1X2X2X5X4X2X<X*X=X1X2X3X3X4X<X,X1X2X2X5X4X2X<X*X=X1X2X3X3X4X<X-X1X2X2X5X4X2X<X5 4 + 5 4 O + 5 ",
"4 5 + @ + + + @ 2X4X$X-X2XqXqXsXsX4X3X5X4XaX<X<X2X4X$X-X2XqXqXsXsX4X3X5X4XaX<X<X2X4X$X-X2XqXqXsXsX4X3X5X4XaX<X<X+ O + + + + + @ ",
"5 4 4 4 7 4 4 4 2X4X4X<X2X<X2X4X:X3X2X1X4X2X4XqX2X4X4X<X2X<X2X4X:X3X2X1X4X2X4XqX2X4X4X<X2X<X2X4X:X3X2X1X4X2X4XqX4 4 + @ 4 + @ 4 ",
"5 7 4 + @ o o 5 5X*X*X=X,X<X<X<X;X*X*X<X2X3X3X4X5X*X*X=X,X<X<X<X;X*X*X<X2X3X3X4X5X*X*X=X,X<X<X<X;X*X*X<X2X3X3X4X4 @ @ @ 4 4 5 O ",
"+ 5 4 5 4 + o + 5X4X4X4X4X4X4X2X:X2X3X4X4X<X3X9X5X4X4X4X4X4X4X2X:X2X3X4X4X<X3X8X5X4X4X4X4X4X4X2X:X2X3X4X4X<X3X9X@ 5 @ @ 4 4 + @ ",
"5 5 @ 4 4 o + @ 5XqXqXqX8X5X,X,Xs s k a 2 1 1 1 , 1 1 1 1 2 2 a :X4X*X;X5X5X8XqX5XqXqXqX8X5X,X,X:X4X*X;X5X5X8XqX5 5 4 @ @ O @ O ",
"@ @ @ 4 + 5 @ @ *X<X2X2X5X6X4XqX1 (.).).!.F.E.T.R.U.I.U.R.R.I.C.4X3X4X5X5X5X8X3X*X<X2X2X5X6X4XqX4X3X4X5X5X5X8X3X+ @ @ @ + O + + ",
"@ + @ + + 5 5 5 -X<X,X<X<X<X<X<X2 Q.Q.Z.N Y.R.!.(.!.I.U.I.B.C.I.*X*X*X=X=X<X=X=X-X<X,X<X<X<X<X<X*X*X*X=X=X<X=X=X4 + + 5 @ 5 + O ",
"+ @ 4 @ O O o o *X1X,X<X2X3X8X=X1 ^.T.l Y.E.^.).rXyXrXU.C.I.C.C.<X<X1X2X3X2X2X=X*X1X,X<X2X3X8X=X<X<X1X2X3X2X2X=XO o o 4 + + + O ",
"@ @ + + + 4 5 5 XX%X.X|.].l.]. Xa ).d m Y.Q.)._.yXiXiX!.R.C.B.b  X{.}.}.].].}.%XXX%X.X|.].l.]. X X{.}.}.].].}.%X4 5 @ @ @ @ 4 4 ",
"+ @ 4 @ 4 4 7 4 5X3X2X4X3X4X4X<Xs /.d m Y.E.^.tXuXiXfXiXJ.C.l l ;X1X4X6XqX4X1X2X5X3X2X4X3X4X4X<X;X1X4X6XqX4X1X2X@ O + o 5 4 @ 4 ",
"4 @ @ 5 o 8 7 + <X<X2X<X<X<X=X=X1 ).d m Q.E.I.tXuXfXfXiXC.b l 1 <X2X<X<X<X*X*X<X<X<X2X<X<X<X=X=X<X2X<X<X<X*X=X<X4 O @ O O + 4 4 ",
"5 5 + @ @ 8 5 @ 1X2X2X2X2X2X<X*X1 Q., m E.).z _.B n uXW.l l k 2 *X3X<X<X1X2X2X<X1X2X2X2X2X2X<X*X*X3X<X<X1X2X2X<X5 4 4 4 + 4 @ 5 ",
"@ 4 + 4 + + O O ].].[.[.{.{.{.|.a U.s l (.T.H rXm B.fXF.f f 3 2 XXXX|.XX].].].].].].[.[.{.{.{.|.XXXX|.XX].].].].@ @ @ + + + @ 4 ",
"4 4 5 @ @ + 4 4 3X*X<X1X4X2X2X8Xs U.V.l 3 J E.tX~.).yXF.A #.O.z 8X2X2X4X5X8XqX2X3X*X<X1X4X2X2X8X8X2X2X4X5X8XqX2X@ 5 O + o o o @ ",
"4 + @ + @ @ + @ 4X5X4X4X*X=X*X2Xa 1.V.N.f S.Q.E.(.B U.C +.'...A 4X1X=X=X=X*X*X=X4X5X4X4X*X=X*X2X4X1X=X=X=X*X*X=X4 @ + 4 o @ + 4 ",
"4 @ O + + o O @ *X1X<X1X3X5XqX<Xa I.L.V.< E.!.n ).yX!.F D  .j ] ,X2X4X4X3X2X2X,X*X1X<X1X3X5XqX<X,X2X4X4X3X2X2X,X5 + 4 + O O + o ",
"@ 4 7 O + + + @ .X{.{.|.].].[.].a S.S.B.J B.^.B.F.S.M G C h .. .[.].$.].].].]..X.X{.{.|.].].[.].[.].$.].].].]..X@ + 4 5 @ 4 @ @ ",
"5 4 @ + 4 @ @ @ qXqXqXaX2X2X4X2Xa #.e.1.T.S R.^.).tXb h c k A ..>X4X2X<X2X2X<X8XqXqXqXaX2X2X4X2X>X4X2X<X2X2X<X8X@ @ 4 + @ 4 + @ ",
"O 5 5 + + O O 4 2X=X=X=X*X-X,X=X2 4.$.P.n n N.B._.~.g :.2.4.u H :X*X*X<X<X<X<X2X2X=X=X*X*X=X,X=X:X*X*X<X<X<X<X2X5 O o + + + + + ",
"O @ 4 @ 5 @ 4 @ 4X4X4X<X2X3X2X<Xs K.!.P.< N U.).B.g m 2.H C 2.Z 2X8X2X4X2X2X1X3X4X4X4X<X2X3X2X<X2X8X2X4X2X2X1X3XO 5 5 5 5 4 @ 4 ",
"o 4 4 4 5 o @ @ }.[.[.].l.l.l.|..X|..X.X].].]. X}.[.[.].l.l.l.|..X|..X.X].].]. Xq.w.i.f.o.o.p.i.r.r.i.y.X.t.r.o.4 5 + + @ O @ + ",
"4 4 4 @ @ + + 4 ;X<X,X<X2X2X2X3X1X<X3X4X4X8X2X5X;X<X,X<X2X2X2X3X1X<X3X4X4X8X2X5Xi.  M M $ X . . . X X . X X $ t.+ o @ @ + O O + ",
"+ + @ @ + 4 @ @ ;X2X2X2X1X2X4X4X<X<X<X<X,X<X<X<X;X2X2X2X1X2X4X4X<X<X<X<X,X<X<X<Xo.* J H.- 6.8.& = = ` ~ = - $ i.4 + + 4 o 5 + + ",
"+ 5 4 4 O O o o :X1X2X2X2X2X2X=X*X<X2X4X4X2X2X*X:X1X2X2X2X2X2X=X*X<X2X4X4X2X2X*Xy.3.G D.! '.'.>.* L ] / 9 { [ i.o o O 5 @ + @ 5 ",
"+ o 4 + @ @ @ 4 +X@X@X-.&.&.=.-.l.-.=.&.@.@.*.=.+X@X@X-.&.&.=.-.l.-.=.&.@.@.*.=.i.3.D D.~ ( 5.* w Z.T ~ 9 { [ g.4 7 7 4 @ @ @ 4 ",
"4 @ 4 + @ 4 8 5 2X<X2X4X4X8X2X2X2X2X2X2X5X2X,X2X2X<X2X4X4X8X2X2X2X2X2X2X5X2X,X2Xf.Z n Z.E 5.5.: >.F R ^ 9 ' ] k.+ O + O + 4 + 7 ",
"+ 5 4 7 4 5 5 @ 1X2X2X2X2X<X,X*X1X5X3X<X<X<X<X1X1X2X2X2X2X<X,X*X1X5X3X<X<X<X<X1Xy.Z J H.! 5.0.- 7.J R ^ 9 ' [ v.+ @ 4 + O + 4 4 ",
"5 4 @ 4 4 7 4 @ <X<X1X2X2X2X<X,X*X3X2X2X2X2X<X<X<X<X1X2X2X2XK K V V 2X2X2X2X<X<Xw.j.j.z.c.d.h.u.s.z.a.a.f.g.a.X.4 @ 5 4 4 4 @ 5 ",
"o + 4 @ o + + @ &.&.&.@.@.&.-.-.*.-.+X-.&.&.=.*.&.&.&.@.@.&.0 0 0 0 +X-.&.&.=.*.y.i.i.w.u.u.p.i.f.p.y.k.v.i.i.i.@ @ @ + O o + 5 ",
"4 4 5 4 5 4 5 4 8X,X,X<X2X1X<X4XqX<X2X2X4XqX3X3X8X,X,X<X2XV V x x x V 2X4XqX3X3Xy.X X # $ # # $ y 7.* ; $ * % p.4 @ @ + o + @ 4 ",
"@ @ 4 @ 5 @ @ 5 3XqXqXeX=X,X<X3X4X2X1X,X*X*X=X*X3XqXqXeX=X0 ' } } } q ,X*X*X=X*Xr.$ * y 9.: - ^ t 7.G H.: ` ^ p.5 + @ @ 4 5 + O ",
"5 5 @ @ @ 5 4 @ ;X2X3X3X4X9X5X<X*X<X2X4X<X2X2X2X;X2X3X3X4X0 | x.m.x.q 4X<X2X2X2Xi.v <.y 7.- : / e >.D H.4.oXpXf.@ + 4 4 @ 4 @ + ",
"5 7 5 @ + + + @ -.OX;.=.@.@.&.OXb.b.+XOXOXOXOXn.-.OX;.=.@.q x.0X0XM._ OXOXOXOXn.i.`.oXe >.* I P w ,.D D.Z T ! f.@ + 4 4 7 @ + @ ",
"5 4 4 + 4 5 4 @ 4X<X9XeX2X3X1X3X4X3X<X=X<X<X<X4X4X<X9XeX2Xq x.0XdX0X_ =X<X<X<X4Xk.c <.e 7.* E * B K G D.Z T ^ g.@ @ 4 + + 4 4 4 ",
"O 4 @ 4 @ O + O 4X=X=X,X=X<X1X=X>X<X<X<X<X<X2X4X4X=X=X,X=Xq x.M.M.m._ <X<X<X2X4Xf.c L.y 7.T W & t 9.J G.O.Y ^ f.@ 4 + @ @ 4 + + ",
"+ 4 5 4 4 o @ @ <X2X4X4X4X4X2X<X3XqXqXeX2X<X=X1X<X2X4X4X4XS V V x V x 9X2X<X=X1Xy.f.g.p.p.i.t.i.i.p.i.w.i.i.i.X.@ 5 7 5 7 @ @ + ",
"O o 5 5 @ 4 4 @ b.-.n.;.;.-.;.n.OXn.#X+X+X#X&.n.q.w.i.f.o.o.p.i.r.r.i.y.X.t.r.o.r.X.u.t.r.r.r.u.i.u.i.r.u.i.y.t.4 5 O O + @ + o ",
"@ + 4 @ 5 O 4 5 *X=X*X*X<X<X2X<X*X*X<X4X2X2X4X2Xi.  M M $ X . . . X X . X X $ t.r.  $ . X . X X . . X X M M % k.+ @ O @ + + o + ",
"+ + o @ o + + o 2X4X3X3X2X3X6X6X2X2X&X<X<X<X<X<Xo.* J H.- 6.8.& * * ` ^ = - $ i.w.X & = ` ~ $ = = r 0.* G G.* f.@ + + 4 4 4 @ o ",
"+ 5 4 @ @ O O o *X<X&X<X<X3X2X<X<X<X4X<X4X3X3X=Xy.3.G D.! '.'.>.* L ] / 9 { [ i.y.] ) ' Q / S.* p L oXU S D.4.g.O O + 4 @ + @ 7 ",
"@ 4 4 @ + 4 4 + $X$X$XOX&.b.-.;.OXn.=.=.-.=.-.=.i.3.D D.~ ( 5.* w Z.T ~ 9 { [ g.X.] U ' E ^ Z.- 7.r 8.P n D.3.g.5 7 4 + + @ @ 4 ",
"5 @ 5 5 + 4 7 5 <X<X1X6X5X5X5X<X;X1X1X1X<X<X<X<Xf.Z n Z.E 5.5.: >.F R ^ 9 ' ] k.i.Q _ ' Y ~ F * >.r 8.P m Z.v k.@ + + O o 4 + 8 ",
"@ 4 5 + O @ + @ 2X2X3X2X2X<X=X=X2X4X2X1X<X<X1X1Xy.Z J H.! 5.0.- 7.J R ^ 9 ' [ v.r.Q _ ' Y ~ Z.& > r 0.P J D.3.v.@ 4 4 @ + + o 4 ",
"5 4 4 4 @ 5 @ + 1X<X<X1X1X2X<X<X;X2X&X<X<X2X<X1Xw.e.j.z.c.d.h.u.s.z.a.a.f.g.a.X.r.+.f.f.+.c.z.u.w.p.d.a.z.z.j.X.@ + @ 5 @ @ @ @ ",
"@ o 4 @ @ + O 4 ;.n.b.;.-.&.&.+Xb.OX$Xb.;.b.OX-.y.i.i.w.y.u.p.i.f.p.y.k.v.i.i.i.X.y.f.p.p.i.f.p.y.i.f.k.y.X.t.f.@ 5 + + @ + O @ ",
"4 4 7 4 5 5 5 4 2X,X,X<X<X2X<X2X4X=X<X2X&X4X4X2Xy.X X # # # # $ y 7.* ; $ * % p.o.X % * * ; 6.7.# # # # $ $ X g.5 4 8 @ O o @ O ",
"+ 4 4 4 5 4 5 5 2X4X4X4X,X<X2X3X2X2X<X*X*X*X*X*Xr.$ * y 9.: - ^ t 7.G H.: ` ^ p.u.P ^ : L G.i >.* P - p 9.* * p.4 + 4 4 4 @ + + ",
"@ 4 4 @ + 4 4 4 *X1X&X<X3X9X3X<X<X2X@X4X<X<X2X5Xi.v <.y 7.- : / e >.D H.4.oXpXf.y.'.pX3.A.H.i >.6 / : i 7.Z <.f.+ @ 4 @ + + 7 + ",
"4 5 o o @ @ @ 4 OX#X-.n.;.b.OX#X#X#X$X$X$X+X$X$Xi.`.oXe >.* I P w ,.D D.Z T ! f.f.9 ~ Z S D.p ,.* W % i >.'.oXf.@ + @ 4 5 + + o ",
"5 @ 5 @ 4 7 5 + <X,X1X3X<X<X2X2X2X<X&X*X<X<X<X2Xk.c <.e 7.* E * B K G D.Z T ^ g.f.U ! Z D D.B K * ` ] i 7.c <.v.@ @ 4 @ + + @ 7 ",
"+ @ + 4 4 + o 4 4X,X,X=X<X<X<X*X4X<X<X<X<X2X<X4Xf.c L.y 9.T / & t 9.J G.O.Y ^ f.p.P / O.M H.i 7.$ * W 6.9.v <.k.4 4 5 + 4 O + + ",
"7 4 4 @ o O o 4 *X<X1X2X<X5X3X-.2X<X5X2X2X1X<X<Xo.u.u.o.u.r.o.y.r.r.i.w.y.r.t.w.X.y.y.r.t.r.w.u.o.o.y.y.w.y.p.u.7 5 O + @ 4 4 @ "
};
