/* XPM */
static char *_32c90a252cb4e7b86bc5f2ca96a797f7z4pKCBFCH1iKUAr[] = {
/* columns rows colors chars-per-pixel */
"128 128 227 2 ",
"   c #040E13",
".  c #061116",
"X  c #06141A",
"o  c #09161C",
"O  c #0A181E",
"+  c #250000",
"@  c #2C0000",
"#  c #340000",
"$  c #3B0000",
"%  c #27381C",
"&  c #0C1C24",
"*  c #0E1F28",
"=  c #2C0E2C",
"-  c #2E112E",
";  c #351335",
":  c #391639",
">  c #3D1A3D",
",  c #0F2129",
"<  c #11232D",
"1  c #1B2728",
"2  c #142832",
"3  c #1A3639",
"4  c #253130",
"5  c #273638",
"6  c #430000",
"7  c #4B0000",
"8  c #530000",
"9  c #5A0000",
"0  c #6D361E",
"q  c #66391B",
"w  c #733A1F",
"e  c #651B3F",
"r  c #6D3821",
"t  c #733B21",
"y  c #25413F",
"u  c #49581D",
"i  c #71441C",
"p  c #495D23",
"a  c #56572F",
"s  c #784821",
"d  c #785528",
"f  c #4D6326",
"g  c #566927",
"h  c #546B2B",
"j  c #5A722B",
"k  c #5C722C",
"l  c #546735",
"z  c #5A7832",
"x  c #64782D",
"c  c #637B32",
"v  c #677B34",
"b  c #737B39",
"n  c #323D48",
"m  c #411D41",
"M  c #661940",
"N  c #452245",
"B  c #492649",
"V  c #4D2A4D",
"C  c #512E51",
"Z  c #563156",
"A  c #5A355A",
"S  c #5E3A5E",
"D  c #623E62",
"F  c #7D3761",
"G  c #7A3963",
"H  c #783E75",
"J  c #2E4A48",
"K  c #3E4355",
"L  c #3C6358",
"P  c #43495C",
"I  c #4F5358",
"U  c #71544A",
"Y  c #4B695B",
"T  c #545862",
"R  c #654265",
"E  c #6B486A",
"W  c #774868",
"Q  c #714D70",
"!  c #755375",
"~  c #785778",
"^  c #7C5C7C",
"/  c #536D66",
"(  c #63656B",
")  c #716876",
"_  c #854623",
"`  c #8E5629",
"'  c #A65C2A",
"]  c #B86B33",
"[  c #CB6E2E",
"{  c #E47D32",
"}  c #853E5E",
"|  c #853B67",
" . c #A2605A",
".. c #8A4775",
"X. c #954677",
"o. c #984779",
"O. c #AC716D",
"+. c #A66F7C",
"@. c #AE7571",
"#. c #AA7975",
"$. c #B37672",
"%. c #B67974",
"&. c #BA7B76",
"*. c #BC7D79",
"=. c #C67B47",
"-. c #C17E7A",
";. c #5F863D",
":. c #70922D",
">. c #6C8232",
",. c #6B8832",
"<. c #6A8738",
"1. c #748B38",
"2. c #78953C",
"3. c #69954E",
"4. c #789842",
"5. c #79A24A",
"6. c #588869",
"7. c #649970",
"8. c #6BA164",
"9. c #84973D",
"0. c #84A73C",
"q. c #ACA82F",
"w. c #ED8837",
"e. c #869845",
"r. c #86A547",
"t. c #91AE4E",
"y. c #A3B550",
"u. c #B4827D",
"i. c #D78A44",
"p. c #DE9B50",
"a. c #F1AF55",
"s. c #EFB25C",
"d. c #C3827D",
"f. c #C9847F",
"g. c #A7C65F",
"h. c #F5C65C",
"j. c #F9C864",
"k. c #F9D56F",
"l. c #FCE77C",
"z. c #8E5488",
"x. c #AF528D",
"c. c #B64D90",
"v. c #BA4F92",
"b. c #846384",
"n. c #896A89",
"m. c #937593",
"M. c #B26E8D",
"N. c #A573A3",
"B. c #C7549C",
"V. c #CB7091",
"C. c #CD55A0",
"Z. c #D65CA4",
"A. c #DC5BAA",
"S. c #E35FB0",
"D. c #DB68A9",
"F. c #E965B5",
"G. c #F167BB",
"H. c #F469BD",
"J. c #E976BA",
"K. c #F66EC0",
"L. c #F778C5",
"P. c #69A085",
"I. c #B28681",
"U. c #B48984",
"Y. c #B68E89",
"T. c #BC8D88",
"R. c #B6928D",
"E. c #BE928D",
"W. c #B69691",
"Q. c #B99994",
"!. c #AA88AA",
"~. c #CA8681",
"^. c #CC8A85",
"/. c #CB8C87",
"(. c #C9938E",
"). c #D2918B",
"_. c #C99A95",
"`. c #D29C96",
"'. c #D89A94",
"]. c #D49F98",
"[. c #C5A988",
"{. c #C5A19C",
"}. c #D6A29C",
"|. c #DDA39C",
" X c #D7AC9D",
".X c #E0A59E",
"XX c #DA8DA8",
"oX c #E795B0",
"OX c #DBA7A0",
"+X c #DDAAA4",
"@X c #D9AEAB",
"#X c #DCAEA8",
"$X c #E0A7A0",
"%X c #E2ABA4",
"&X c #E3AFA8",
"*X c #E4B3AC",
"=X c #E2AFB0",
"-X c #E6B7B0",
";X c #E7BAB4",
":X c #E8BCB6",
">X c #E6BEB9",
",X c #E8BEB9",
"<X c #FDF48E",
"1X c #E7C2BD",
"2X c #E8C2BC",
"3X c #FFF3AC",
"4X c #FD87CF",
"5X c #C8ABC8",
"6X c #D5BAD5",
"7X c #DCC4DC",
"8X c #E6C6C1",
"9X c #E8C7C2",
"0X c #FFF7CB",
"qX c #FFF4D5",
"wX c #E0C7E0",
"eX c #E4CCE5",
"rX c #E4D8E6",
"tX c #EBD4EB",
"yX c #EEDAEE",
"uX c #EFDBF0",
"iX c #F1DDF1",
"pX c #EDE0EF",
"aX c #F3E4F5",
"sX c #F6E8F7",
"dX c #F6EAF9",
"fX c #F8EDFB",
"gX c #FBF1FD",
/* pixels */
"6 7 7 7 6 $ 7 $ 6 # # @ @ @ $ 6 :X-X1X9X1X1X1X9X>X*X:X9X$X$X$XY.:.$X-X&X|.>XOX&X:X;X:X:X>X1X2X:X:X-X1X9X2X1X1X9X>X*X:X9X$X$X$Xe.e.$X-X&X|.>XOX&X:X;X:X:X>X1X2X:X:X-X1X9X1X1X1X9X>X*X;X9X$X$X$Xe.e.$X-X&X|.>XOX&X:X;X:X:X>X1X2X:X6 7 # 9 8 9 7 6 6 7 6 6 6 $ $ # ",
"# # $ @ 7 7 7 6 8 8 7 6 8 $ $ $ O.@.&.%.&.%.@.@.@.@.@.@.@.&.:.:.:.:.u.*.d.*.$.@.@.%.&.%.*.d.@.$.O.@.&.%.&.%.@.@.@.@.@.@.@.&.:.:.:.:.*.*.d.*.$.@.@.%.&.%.*.d.@.$.O.@.&.%.&.%.@.@.@.@.@.@.@.&.:.:.:.:.*.*.d.*.$.@.@.%.&.%.*.d.@.$.7 9 9 9 8 $ # @ # $ 6 6 $ 6 6 $ ",
"+ + $ 6 6 7 6 $ 7 6 7 7 7 8 6 # +X*X*X-X;X*X,X2X2X2X:X,X:X>.>.0.0.0.>.[.-X;X&X:X;X|.&X*X*X*X:XR.+X*X*X-X;X*X,X2X2X2X:X,X:X>.0.0.0.0.>.#X-X;X&X:X;X|.&X*X*X*X:XR.+X*X*X-X;X*X,X2X2X2X:X,X:X>.0.0.0.0.>.#X-X;X&X:X;X|.&X*X*X*X:XR.# # $ $ $ # $ # # @ @ @ # # # $ ",
"@ # # 6 6 6 $ 6 7 $ # 6 6 7 7 6 OX.X.X|..X$X.X.X$X|.$X$X}.*XOX:.:.0.:.:.>.>.[.*X&X&X.X.X.X$X$Xu.OX.X.X|..X$X.X.X$X|.$X$Xe.*XOX:.:.:.:.1.>.>.$X*X&X&X.X.X.X$X$Xu.OX.X.X|..X$X.X.X.X|.$X$Xe.*XOX:.:.:.:.1.>.>.$X*X&X&X.X.X.X$X$Xu.$ # $ $ $ @ @ @ + @ @ @ @ + + @ ",
"$ $ $ $ 6 6 # $ 6 # 8 $ 6 7 7 7 |.$X|.|.|..X$X&X*X*X X>.:.>.>.,.v 0.h h 0.0.0.0.[.&X&X&X%X$X$X{.|.$X|.|.|..X$X&X*X*Xe.>.:.>.,.>.>.>.h >.0.0.0.0.&X&X&X&X%X$X$X{.|.$X|.|.|..X$X&X*X*Xe.>.:.>.,.>.>.>.h >.0.0.0.0.&X&X&X&X%X$X$X{.7 6 # # # 6 7 7 9 7 7 $ # # # # ",
"$ $ $ # @ $ @ @ @ $ $ $ $ # @ @ ;X1X:X;X-X-X:.>.,.0.0.:.F F F X.X.| F F U :.:.:..X$X$X%X%X*X:X{.;X1X:X;X-X-X:.>.2.0.0.:.F F F X.X.F F F ,.:.:.2..X$X$X%X%X*X:X{.;X1X;X;X-X-X:.>.2.0.0.:.F F F X.X.F F F ,.:.:.2..X$X$X%X%X*X:X{.@ @ # @ # $ # $ + 7 7 @ # # @ @ ",
"# @ 6 6 7 6 6 6 $ @ @ @ @ @ @ @ |.$X$X.X&X&X X>.>.0.0.>.F H.4XK.H.4XH.Z.F :.:.,.>.>.:.:.[.*X|._.|.$X$X.X&X&X[.>.>.0.0.b F H.4XH.H.4XH.F U :.:.>.>.1.:.:.*X*X|._.|.$X$X.X&X&X[.>.>.0.0.b F H.4XH.H.4XH.F U :.:.>.>.1.:.:.*X*X|._.@ @ + # # 6 7 $ # $ $ # # @ @ @ ",
"$ # 6 7 6 $ # # $ # @ + + + + @ OX&X:.:.[.0.*X:.M.L.J.L.S.H.K.S.S.H.K.F.J.J.L.XXM.:.:.:.:.$X|._.OX&X:.e.y.0.*XM.x.L.J.L.S.K.H.S.S.H.K.S.L.J.L.V.M.>.:.:.[.$X|._.OX%X:.e.y.0.*XM.x.L.J.L.S.K.H.S.S.H.K.S.L.J.L.V.M.>.:.:.[.$X|._.@ $ # # @ # # $ $ 6 # @ # $ @ + ",
"7 7 6 $ # # # @ @ $ $ + @ @ $ 6 #X>.>.2.W A.H.4X4XH.H.H.S.B.o.X.F X.c.A.H.H.H.K.4X4XH.A.$X:.*X_.#X>.>.0.v.F.H.4X4XH.H.H.A.v.o.| | X.c.A.H.H.H.4X4XL.F.v.$X2.*X_.#X>.>.0.v.F.H.4X4XH.H.H.A.v.o.| | X.c.A.H.H.H.4X4XL.F.v.$X2.*X_.7 7 7 # # # 7 6 $ @ $ # $ 6 6 6 ",
"$ $ 6 7 6 7 6 6 $ $ 7 7 6 6 $ 6 ~.V.A.H.4X4XH.H.H.S.B.c.| } i.j.j.j.i.F c.c.A.H.H.H.L.4X4XH.A.:.~.Z.F.L.4X4XH.H.H.A.c.c.| =.p.j.j.s.=.F c.c.A.H.H.H.4X4XL.F.Z.1.~.Z.F.L.4X4XH.H.H.A.c.c.| =.p.j.j.s.=.F c.c.A.H.H.H.4X4XL.F.Z.1.7 8 # # # + @ $ $ # $ $ $ $ $ 6 ",
"# $ $ $ # # 6 # $ $ $ 7 $ 7 7 6 &XoXF.4X4XL.F.H.G.A.c.X...i.i.i.j.i.i.} X.x.C.F.H.F.H.4X4X4XF.oX&XA.F.4X4XL.F.H.F.C.x.X.F i.i.p.p.i.i.F X.x.C.F.H.F.L.4X4XL.A.>X&XA.F.4X4XL.F.H.F.C.x.X.F i.i.p.p.i.i.F X.x.C.F.H.F.L.4X4XL.A.>X$ $ $ $ # @ # 7 8 6 6 6 7 7 7 $ ",
"$ # 6 $ $ 6 $ $ 7 $ $ 6 7 6 $ 6 &XA.c.A.H.L.K.H.G.A.B.X.F F  .i.F i.F F X.c.A.A.H.H.4XH.S.C.B.D..XA.c.A.H.4XH.H.A.A.c.X.F F =. . .i.F F X.c.A.A.H.H.4XH.A.c.A.XX$XA.c.A.H.4XH.H.A.A.c.X.F F =. . .i.F F X.c.A.A.H.H.4XH.A.c.A.XX# # @ # $ # + + @ # # $ # # $ $ ",
"7 6 $ 6 $ $ $ 7 # 8 8 9 9 9 $ 6 x.X.4X4XH.H.L.H.H.F.c.c.c.F F X.X.X.F c.c.c.c.H.H.H.4XH.K.4Xx.X.X.X.4X4XH.H.H.H.H.C.c.c.c.F | X.X...F c.c.c.C.H.H.H.K.H.4X4XX.X.X.X.4X4XH.H.H.H.H.C.c.c.c.F | X.X...F c.c.c.C.H.H.H.L.H.4X4XX.X.@ $ $ $ $ # @ @ + @ + 7 $ 7 9 7 ",
"$ 7 6 6 6 # $ $ # 6 7 7 7 7 $ # M.M.4X4X4X4X4XH.G.A.c.c.c.c.c.X.c.c.c.c.c.c.Z.A.H.H.4XL.4X4X4XM.M.oX4X4X4X4XH.H.A.A.c.c.c.c.c.c.c.c.c.c.c.c.A.A.H.H.4XL.4X4XoXM.M.oX4X4X4X4XH.H.A.A.c.c.c.c.c.c.c.c.c.c.c.c.A.A.H.H.4XL.4X4XoXM.# # $ $ # # $ $ $ $ @ + # @ # $ ",
"7 6 # @ $ $ # # $ $ # 7 $ $ $ # *X&XH.H.H.G.A.H.H.A.B.c.c.A.c.A.A.A.c.A.c.c.A.G.H.F.A.H.H.H.J.&X*X*XH.L.H.A.A.H.H.A.v.c.B.C.Z.A.A.A.B.v.c.c.A.H.H.A.A.H.L.H.&X&X*X*XH.L.H.A.A.H.H.A.v.c.B.C.Z.A.A.A.B.v.c.c.A.H.H.A.A.H.L.H.&X&X6 8 7 6 6 $ # # # # # $ 6 $ $ 7 ",
"6 7 $ 7 6 6 6 $ $ @ $ $ 7 $ 7 $ *X&XoXA.F.4XF.H.H.A.A.A.F.A.H.H.H.H.H.A.H.A.A.F.H.H.A.4XA.A.&X*X*X&XH.A.4XJ.H.H.H.A.A.A.A.G.H.H.H.H.H.A.S.A.A.H.H.H.J.4XA.F.&X*X*X&XH.A.4XJ.H.H.H.A.A.A.A.G.H.H.H.H.H.A.S.A.A.H.H.H.J.4XA.F.&X*X$ # # @ $ 6 $ # 6 $ # 6 6 6 6 7 ",
"6 # @ @ # $ + $ $ $ $ # # $ @ $ ;X-Xc.B.4XL.H.H.H.H.H.H.H.H.L.H.H.H.H.H.H.H.H.H.H.H.H.4X4Xc.c.1X:X=Xc.4X4XH.H.H.H.H.H.H.H.H.H.H.H.H.H.H.H.H.H.H.H.H.H.4X4Xc.@X1X;X=Xc.4X4XH.H.H.H.H.H.H.H.H.H.H.H.H.H.H.H.H.H.H.H.H.H.4X4Xc.@X1X$ # @ # $ @ @ # @ $ # @ # # $ 6 ",
"6 $ 6 6 6 6 6 6 6 @ @ @ # # 6 # %.A.F.4X4X4XH.H.H.H.H.H.A.L.4XH.H.4X4XF.A.H.H.H.H.H.4X4X4X4XA.A.*.A.4X4X4X4XH.H.H.H.H.A.A.4X4XH.H.4X4XA.A.H.H.H.H.H.4X4X4X4XA.V.&.A.4X4X4X4XH.H.H.H.H.A.A.4X4XH.H.4X4XA.A.H.H.H.H.H.4X4X4X4XA.V.# $ $ 6 # # # # # $ # # # # # 6 ",
"$ $ 6 7 6 6 6 $ # @ $ $ $ 7 6 $ *X|.4X4X4XH.H.H.H.H.H.4XF.H.4XH.K.K.H.H.A.4XH.H.H.H.H.4X4X4X4X_.*XL.4X4X4XH.H.H.H.H.4XJ.H.H.4XH.H.4XH.H.F.4XH.H.H.H.H.4X4X4XJ._.*XL.4X4X4XH.H.H.H.H.4XJ.H.H.4XH.H.4XH.H.F.4XH.H.H.H.H.4X4X4XJ._.6 7 6 7 7 @ @ + @ @ $ # 6 6 6 @ ",
"7 7 6 $ 7 7 7 7 6 7 7 $ 7 7 7 7 ;XA.F.H.4X4X4XH.4X4X4XL.A.H.4X4X4X4X4XA.A.4X4X4X4XK.4X4X4XH.A.A.XXA.H.L.4X4X4XH.4X4X4XA.A.L.4X4X4X4XL.A.A.4X4X4XK.4X4X4XL.H.A.D.XXA.H.L.4X4X4XH.4X4X4XA.A.L.4X4X4X4XL.A.A.4X4X4XK.4X4X4XL.H.A.D.7 7 7 6 $ 6 $ $ @ @ @ @ @ $ 6 6 ",
"6 7 # @ # 6 # # 7 $ 7 6 7 6 7 7 *XXXG.4X4X4X4X4X4X4XJ.c.J.H.-XX.X.X.oXH.v.c.4X4X4X4X4X4X4XH.A.`.*XA.H.4X4X4X4X4X4X4Xc.c.H.H.-XD.J.].H.H.c.c.4X4X4X4X4X4X4XH.A.`.*XA.H.4X4X4X4X4X4X4Xc.c.H.H.-XD.J.].H.H.c.c.4X4X4X4X4X4X4XH.A.`.7 7 $ $ # 8 9 @ + @ + $ # # $ 7 ",
"$ $ $ $ $ $ $ 6 7 7 $ 6 7 6 7 7 #XA.H.H.4X4XH.H.4XL.A.&X*X*X*X$X$X%X&X$X.Xv.A.4X4XH.H.4XH.H.A.D.#XA.H.H.4X4XH.L.4XA.A.&X*X*X*X$X$X%X&X$X.XA.A.4XL.H.4X4XH.H.A.`.#XA.H.H.4X4XH.L.4XA.A.&X*X*X*X$X$X%X&X$X.XA.A.4XL.H.4X4XH.H.A.`.$ $ # # $ $ 7 6 $ # $ @ @ @ # $ ",
"$ $ # 7 6 $ @ 6 6 @ $ 7 $ # 6 8 |.A.A.H.H.A.G.A.J.-X-X-X;X:X&X$X$X%X&X*X*X*XA.;XA.A.A.A.H.G.A.(.|.A.A.H.H.A.A.A.-XD.-X-X;X:X&X$X$X%X&X*X*X*XD.;XA.A.A.G.H.A.A.(.|.A.A.H.H.A.A.A.-XD.-X-X;X:X&X$X$X%X&X*X*X*XD.;XA.A.A.G.H.A.A.(.7 6 6 $ # 7 7 $ 6 6 @ 6 # # # 6 ",
"$ # 6 7 6 6 6 7 6 $ @ # $ # # $ OX&XA.A.*XA.-X*X*X;X2X9X1X;X&X%X*X&X*X*X*X-X-X-X*X*X&XD.*XA.A.`.OXD.A.A.*X*X-X*X*X;X2X9X1X;X&X%X*X&X*X*X*X-X-X-X*X*XoX*XD.A.D._.OXD.A.A.*X*X-X*X*X;X2X9X1X;X&X%X*X&X*X*X*X-X-X-X*X*XoX*XD.A.D._.6 6 6 6 6 7 $ $ # @ + + 6 9 9 7 ",
"$ 6 7 $ # # $ $ # # # # # $ $ $ *X*X;X&X).&XOX&X*X:X1X1X1X9X9X1X9X2X;X*X-X&X:X1X-X1X9X9X&X&X%XE.*X*X;X&X).&XOX&X*X:X1X1X1X9X9X1X9X1X;X*X-X&X:X1X-X1X9X9X&X&X%XE.*X*X;X&X).&XOX&X*X:X1X1X1X9X9X1X9X1X;X*X-X&X:X1X-X1X9X9X&X&X%XE.# @ @ @ # $ # $ # # # # # $ # @ ",
"$ 6 @ # 6 6 @ @ # 6 6 6 6 $ 6 $ *.$.d.d.d.*.%.%.$.O.%.*.d.^.~./.d.~.d.~./././.~.~.^.~.~.u.u.&.&.*.$.d.d.d.*.%.%.$.O.%.*.d.^.~./.d.~.d.~./././.~.~.^.~.~.u.*.&.&.*.$.d.d.d.*.%.%.$.O.%.*.d.^.~./.d.~.d.~./././.~.~.^.~.~.u.*.&.&.$ $ $ # # 6 6 6 7 6 # # $ $ $ $ ",
"6 7 6 7 6 6 6 7 8 7 6 6 6 6 6 6 *X>X;X;X;X>X&X-X*X%X%X&X*X*X;XR.#X*X-X-X*X'.&X*X-X-X*X-X;X*X1X1X*X>X;X;X;X>X&X-X*X%X%X&X*X*X;XR.#X*X-X-X*X'.&X*X-X-X*X-X;X*X1X1X*X>X;X;X;X>X&X-X*X%X%X&X*X*X;XR.#X*X-X-X*X'.&X*X-X-X*X-X;X*X1X1X6 6 6 $ # $ $ $ 6 # # 7 $ @ $ $ ",
"@ 7 7 6 # 6 6 6 # 6 7 $ 6 $ $ $ &X&X$X$X|..X$X&X$X.X.X.X|..X$XY.;X$X.X.X|.%X.X.X$X|.$X$X$X&X*X%X&X&X$X$X|..X$X&X$X.X.X.X|..X$XY.;X$X$X.X|.%X.X.X$X|.$X$X$X&X*X%X&X&X$X$X|..X$X&X$X.X.X.X|..X$XY.;X$X.X.X|.%X.X.X$X|.$X$X$X&X*X%X$ $ $ $ $ $ $ # $ 7 7 7 6 6 6 6 ",
"8 7 9 7 6 # # # $ $ @ @ + 6 7 7 :X.X|.|.|..X.X$X$X$X%X&X&X$X$XQ.OX$X|..X|.$X&X*X*X-X-X*X-X-X-X-X:X.X|.|.|..X.X$X$X$X%X&X&X$X$XQ.OX$X|..X|.$X&X*X*X-X-X*X-X-X-X-X:X.X|.|.|..X.X$X$X$X%X&X&X$X$XQ.OX$X|..X|.$X&X*X*X-X-X*X-X-X-X-X6 7 $ @ $ @ $ 6 6 $ 6 $ 7 7 9 8 ",
"+ + # @ # # 7 6 # @ # # # $ $ 6 -X*X$X.X.X$X.X$X$X&X%X&X&X*X%XW.>X-X&X%X%X$X%X%X%X$X*X*X-X-X-X-X-X*X$X.X.X$X.X$X$X&X%X&X&X*X%XW.>X-X&X%X%X$X%X%X%X$X*X*X-X-X-X-X-X*X$X.X.X$X.X$X$X&X%X&X&X*X%XW.>X-X&X%X%X%X%X%X%X$X*X*X-X-X-X-X$ 8 7 6 6 6 @ 7 # # $ # @ $ # @ ",
"# # 7 6 6 $ 7 7 6 $ # @ @ @ # # :X;X;X:X;X-X;X;X;X;X;X;X-X-X*XQ.#X$X*X*X-X-X-X;X;X-X%X*X-X-X,X,X:X;X;X:X;X-X;X;X;X;X;X;X-X-X*XQ.#X$X*X*X-X-X-X;X:X-X%X*X-X-X,X,X:X;X;X:X;X-X;X;X;X;X;X;X-X-X*XQ.#X$X*X*X-X-X-X;X;X-X&X*X-X-X,X,X$ 7 7 6 $ 6 $ # 6 $ 6 $ # # @ @ ",
"# $ $ 6 6 $ $ $ 7 6 $ # # $ 6 7 *X|.*X-X-X-X-X*X-X-X-X*X*X%X%XW.#X*X-X-X:X:X*X.X.X.X%X*X*X*X$X*X*X|.*X-X-X-X-X*X-X-X-X*X*X%X%XW.#X*X-X-X:X:X*X.X.X.X%X*X*X*X$X*X*X|.*X-X-X-X-X*X-X-X-X*X*X%X%XW.#X*X-X-X:X:X*X.X.X.X&X*X*X*X$X*X6 7 # 9 8 9 7 6 6 7 6 6 6 $ $ $ ",
"+ 7 7 6 $ $ 6 6 6 # @ + # 6 $ 6 :X-X1X9X1X1X1X9X>X*X:X9X$X$X$XY.#X$X-X&X|.>XOX&X:X;X:X:X>X1X2X:Xk h k <.g v d d x 4.<.k 2.2.9.4.1.c 4.>.1.1.9.4.f z 1.1.5.r.2.i.:X-X1X9X1X1X1X9X>X*X:X9X$X$X$XY.#X$X-X&X|.>XOX&X:X;X:X:X>X1X2X:X7 8 7 7 6 # $ 6 $ $ @ $ $ # # $ ",
"@ # $ $ 6 8 9 8 8 9 9 8 8 7 6 6 +X}.}.}.}.}.}.}.}.}.}.].}.}.}.}.}.OX}.}.}.}.}.}.}.].}.}.}.].OXR.j 3.j j <.>.<Xd >.1.<.>.2.q.r.r.>.1.r.1.d >.r.z p c 3.x r.4.g z +X}.}.}.}.}.}.}.}.}.}.].}.}.}.}.}.OX}.}.}.}.}.}.}.].}.}.}.}.OXR.$ @ # 6 $ # # # $ # # @ @ @ @ @ ",
"# # $ $ $ 7 6 6 # 6 7 $ $ # $ $ }.$X%X&X*X*X*X;X:X:X;X-X-X>X1X*X-X-X-X-X-X:X:X>X:X>X:X:X>X-X-XR.z <.k g p c ,.h <.4.2.<.c r.t.d x <.<.<.s f h u x x 3.x r.k z j }.$X$X&X*X*X*X;X:X:X;X-X-X>X1X*X-X-X-X-X-X:X:X>X:X>X:X:X>X-X-XR.# @ $ $ $ 6 $ # # # @ # # $ @ @ ",
"# $ 7 7 6 6 6 $ # 7 7 7 8 7 7 7 -X%X$X%X%X%X&X%X&X*X*X-X;X,X*X%X$X$X%X&X$X&X$X$X$X$X.X$X$X&X*XW.z z k p c 5.p k >.r.2.h j 4.1.i >.1.1.>.i.u f 9.p <.1.2.j >.z k -X%X$X%X%X&X&X%X&X*X*X-X;X,X*X%X$X$X%X&X$X&X$X$X$X$X.X$X$X&X*XW.$ # # @ # $ $ # 6 $ $ @ @ + + # ",
"$ # # # $ # # $ # 7 7 $ 7 7 7 $ OX*X$X$X$X.X$X$X%X$X$X%X&X*X&X.X|..X|.|.|..X.X|..X$X%X%X|.|.|./.4.c p z f 2.h z k 2.4.k >.r.x h.x 2.9.q p h c u ` >.<.1.>.c y.c OX*X$X$X$X.X$X$X%X$X$X%X&X*X&X.X|..X|.|.|..X.X|..X$X%X%X|.|.|.T.6 6 # @ # # 7 7 $ 7 7 6 # # $ # ",
"$ $ $ # 6 $ # # # 6 $ # # # # @ #X.X&X*X&X*X*X*X&X:X-X-XOX&X&X*X*X-X*X*X*X&X&X%X|.&X*X-X;X;X*X{.1.v h h p k h z f e.1.g <.4.>.a.>.<.,.u f h f p H v ,.2.k 4.v x #X.X&X*X&X*X*X*X&X:X-X-XOX&X&X*X*X-X*X*X*X&X&X%X|.&X*X-X-X;X*X{.+ @ @ # @ + @ @ @ # # # $ # # @ ",
"# # $ 7 6 6 $ $ @ # @ @ @ + @ @ }.|.&X&X$X&X&X$X*X$X-X:X>X.X.X$X$X&X&X*X&X*X*X*X-X*X*X*X*X$X.X_.1.f j f ] f h z f r.,.>.>.5.<.p.>.g.>.f h g h H z.z...r.1.1.>.c }.|.&X&X$X&X&X$X*X$X-X:X>X.X.X$X$X&X&X*X&X*X*X*X-X*X*X*X*X$X.X_.@ # @ @ @ 6 6 # # # # # # @ @ # ",
"+ + $ $ # # @ + $ 6 @ @ + + @ @ +X$X&X&X&X$X*X;X;X:X%X].%X*XOX|..X^.|.$X&X*X*X*X*X|.&X*X&X*X.X_.f v f f s g z c h 2.1.>.>.4.<.i.x r.f g h h W N.x.M.N.z.y.2.d j.+X$X&X&X&X$X*X;X;X:X%X].%X*XOX|..X^.|.$X&X*X*X*X*X|.&X*X&X*X.X_.@ # # # # + # @ $ # + # 6 @ @ @ ",
"$ $ $ $ # # @ @ # # 6 # 7 7 7 7 Q._._.{.Q.U.R.U.I.I.u.I.I.T.E.E.E.I.Y.Y.T.T.T.I.I.u.I.T.T.Q._._.g k j s d g h z k r.1.x >.2.4.f f 2.v j x k z.M. .U M.z.2.<.s qXQ._._.{.Q.U.R.U.I.I.u.I.I.T.E.E.E.I.Y.Y.T.T.T.I.I.u.I.T.T.Q._._.6 7 7 7 $ $ $ 6 # # $ 6 6 $ $ # ",
"6 $ 6 7 8 9 8 9 8 # $ 9 9 6 7 8 `.`.`.}.}.OX}.|.}.].|.`.].(.I.E.].].}./.|.|.|.|.].].].].`.`.`.`.p v f ` s ` h x >.] z z <.2.f 1.f 2.r.i 2.t.G M.z.M N.W 4.4.f f `.`.`.`.}.OX}.|.}.].|.`.].(.I.E.].].}./.|.|.|.|.].].].].`.`.`.`.7 $ $ 6 6 # @ $ $ $ # # $ 6 $ 6 ",
"# @ $ 6 6 # $ # $ $ 6 6 9 9 6 @ :X-X-X*X-X;X-X-X-X-X-X-X-X*X&X(.+X&X&X*X-X;X:X1X1X1X-X&X&X-X*X*X>.h 3X] i z h x l.=.j <.x f h k p 2.t.v 5.r.c d u ;.f p 1.h f h :X-X-X*X*X-X-X-X-X-X-X-X-X*X&X(.+X&X&X*X-X;X:X1X1X1X-X&X&X-X*X*X$ # @ @ # # @ @ 7 $ 6 $ $ $ # $ ",
"6 7 6 $ # $ # 6 9 @ @ @ # 7 $ 9 >X-X;X,X-X:X*X&X%X$X&X&X&X*X>X_.9X:X;X;X-X*X*X*X-X:X2X2X,X,X:X,Xk h <Xi.s x >.<.x p.k z k f h j k 4.r.2.2.t.<.d c 1.<.k f z g c 1X;X:X,X-X;X*X&X%X$X&X&X&X*X>X_.9X:X;X;X-X*X*X*X-X:X2X2X,X,X:X,X7 $ @ # # $ # @ @ # + 6 # # # 6 ",
"6 6 $ $ $ 6 7 7 @ 9 9 9 9 7 # # %X&X%X&X*X&X%X%X%X&X$X$X.X|..X(.&X*X*X*X&X$X$X$X$X$X|.|.|..X$X.X3XqXqXi.i c >.>.>.j.j k k g z f 0X2.5.1.2.t.2.a.<.2.1.<.f k x f %X&X%X&X*X&X%X%X%X&X$X$X.X|..X(.&X*X*X*X&X$X$X$X$X$X|.|.|..X$X.X6 # @ 6 $ # @ @ @ @ # 6 6 $ 9 7 ",
"7 6 6 6 6 @ $ # # $ 6 6 7 7 $ # &X*X*X*X*X-X:X-X-X-X*X*X*X*X&X_.#X$X$X$X$X%X$X|.&X&X&X$X$X$X%X&Xh 1.qX] u v <.1.1.<X,.j g g k j g 3X2.2.2.y.t.qX1.1.2.e.s k >.>.&X*X*X*X*X-X:X-X-X-X*X*X*X*X&X`.#X$X$X$XOX%X$X|.&X&X&X$X$X$X%X&X# $ + @ # # @ + @ + $ $ $ 6 @ 6 ",
"$ 7 7 @ $ # $ # $ @ 9 6 7 8 $ # &X*X*X*X*X*X*X*X*X*X*X*X$X|.|.(.}.$X-X*X$X*X%X&X&X*X*X*X*X$X&X&Xc c 2.<.p g >.e.qX>.<.2.c g g <.k x <.4.2.t.r.x f 1.9.s i j z 4.*X*X*X*X*X*X*X*X*X*X*X*X$X|.|.(.}.$X-X*X$X*X%X&X&X*X*X*X*X$X&X&X7 6 6 6 6 7 6 6 # $ 6 $ $ # $ 6 ",
"6 6 $ # @ $ $ # # 6 7 # # # 6 $ $X.X.X|..X$X$X$X$X.X$X$X.X.X.XT.#X%X*X$X&X$X&X-X-X-X*X'.'.*X*X*X<.1.4.,.p 1.f 3XqX1.4.<.w g c c x 1.<.4.j c 4.<.g c x g ] x c k $X.X.X|..X$X$X$X$X.X$X$X.X.X.XT.#X%X*X$X&X$X&X-X-X-X*X'.'.*X*X*X# # # # # 6 @ @ 6 6 6 7 7 8 7 7 ",
"# $ 6 $ # $ 6 + # $ # # @ # @ # I.U.U.U.U.I.U.Y.Y.Y.Y.U.Y.W.R._.E.E.E.Q.R.R.Q.W.I.I.I.I.I.I.I.u.x c 1...o.z.z.z.qX,.1.1.q k c c q <.r.,.i <.<.<.1.z j h x g.d j I.U.U.U.U.I.U.Y.Y.Y.Y.U.Y.W.R._.E.E.E.Q.R.R.Q.W.I.I.I.I.I.I.I.u.$ $ $ # $ # # @ # # # $ $ 7 6 $ ",
"6 6 7 7 7 7 $ $ @ $ 6 # @ + 7 @ @X|.|.|.}.|.}.}.|.}.].].}./.}.}.}.`.`.}.}.OXOXOX}.}.}.}.}.].+X`.i x <.z.x.x.M.z.<X2.c >.k k 1.2.q 1.e.1.x x ,.4.9.z c k 2.5.<.s @X}.}.}.|.|.|.|.|.}.].].}./.}.}.}.`.`.}.}.OXOXOX}.}.}.}.}.].+X`.# # # $ $ # $ $ # $ $ $ # # 6 6 ",
"$ 6 6 7 7 7 $ $ $ # # $ 6 6 6 7 -X|.|.$X%X&X&X*X-X-X*X*X*X:X>X,X>X*X*X*X*X*X-X:X:X&X>X>X1X;X*X`.i >.W N.+.+.W x.h.z 4.>.g k h k d >.2.e.<.i g x 1.g 1.1.2.4.1.d -X|.|.OX%X&X&X*X-X-X*X*X*X:X>X,X>X*X*X*X*X*X-X:X:X&X>X>X1X;X*X`.$ $ 7 $ @ $ # # @ $ + + + # # 6 ",
"6 6 $ 7 $ 6 8 7 9 9 8 $ 8 8 8 7 8X,X1X>X>X>X>X:X,X-X-X;X;X:X;X:X>X;X;X;X*X*X%X$X.X$X$X&X&X&X-X`.` s.a N.M.z.a p d z 4.>.g z c p.3Xx v 2.1.i k e.c k 4.1.2.2.i s 8X,X1X>X>X>X>X:X,X-X-X;X;X:X;X:X>X;X;X;X*X*X%X$X.X$X$X&X&X&X-X`.6 6 6 6 # $ 6 $ @ @ @ @ @ 6 6 $ ",
"# 6 # # $ $ # 6 $ 7 $ # # # $ 6 ;X9X:X-X-X*X-X*X|..X.X|.|..X*X*X;X-X*X%X.X|..X.X.X'.|..X|.|..X(.j.qXh W x.p z j v c 1.4.f v 1.1.<X<X>.2.e.i k c >.<.1.1.t.2.i ` ;X9X:X-X-X*X-X*X|..X.X|.|..X*X*X;X-X&X%X.X|..X.X.X'.|..X|.|..X(.6 7 $ # # 6 $ 6 + $ $ 6 # $ @ # ",
"7 $ $ 6 6 6 6 6 9 6 $ 6 6 6 7 6 |.$X.X|..X%X&X%X&X%X%X&X&X*X&X.X.X&X&X&X%X&X$X$X$X%X&X*X*X/.*X`.qXk z f p h j c >.v <.1.d 1.t.5.2.<Xv 1.qXp k k 1.2.4.1.r.v ` j.|.$X.X|..X%X&X%X&X%X%X&X&X*X&X.X.X&X&X&X%X&X$X$X$X%X&X*X*X/.*X`.6 6 # # $ # 6 6 6 6 $ @ + @ $ 6 ",
"6 6 $ @ @ # # + # # @ @ @ @ $ $ |.|.&X*X$X*X&X*X-X;X:X1X1X>X&X.X$X&X*X-X-X-X-X-X-X*X*X*X*X&X$X(.qXj z z h c k k z x 4.2.1.2.0.t.r.>.4.4.p h f k f 1.k s z <.k qX|.|.&X*X$X*X&X*X-X;X:X1X1X1X&X.X$X&X*X-X-X-X-X-X*X*X*X*X*X&X$X(.7 6 # # 6 6 # @ @ @ @ 6 # # 7 7 ",
"# # $ 6 $ 6 6 7 $ # @ $ # $ # $ OX%X-X-X&X*X*X:X:X:X*X|.$X;X-X&X%X$X$X&X$X'.*X*X*X$X%X&X&X&X&X`.v x <.v k c >.>.>.<.2.r.4.>.2.2.r.<.t.f R l f s f f k k j c c z OX%X-X-X&X*X*X:X:X:X*X|.%X;X-X&X%X$X$X&X$X'.*X*X*X$X%X&X&X&X&X`.$ $ $ 6 7 7 $ $ # $ @ # @ # # @ ",
"$ $ 6 8 8 8 @ 6 # # # # # $ $ # W.R.Y.W.Y.I.R.Y.I.I.I.I.U.U.I.I.U.Y.I.I.#.#.I.U.I.I.I.I.I.R.W.T.j k c x g k >.1.i 1.4.t.2.4.r.x 4.<.4.W z.z.z.z s f k v s z 4.>.W.R.Y.W.Y.I.R.Y.I.I.I.I.U.U.I.I.U.Y.I.I.#.#.I.U.I.I.I.I.I.R.W.T.$ # # # 6 7 7 $ $ 6 6 $ $ $ @ # ",
"@ 6 8 7 6 6 7 @ # $ # $ $ $ # $ }.(.}.|.].}.}.`.`.].}.}.|.].OX_.@X}.].).].].].}.}.|.|.}.}.}.}.}.f b v 2.<.r.x 4.i >.1.4.r.2.4.1.>.2...N.x.M.N.z.s f f f z g k >.}.(.}.|.].}.}.`.`.].}.}.|.].OX_.@X}.].).].].].}.}.|.|.}.}.}.}.}.$ 6 7 7 6 7 $ + $ $ $ $ # $ $ $ ",
"6 7 6 # $ 7 # 6 6 7 $ # $ $ $ $ 1X>X2X>X1X1X9X:X*X*X*X-X-X*X*XW.#X&X-X-X*X&X&X*X*X*X*X*X%X*X>X:Xf >.x j.2.t.2.j q.2.9.,.t.t.2.h <.r.z.M. .U M.z.a.h k >.v h f c 1X>X1X>X1X1X9X:X*X*X*X*X-X*X*XW.#X&X-X-X*X&X&X*X*X*X*X*X%X*X>X:X$ $ $ 7 6 $ # $ $ 6 6 # # # $ $ ",
"6 @ 6 $ # 6 $ $ 6 $ 7 7 6 $ $ 6 >X&X$X$X.X%X|..X|.|.|.|..X$X;XQ.1X%X&X&X&X&X*X*X*X-X*X&X;X,X;X;Xc <.c i 2.2.4.z q 2.r.,.2.r.2.v j f G x.z.e N.W <X3Xg x x h 9.h >X&X$X$X.X%X|..X|.|.|.|..X$X;XQ.1X%X&X&X&X&X*X*X*X-X*X&X;X,X;X;X6 6 6 7 # $ $ # $ 6 $ 6 6 6 6 $ ",
"# @ 7 6 7 $ # # # # @ @ @ $ 6 7 *X|..X.X.X.X.X|.|.|..X%X$X.X.XI.#X&X|..X|.|.$X%X&X$X$X%X&X&X*X&X1.1.d d 1.r.z f 2.r.r.1.r.r.x k k <.h u h <.g f qXp c g g g x k *X|..X.X.X.X.X|.|.|..X%X$X.X.XI.#X&X|..X|.|.$X%X&X$X$X%X&X&X*X&X7 6 @ @ @ 6 # $ # $ # # # 7 9 # ",
"+ + @ @ $ $ 6 $ $ # # # # # 6 $ *X2X&X&X&X&X*X&X*X*X-X;X,X-X*XW.#X$X.X|..X$X$X$X*X*X&X*X*X-X*X*X1.z g d h f z f 2.9.9.e.5.2.>.x >.<.z g <.1.k x 3Xh z i i c v x *X2X&X&X&X&X*X&X*X*X-X;X,X-X*XW.#X$X.X|..X$X$X$X*X*X&X*X*X-X*X*X6 6 7 7 $ # # $ # # $ # @ # @ # ",
"@ @ $ 6 6 $ $ $ 7 $ # @ 6 6 $ + ;X:X;X:X-X&X&X*X*X-X-X-X*X*X%XW.*X*X>X:X*X;X;X;X*X*X*X-X&X*X-X-Xp z x g h k h g s j r.4.4.t.2.v v 1.g e.4.<.<.>.u z z s ,.4.g.1.;X:X;X:X-X&X&X*X*X-X-X-X*X*X%XW.*X*X>X:X*X;X;X;X*X*X*X-X&X*X-X-X@ 6 7 6 7 7 7 9 7 6 6 $ $ # # $ ",
"# $ $ $ 6 $ $ 6 7 6 $ # # # # 6 |.'.'.&X*X-X*X*X*X*X&X&X$X$X$XR.#X*X-X-X&X-X&X&X&X&X$X).'.*X&X*Xl.k 1.<.g c k s s >.4.<.2.t.4.1.<.>.<.4.1.<.4.4.g c 2.x 2.5.4.3X|.'.'.&X*X-X*X*X*X*X&X&X$X$X$XR.#X*X-X-X&X-X&X&X&X&X$X).'.*X&X*X6 6 7 $ $ 8 7 6 7 $ 7 $ $ 6 # 6 ",
"6 + 6 6 6 6 6 6 7 # @ @ $ # $ 6 T.U.U.U.U.I.U.Y.u.u.u.u.u.R.R.R.W.R.R.Q.W.Y.W.R.U.I.I.I.I.U.E.T.T.U.U.U.U.I.U.Y.u.u.u.u.u.R.R.R.W.R.R.Q.W.Y.W.R.U.I.I.I.I.U.E.T.T.U.U.U.U.I.U.Y.u.u.u.u.u.R.R.R.W.R.R.Q.W.Y.W.R.U.I.I.I.I.U.E.T.6 8 7 6 # $ # # $ # @ @ $ # # @ ",
"# $ 6 $ @ 7 7 8 9 9 9 9 9 8 7 $ *X2X9X1X1X1X1X&X.X.X$X&X$X%X1X1X,X9X,X9X1X9X*X-X1X&X:X,X>X*X>XQ.*X2X9X1X1X1X1X*X.X.X$X&X$X%X1X1X,X9X,X9X1X9X*X-X1X&X:X,X>X*X>XQ.*X2X9X1X1X1X1X&X.X.X$X&X$X%X1X1X,X9X,X9X1X9X*X-X1X&X:X,X>X*X>XQ.# # $ # # # # # # # @ @ @ @ @ # ",
"# 6 6 6 6 6 $ 7 $ # # # # # 6 6 +X*X%X$X$X$X$X$X*X&X*X*X*X&X-X*X&X*X$X*X-X:X-X;X;X*X>X>X*X;X:XY.+X*X%X$X$X$X$X%X*X&X*X*X*X&X-X*X&X*X$X*X-X:X-X;X;X*X1X>X*X;X:XY.+X*X%X$X$X$X$X$X*X&X*X*X*X&X-X*X&X*X$X*X-X:X-X;X;X*X>X>X*X;X:XY.# 6 + $ $ 6 $ # # # @ # @ + @ @ ",
"6 7 8 8 6 6 7 6 # 6 6 6 7 7 7 $ ;X$X$X$X%X%X&X&X*X*X*X*X-X;X*X$X$X$X$X$X%X&X&X&X*X&X&X&X%X&X*XR.;X$X$X$X%X%X&X&X*X*X*X*X-X;X*X$X$X$X$X$X%X&X&X&X*X&X&X&X%X&X*XR.;X$X$X$X%X%X&X&X*X*X*X*X-X;X*X$X$X$X$X$X%X&X&X&X*X&X&X&X%X&X*XR.$ # # @ @ # # 7 7 6 # @ @ @ @ # ",
"$ # # 6 $ # $ $ # 7 6 $ $ # $ $ +X*X*X*X*X*X*X*X&X*X*X-X;X-X;X&X%X&X%X$X$X$X$X$X$X$X%X&X&X%X%X{.+X*X*X*X*X*X*X*X&X*X*X-X;X-X;X&X%X&X%X$X$X$X$X$X$X$X%X&X&X%X%X{.+X*X*X*X*X*X*X*X&X*X*X-X;X-X;X&X%X&X%X$X$X$X$X$X$X$X%X&X&X%X%X{.6 7 # # # # 6 $ @ $ 7 6 # $ $ $ ",
"$ $ # 6 7 6 $ $ $ 6 6 @ @ # # # #X*X&X$X&X&X*X;X-X;X;X-X:X&X&X*X*X*X*X*X*X*X*X*X$X*X-X-X*X;X$X_.#X*X&X$X&X&X*X;X-X;X;X-X:X&X&X*X*X*X*X*X*X*X*X*X$X*X-X-X*X;X$X_.#X*X&X$X&X&X*X;X-X;X;X-X:X&X&X*X*X*X*X*X*X*X*X*X$X*X-X-X*X;X$X_.@ @ # @ # @ $ @ @ # $ # # # @ # ",
"# # 7 7 6 6 6 # @ $ @ @ + + + + #X&X&X&X*X&X*X&X*X*X*X*X*X|..X|.|.$X$X%X*X-X;X:X-X-X*X*X*X&X|.(.#X&X&X&X*X&X*X&X*X*X*X*X*X|..X|.|.$X$X%X*X-X;X:X-X-X*X*X*X&X|.(.#X&X&X&X*X&X*X&X*X*X*X*X*X|..X|.|.$X$X%X*X-X;X:X-X-X*X*X*X&X|.(.+ + @ @ @ 8 7 $ $ $ # @ $ @ # # ",
"$ # @ + @ @ @ $ + + @ + @ @ $ # +X.X$X:X&X&XOX|.'.;X*X:X>X*X.X).|.).~..X$X|..X|..X*X-X:X1X9X>X_.+X.X$X:X&X&XOX|.'.;X*X:X>X*X.X).|.).~..X$X|..X|..X*X-X:X1X9X>X_.+X.X$X:X&X&XOX|.'.;X*X:X>X*X.X).|.).~..X$X|..X|..X*X-X:X1X9X>X_.# @ # # # $ $ @ + $ $ + # $ 6 7 ",
"# # @ $ 6 # # # $ # $ @ $ 6 6 7 ^.)./.)./.d.*.$.%.&.%.*.&.&.*.d.u.*.*.&.&.&.$.O.O.O.O.$.%.%.&.~.^././.)./.d.*.$.%.&.%.*.&.&.*.d.u.*.*.&.&.&.$.O.O.O.O.$.%.%.&.~.^.)./.)./.d.*.$.%.&.%.*.&.&.*.d.u.*.*.&.&.&.$.O.O.O.O.$.%.%.&.~.6 7 9 9 9 6 6 6 $ $ $ $ $ # # # ",
"7 6 # 6 9 7 7 6 6 @ $ 6 9 9 9 9 :X9X,X2X1X1X&X&X;X-X*X*X;X*X-X{.*X;X>X;X:X:X1X%X.X.X$X$X$X%X:X1X:X9X>X2X1X1X&X&X;X-X*X*X;X*X-X{.*X;X>X;X:X:X1X%X.X.X$X$X$X%X:X1X:X9X,X2X1X1X&X&X;X-X*X*X;X*X-X{.*X;X>X;X:X:X1X%X.X.X$X$X$X%X:X1X6 $ $ $ # # # # # $ $ 6 7 8 7 6 ",
"@ 6 $ 6 6 6 # $ $ 6 6 6 9 8 7 # *X*X$X-X*X-X-X|.;X1X>X:X*X-X*XE.*X-X*X*X*X*X*X&X:X-X*X$X$X%X*X*X*X*X$X-X*X-X-X|.;X1X>X:X*X-X*XE.*X-X*X*X*X*X*X&X:X-X*X$X$X%X*X*X*X*X$X-X*X-X-X|.;X1X>X:X*X-X*XE.*X-X*X*X*X*X*X&X:X-X*X$X$X%X*X*X# # @ # # $ @ @ # 6 6 # # # # $ ",
"6 6 $ $ $ $ # $ 7 6 6 6 8 $ # 9 ,X,X:X:X-X-X-X*X*X*X*X*X&X*X:X_.8X,X:X-X-X*X*X*X-X;X:X:X;X;X,X:X,X,X:X:X-X-X-X*X*X*X*X*X&X*X:X_.9X,X:X-X-X*X*X*X-X;X:X:X;X;X,X:X,X,X:X:X-X-X-X*X*X*X*X*X&X*X:X_.9X,X:X-X-X*X*X*X-X;X:X:X;X;X,X:X7 6 # $ @ # # @ @ @ $ 6 $ $ @ 9 ",
"6 # 7 $ 6 6 8 # 6 $ 7 9 7 # $ # &X*X*X*X*X-X*X*X*X*X&X$X$X.X|.`.&X-X:X-X-X*X&X$X$X%X$X$X%X&X&X&X&X*X*X*X*X-X*X*X*X*X&X$X$X.X|.`.&X-X:X-X-X*X&X$X$X%X$X$X%X&X&X&X&X*X*X*X*X-X*X*X*X*X&X$X$X.X|.`.&X-X:X-X-X*X&X$X$X%X$X$X%X&X&X&X# 6 $ # 6 $ # # @ # # 6 6 # 7 8 ",
"6 6 6 6 @ # @ # # # 6 7 8 9 7 6 *X*X*X*X*X-X;X,X:X:X-X*X*X&X$X`.OX*X*X&X&X%X&X*X&X*X&X&X&X&X&X*X*X*X*X*X-X-X;X,X:X:X-X*X*X&X$X`.OX*X*X&X&X%X&X*X&X*X&X&X&X&X&X*X*X*X*X*X-X-X;X,X:X:X-X*X*X&X$X`.OX*X*X&X&X%X&X*X&X*X&X&X&X&X&X*X6 + @ $ 6 6 7 # 6 7 6 6 6 6 $ 6 ",
"6 7 6 + $ $ 6 $ 6 8 9 8 6 6 $ 7 $X%X%X$X&X*X*X*X*X*X*X&X( ( ( ( ( ) T ( *X&X*X&X*X*X*X$X$X$X%X&X$X%X%X$X&X*X*X*X*X*X*X&X%X$X$X(.}.*X-X*X*X&X*X&X*X*X*X$X$X$X%X&X$X%X%X$X&X*X*X*X*X*X*X&X( ( ( ( ( ( ( T *X&X*X&X*X*X*X$X$X$X%X&X6 # $ 6 7 7 6 6 6 6 6 6 $ $ # 6 ",
"6 $ 6 $ @ $ # # # # # # # # $ @ |..X|.|.|..X.X|.|.*X*X*XP P P P P n K P %X&X|.].(.-X;X;X*X&X%X$X|..X|.|.|..X.X|.|.*X*X*X;X1X>XE.OX'.%X>X%X&X|.].(.-X;X;X*X&X%X$X|..X|.|.|..X.X|.|.*X*X*XP P P P K K P K %X&X|.].(.-X;X;X*X&X%X$X# # # # $ $ # @ @ $ 7 9 7 8 8 7 ",
"$ + # @ 6 $ $ 6 @ # # # # # $ $ %.%.%.$.%.O.O.O.O.$.$.O.0 0 0 0 0 0 0 0 ^.d.*.&.%.$.$.$.&.%.%.*.%.%.%.$.%.O.O.O.O.$.$.O.*.%.*.&.%.*.*.d.^.d.*.&.%.$.$.$.&.%.%.*.%.%.%.$.%.O.O.O.O.$.$.O.0 0 0 0 0 0 0 0 ~.d.*.&.%.$.$.$.&.%.%.*.$ $ $ $ $ @ # # @ # + @ # $ 6 @ ",
"6 $ # 7 7 7 6 6 @ $ $ 6 @ @ # # 1X*X-X-X-X;X1X$X.X.X$X%X0 0 0 0 0 0 0 0 2X1X*X,X9X1X>X1X1X-X>X`.1X*X-X-X-X;X1X$X.X.X$X%X$X%X1X9X;X2X;X2X1X1X*X,X9X1X>X1X1X-X>X`.1X*X-X-X-X;X1X$X.X.X$X%X0 0 0 0 0 0 0 q 1X1X*X,X9X1X>X1X1X-X>X`.$ $ # $ $ $ 6 7 $ 6 $ $ # 6 7 7 ",
"6 6 6 6 7 6 6 9 7 $ 6 6 7 7 6 $ >X$X$X$X$X$X$X$X*X*X( ( ( ( ( T T I ( ( ( ( *X-X;X1X1X:X-X>X-X`.>X$X$X$X$X$X$X$X*X*X&X%X%X&X;X,X1X&X$X*X*X*X*X-X;X1X1X:X-X>X-X`.>X$X$X$X$X$X$X$X*X*X( ( ) ) T T T I T ( ( ( *X-X;X1X1X:X-X>X-X`.6 $ $ # $ 6 # @ @ # # $ $ $ $ 6 ",
"7 7 7 # # @ # 9 9 8 6 6 7 9 9 8 8X,X,X2X,X:X,X,X;X&XP P P P K K P n n n P P &X$X$X$X$X$X.X&X-X(.8X,X,X2X,X:X,X,X;X&X*X*X*X-X:X-X:X:X-X-X*X*X&X$X$X$X$X$X.X&X-X(.8X,X,X2X,X:X,X,X;X&XP P P P n K K n K P P P &X$X$X$X$X$X.X&X-X(.7 9 7 6 6 @ @ 6 # # # # # 6 6 6 ",
"6 $ $ 6 6 $ $ 6 7 8 $ $ $ 6 7 6 -X;X1X2X2X1X2X*X.X.X0 0 ` ' ] [ [ ] ' ' t 0 $X.X|.|.|.|..X|.|.`.-X;X1X2X2X1X2X*X.X|.$X%X&X*X-X*X-X-X*X*X&X%X$X|.|.|.|.|..X|.|.`.-X;X1X2X2X1X2X*X.X.X0 0 ' ' ] [ [ [ ' ' t 0 $X|.|.|.|.|..X|.|.`.7 6 # # $ $ $ $ 6 $ 7 6 # # # $ ",
"7 $ 6 6 6 6 6 7 9 7 6 $ $ $ 7 6 }.$X$X$X$X%X*X&X*X&X0 0 ] [ { w.w.{ { [ 0 0 &X&X*X&X%X*X*X*X&X(.}.$X$X$X$X%X*X&X*X&X&X*X-X-X*X$X$X%X&X&X&X&X&X%X*X&X%X*X*X*X&X(.}.$X$X$X$X%X*X&X*X&X0 0 [ [ { w.w.{ [ [ 0 q &X&X*X&X%X*X*X*X&X(.6 6 6 $ # # # 7 6 6 # @ @ # 6 @ ",
"7 7 7 6 $ $ $ $ $ $ 7 8 6 7 $ # +X%X*X&X-X*X-X-X;X:Xw w { w.a.a.s.a.w.w.w 0 ;X;X$X-X*X*X*X*X*X(.+X%X*X&X-X*X-X-X-X:X,X:X:X:X$X.X|.$X&X&X*X;X-X-X$X-X*X*X*X*X*X(.+X%X*X&X-X*X-X-X;X,Xt w { w.a.s.s.a.w.{ w q -X-X$X-X*X*X*X*X*X(.$ $ # $ 6 $ 6 $ $ # 6 @ $ 8 7 7 ",
"# @ @ 7 6 6 6 6 $ # @ # # $ # 7 OX$X*X1X&X&XOX|.).*Xt w w.a.k.k.l.k.j.a.s 0 .X$X$X-X-X-X1X1X1XE.OX$X*X1X&X&XOX|.).*X*X:X:X*X*X$X&X$X$X.X$X|..X$X$X-X-X-X1X1X1XE.OX$X*X1X&X&XOX|.).*Xt t w.s.k.k.k.k.s.w.t q .X$X$X-X-X-X1X1X1XE.6 7 $ # 6 7 6 $ $ 6 @ # $ 6 $ # ",
"$ 7 8 6 7 7 $ 6 # # # $ # 6 $ $ *.*.~.d.-.~.&.$.O.%.t s a.k.l.<X<X<Xk.s._ w ~.~.~.~.~.~.~.~.f.^.*.*.~.d.-.~.&.$.O.%.O.&.$.*.~.d.d.d.d./.^.d.~.~.~.~.~.~.~.~.f.^.*.*.~.d.-.~.&.$.O.%.w _ a.k.<X<X<X<Xk.a._ 0 ~.~.~.~.~.~.~.~.f.^.$ # # $ 6 6 6 6 8 6 $ # # # # $ ",
"6 7 7 6 6 6 7 6 9 # 6 # @ @ + @ 2X9X1X>X;X>X&X*X>X>Xt _ j.l.<X0X3X<Xl.k._ t 1X&X.X.X$X%X$X&X1X1X2X9X1X>X;X>X&X*X>X>X-X-X:X*X>X{.;X2X1X*X-X$X1X&X.X.X$X%X$X&X1X1X2X9X1X>X;X>X&X*X>X>Xt _ j.l.<X0X3X<Xl.j._ 0 1X&X.X.X$X%X$X&X1X1X@ # $ 6 6 @ $ 7 @ 7 6 $ $ # # $ ",
"8 7 6 $ 6 7 # $ 6 7 7 6 6 $ $ $ ;X1X&X*X,X2X2X-X*X-Xt _ j.l.<X0XqX3X<Xk._ t $X$X&X%X%X&X&X&X;X:X;X1X&X*X,X2X2X-X*X-X-X-X&X-X-XW.;X1X-X*X%X$X.X$X&X%X%X&X&X&X;X:X;X1X&X*X,X2X2X-X*X-Xt _ k.l.<X0X0X<Xl.j._ 0 .X.X&X%X%X&X&X&X;X:X$ $ $ 6 6 $ # $ # 6 6 8 6 6 $ $ ",
"6 6 $ # 6 6 7 7 6 @ 6 $ 7 6 $ 6 :X&X|..X$X$X$X$X%X$Xt _ a.k.<X3X3X<Xl.k._ t *X-X;X-X-X-X-X;X:X-X:X&X|..X$X$X$X$X%X$X$X$X$X&X-XQ.1X$X%X$X|.*X*X-X;X-X-X-X-X;X:X-X:X&X|..X$X$X$X$X%X$Xw _ j.l.<X3X3X<Xl.j._ r *X*X;X-X-X-X-X;X:X-X7 6 7 7 $ # $ # $ 6 # 6 6 6 6 6 ",
"# @ 6 # $ $ 6 6 $ $ @ @ # # @ # -X$X.X.X.X.X$X.X.X$Xt s a.k.l.<X<Xl.k.s._ w &X&X&X&X&X*X*X;X;X-X;X$X.X.X.X.X$X.X.X$X$X%X&X%X.XQ.#X%X&X%X&X&X&X&X&X&X&X*X*X;X;X-X-X$X.X.X.X.X$X.X.X$Xw s a.k.l.<X<Xl.k.a.s 0 &X&X&X&X&X*X*X;X;X-X$ $ 6 $ # # $ 6 $ 7 6 $ # 7 # # ",
"+ @ $ @ @ 6 @ $ $ # @ @ # # $ # -X,X;X*X-X-X-X;X:X2X0 r w.p.s.k.k.h.s.w.s r *X-X*X-X-X-X;X;X;X;X-X,X:X*X-X-X-X;X,X2X,X,X:X*X*XW.-X:X&X&X%X%X*X-X*X-X-X-X;X;X;X;X-X,X;X*X-X-X-X;X,X1X0 t w.a.j.k.j.j.a.w._ r *X-X*X-X-X-X;X;X;X;X6 6 6 $ $ # @ @ # # $ $ $ # # # ",
"# # 6 6 7 $ 6 6 6 6 @ # $ $ $ # &X&X*X-X-X-X-X;X-X-X( ( T ( ( ( I ( ( ) ( ( 2X*X*X*X$X&X.X&X&X&X&X&X*X-X-X-X-X-X-X;X-X*X*X*X&XR.-X;X2X,X1X,X2X*X*X*X$X&X.X&X&X&X&X&X*X-X-X-X-X-X-X;X( ( ( ) ) ( T ( ( ( ( ) 2X*X*X*X$X&X|.&X&X&X$ # 7 7 8 7 7 7 9 $ $ $ $ $ $ $ ",
"$ 7 $ 6 6 $ 6 6 6 $ # @ # # # # .X|.|.$X&X$X.X$X*X*Xn P K P P K K K P K P P |.'./.&X$X*X*X&X.X$X.X|.|.$X&X$X.X$X*X*X&X*X;X1X>XW.#X$X%X1X*X-X|.'./.&X$X*X*X&X.X$X.X|.|.$X&X$X.X$X*X*Xn P K P P P P P P P P P |.'./.&X$X*X*X&X.X$X$ $ 7 6 6 # $ $ 6 $ $ 7 6 6 $ # ",
"@ @ + 6 7 7 6 7 $ 6 6 6 6 6 $ 6 m.m.b.^ E E Z m N m D D Q ! ^ b.n.b.b.b.Q B C Z C b.^ b.^ b.n.m.d.*.*.-.f.^.-.&.-.&.*.-.-.~.f.~.~.d.f.~.^.).^.f.^.f.).~.$.d.f.^.m.m.b.^ E E Z m N m D D Q ! ^ b.n.b.b.b.Q B C Z C b.^ b.^ b.n.m.6 6 7 6 @ @ @ # # # $ # # @ # + ",
"$ 6 $ @ # # 6 7 9 8 7 7 9 8 8 @ n.b.^ A A Z m m : N B V S S ! b.n.m.n.b.S A S Z b.b.b.b.b.b.n.n.#X2X9X1X2X2X2X9X;X1X1X&X'.$X-X*X>X>X;X-X1XOX&XOX&X&X&X&X+X%XOXY.n.b.^ A A Z m m : N B V S S ! b.n.m.n.b.S A S Z b.b.b.b.b.b.n.n.$ $ $ # # # @ # # # @ @ @ @ @ + ",
"$ $ # # 6 6 $ 6 7 # @ 6 6 7 7 $ ~ ^ ^ R V B > ; : > N N V Z S Q b.n.b.^ ^ ^ ^ ~ ! ^ R E V E D Q |.&X.X.X|.|.|.%X$X&X&X&X*XOX%X|.|.|.|.$X&X-X-X-X*X*X*X*X-X*X*Xu.~ ^ ^ R V B > ; : > N N V Z S Q b.n.b.^ ^ ^ ^ ~ ! ^ R E V E D Q # @ $ @ @ $ $ # # @ # @ + @ @ @ ",
"$ 6 7 6 $ 6 6 6 7 $ 7 $ $ 7 8 6 A S ^ b.D V > - - : > m m V V N ^ ^ D A ! b.^ ^ C B B B V V S A }.%X%X&X&X&X$X&X*X*X*X-X-X-X*X%X|.$X%X%X%X%X%X%X*X%X&X&X&X&X*X_.A S ^ b.D V > - - : > m m V V N ^ ^ D A ! b.^ ^ C B B B V V S A $ # # # @ 6 @ 7 7 6 $ # # # @ # ",
"# # # $ + # $ @ @ $ # # # @ @ # C R b.n.A N m ; - ; > N B m V C ~ ^ A Z A Z A Z A N N > B N N A *X;X-X-X-X-X-X-X*X*X-X:X:X1X:X-X*X*X*X&X'.).$X$X%X%X$X%X$X$X%X{.C R b.n.A N m ; - ; > N B m V C ~ ^ A Z A Z A Z A N N > B N N A $ # # # # 6 6 @ 6 7 6 $ $ # # @ ",
"@ $ $ 6 6 6 $ 6 $ @ $ # @ + @ @ Z Z b.n.Z N ; - = ; N C C B pXaXsXfXdXA N > C N : : ; ; > m N C +X&X%X$X$X$X*X&X*X-X-X-X-X.X$X$X$X$X$X&X&X&X$X*X*X*X-X-X-X-X|._.Z Z b.n.Z N ; - = ; N C C B pXaXsXfXdXA N > C N : : ; ; > m N C # + + + # 6 6 $ $ $ $ # $ @ @ + ",
"# # 7 8 6 6 $ @ $ @ @ @ @ + + @ S S ^ Q B B N > - ; : A A pXsXfXgXsXfXrX> > ; : m - - - > > B C }.$X&X$X'.$X%X&X&X*X-X;X*X$X$X$X$X&X&X*X-X:X&X:X;X-X-X*X-X&X.XT.S S ^ Q B B N > - ; : A A pXsXfXgXsXfXrX> > ; : m - - - > > B C @ # @ # # 6 6 $ $ $ # # $ # $ # ",
"6 6 $ 6 # # @ + @ # + + # # @ @ A S ^ Z C V N > = = > A yXaXuXsXiXaXfXaX; ; ; : - - - = = > N D #X&X*X'.*X*X;X-X1X-X-X$X;X-X*X&X*X$X|.$X.X|.~..X&X*X-X,X9X*X%X(.A S ^ Z C V N > = = > A yXaXuXsXiXaXfXaX; ; ; : - - - = = > N D @ @ # # $ $ + $ # $ # $ $ 9 7 8 ",
"# $ 6 # 6 $ $ # # $ 6 # 6 $ # # b.^ R N N N : : : ; : Z aXtXyXaXyXaXaXaXgXsXfXdXgXrX- ; N B m b..               . .     . .   .       .   . . X .   .   .       b.^ R N N N : : : ; : Z aXtXyXaXyXaXaXaXgXsXfXdXgXrX- ; N B m b.7 9 8 7 6 6 # # # $ $ $ $ $ @ # ",
"7 6 # 6 6 $ $ $ # 7 7 7 6 8 8 9 b.R B > > N aXfXfXaXiXsXaXaXaXsXtXaXtXiXaXyXtXaXaXsXfX: m Z Q n.1 1 1 4 1 4 1 1 1 1 1 1 1 1 1 1 1 1 1 1 1 1 1 1 1 1 1 1 1 1 1 4 b.R B > > N aXfXfXaXiXsXaXaXaXsXtXaXtXiXaXyXtXaXaXsXfX: m Z Q n.$ 6 # # # # $ 8 6 $ 6 7 9 9 9 6 ",
"@ 7 $ $ 7 6 7 6 # 6 6 6 8 6 7 6 Q S B N > sXsXfXaXaXaXsXaXaXyXyXfXiXyXiXsXtXuXaXsXfXsXE m A Q b.1 4 4 5 5 Y 4 5 4 5 5 4 4 J 4 4 / 1 5 4 4 4 1 5 4 4 5 / 5 5 5 1 Q S B N > sXsXfXaXaXaXsXaXaXyXyXfXiXyXiXsXtXuXaXsXfXsXE m A Q b.$ $ # # # # @ + @ + 6 # # # $ @ ",
"$ 7 # $ # $ # $ $ 7 9 9 9 8 # # V N N N aXfXgXsXaXaXiXaXiXiXiXeXeXuXyXaXaXaXaXaXaXgXgXaXE E ! Q 1 Y / 5 / J 5 5 J J / 5 Y J J 5 J / n Y 5 J I 5 J J n Y 5 Y J 4 V N N N aXfXgXsXaXaXiXaXiXiXiXeXeXuXyXaXaXaXaXaXaXgXgXaXE E ! Q # 6 # # # # @ @ @ # @ 7 $ 6 7 9 ",
"$ $ 6 6 7 6 # $ @ 6 $ $ # 6 $ $ R A Z m aXsXfXaXaXfXaXfXiXyXyXyX7XyXyXaXaXyXsXaXsXfXfXiX^ ~ ! S 1 1 5 4 5 1 1 4 1 1 5 1 5 1 5 4 4 5 4 5 1 4 4 1 1 4 1 5 4 4 4 4 R A Z m aXsXfXaXaXfXaXfXiXyXyXyX7XyXyXaXaXyXsXaXsXfXfXiX^ ~ ! S $ $ 6 6 6 $ $ # # # # 7 @ $ 7 $ ",
"# @ # 7 # 6 $ # # $ 7 6 $ 8 8 8 R R D V V aXaXsXfXiXtXeXuXyX7XwX6XyXiXaXuXeXfXfXaXaXfXaXn.b.~ S   . .               . . .                 .                     R R D V V aXaXsXfXiXtXeXuXyX7XwX6XyXiXaXuXeXfXfXaXaXfXaXn.b.~ S # $ 6 # $ $ 6 6 $ $ # 6 7 6 $ 6 ",
"6 7 6 $ 6 $ 6 7 $ 8 7 6 $ @ # $ ^ ^ Q Z B aXaXaXaXyXyX7XeXiXyX5X5XtXiXyXiXtXiXiXtXsXaXb.m.n.^ ^ . < 5 X 4 * & 5 1 1 < 1 < O & & 5 * 4 o o & 1 1 * , * 5 * 5 * o ^ ^ Q Z B aXaXaXaXyXyX7XeXiXyX5X5XtXiXyXiXtXiXiXtXsXaXb.m.n.^ ^ $ # # # $ 7 7 6 $ $ $ $ $ 6 6 6 ",
"6 $ $ $ # + 7 6 # # # # # $ # # b.b.n.^ R fXaXiXiXaXeXtX6X7XeX5X5X7XyX5XyXaXyXaXeXsXgX^ n.b.b.b.X 2 5 X 1 . X 4 X 1 2 4 * & 2 2 3 2 1 o * o 1 o X o o 1 & 5 & X b.b.n.^ R fXaXiXiXaXeXtX6X7XeX5X5X7XyX5XyXaXyXaXeXsXgX^ n.b.b.b.# # $ # # $ @ @ $ @ 7 7 6 6 8 $ ",
"# $ + $ 6 $ $ 7 $ + # @ @ $ 6 $ ^ ^ n.n.b.^ sXyXfXiXaXyXeXwX6X!.!.5X6XeXuXyXyXyXsXsXR R A R Q Q X , 5 X 4 , & 5 O 4 * 4 3 y J J J J J 3 o o 4 O < o , 4 X 5 & o ^ ^ n.n.b.^ sXyXfXiXaXyXeXwX6X!.!.5X6XeXuXyXyXyXsXsXR R A R Q Q $ 7 7 7 # @ # # $ $ # @ @ # @ 6 ",
"$ # # 7 7 6 6 $ @ # $ $ $ 6 $ $ A ^ b.b.^ ^ gXgXaXiXiXeX7X5X!.N.N.!.5X6X7XeXyXiXiXfXyXB Z A Z A . O O . 4 o X 5 & 4 2 3 J Y / / 7./ / J 3 & 5 X * O & 4 o o & X A ^ b.b.^ ^ gXgXaXiXiXeX7X5X!.N.N.!.5X6X7XeXyXiXiXfXyXB Z A Z A $ 6 7 $ 7 6 $ @ # 7 6 6 6 6 8 $ ",
"7 6 6 # 8 7 6 7 7 6 7 7 7 7 6 6 A ^ ^ ! Z rXaXaXaXtXtXeX6X5X!.6X7X!.5X7X7XeXiXiXaXyXsXN m B V Z . X * < & * * J * 4 2 J / 6.7.7.P.8.7.L J 3 4 & * * O X < < X . A ^ ^ ! Z rXaXaXaXtXtXeX6X5X!.6X7X!.5X7X7XeXiXiXaXyXsXN m B V Z 7 8 6 $ 9 $ $ @ @ @ @ # $ # 7 6 ",
"7 7 # $ $ $ $ 6 8 $ 6 6 7 7 7 7 ^ ^ S D m yXaXiXuXaXyX6XeX6XeXeX6X7X5X6XtXyXyXaXaXaXiX; N > A S   2 < * o X & * & * 3 L 6.8.8.5 n 8.8.6.L 3 & & & X X & * < 2 X ^ ^ S D m yXaXiXuXaXyX6XeX6XeXeX6X7X5X6XtXyXyXaXaXaXiX; N > A S 9 7 6 $ $ 9 # 6 $ # # @ # # @ @ ",
"7 # 6 $ 6 $ 6 6 7 9 6 6 7 7 7 7 Q m D A B fXaXaXaXiXaXuXtXwXeXeX7XyXtXtX7XeXyXsXsXsXaXaXN Z D ^   & 2 < 2 o o * & , J Y 6.3.t.% % 8.6.6.L J < & o o o < , 2 , . Q m D A B fXaXaXaXiXaXuXtXwXeXeX7XyXtXtX7XeXyXsXsXsXaXaXN Z D ^ 6 $ # $ 6 7 6 $ 6 @ $ # # # $ # ",
"@ # 7 7 7 7 6 8 9 8 8 6 6 6 6 7 R N B N fXfXfXaXiXfXaXeXiXyXyXyXyXyXyXiXyXiXaXaXiXsXfXgXN A b.b.  * < O & * * & o , J L 6.;.3.% % Y 3.7.Y J 2 & & * * & X < 2 X R N B N fXfXfXaXiXfXaXeXiXyXyXyXyXyXyXiXyXiXaXaXiXsXfXgXN A b.b.8 6 $ # @ # $ 7 6 6 @ @ # @ @ # ",
"6 $ 6 6 6 6 $ 6 # 7 6 6 6 $ 6 6 C B N V gXfXgXaXaXaXiXaXaXyXyXtXeXyXuXuXiXiXuXiXfXaXsXaXV A b.b.  X 2 < & * o o * < J Y 6.8.8.% % 8.3.6.L 5 , * * & X & < 2 X . C B N V gXfXgXaXaXaXiXaXaXyXyXtXeXyXuXuXiXiXuXiXfXaXsXaXV A b.b.# 6 $ $ 6 6 $ # # # # # 8 8 9 8 ",
"$ 6 $ # 7 6 9 # $ # @ # # # # # D C N B ; aXfXsXaXaXiXsXyXaXyXsXsXaXsXaXaXyXyXsXsXsXiX> B A b.b.. < & & < * & & & & y L / 8.8.n 5 8.6.6.L 3 * O & * , * & , , X D C N B ; aXfXsXaXaXiXsXyXaXyXsXsXaXsXaXaXyXyXsXsXsXiX> B A b.b.$ $ 6 6 # 7 6 # 6 # # # # @ $ # ",
"6 6 7 @ @ @ @ $ $ $ $ $ $ # 6 6 S C m > > 7XsXaXaXaXyXaXiXyX7XaXaXsXsXaXsXfXaXsXfXsXE ; Z S D B   & * 2 & & * 2 < * 2 J Y 7.7.P.7.8.7.Y J 2 * O < o & , < , X X S C m > > 7XsXaXaXaXyXaXiXyX7XaXaXsXsXaXsXfXaXsXfXsXE ; Z S D B $ $ # 6 $ 6 6 6 7 $ # # # # # # ",
"6 6 7 6 7 6 8 7 8 9 7 6 6 @ $ # C N > : : : R fXaXaXaXgXaXuXfXsXaXfXyXaX> R aX7XZ : : N ~ ^ C N   & < & < 2 & * * 2 < 3 J L / 7./ 6.Y J 3 * < , < & < < & < * . C N > : : : R fXaXaXaXgXaXuXfXsXaXfXyXaX> R aX7XZ : : N ~ ^ C N # @ @ $ $ 6 6 6 7 6 8 7 6 $ # @ ",
"7 7 $ 7 7 7 $ # 6 6 8 8 6 6 # $ B V m : > : N ; : ; ; > 7XsXaXsXaXfXaX; ; ; : ; m m > Q m.b.C A   * 2 , & o o * & < < 2 3 y J L L J 5 3 < & & o * o X & < 2 & . B V m : > : N ; : ; ; > 7XsXaXsXaXfXaX; ; ; : ; m m > Q m.b.C A $ 6 $ # 6 6 $ # # $ # 7 $ $ 6 7 ",
"9 9 $ 7 # 6 6 7 6 $ $ # $ 7 6 6 S Z B V m N N V > V N V C n.fXaXsXgX> : : ; > > C C C b.n.b.D D   o 2 2 X O X * O & O < , , 3 3 3 3 < , < < & o & o * X , < O X S Z B V m N N V > V N V C n.fXaXsXgX> : : ; > > C C C b.n.b.D D 6 7 6 7 7 $ $ $ 6 $ $ 6 7 6 8 8 ",
"# # $ @ # $ 6 6 $ # # @ @ $ 6 6 D Z B B N Z Z S A A Z C A V ! ! ~ S A N : > m m B C Z ! ! E ^ E   2 * * < & . X * * < 2 * < o & o & & & & < * X o & < o * 2 < X D Z B B N Z Z S A A Z C A V ! ! ~ S A N : > m m B C Z ! ! E ^ E 6 6 6 $ 7 6 # 6 6 6 @ @ # @ 6 @ ",
"@ # @ 7 $ @ $ @ # $ @ # # # + # ^ R Z C A D E ^ b.! R A Z Z A A ~ b.E B m m m B B B V Z S S ^ b.  X 2 < & * o o * < X 2 < X & & * o , , < < & * * & X & < 2 X . ^ R Z C A D E ^ b.! R A Z Z A A ~ b.E B m m m B B B V Z S S ^ b.6 6 $ $ $ # @ + $ 6 $ # # # # # ",
"# # 7 6 7 6 6 6 6 7 $ # # $ 6 7 ~ n.^ b.b.~ S D Q D ! ^ ~ S S E ! b.! Z m > m B V B C C C E b.m.  * < O & * * * o * 2 < X & * * & & O * < < O & & * * & X < 2 X ~ n.^ b.b.~ S D Q D ! ^ ~ S S E ! b.! Z m > m B V B C C C E b.m.6 6 6 7 8 9 9 8 6 7 $ 6 6 $ $ # ",
"6 9 7 6 $ 6 7 $ $ @ # @ @ @ 6 6 m.m.b.n.b.E Z B C S ^ b.^ D S ^ b.^ b.C N N B C C S R R R b.n.m..   . . . .                     . . . . . .       .   . . . . o m.m.b.n.b.E Z B C S ^ b.^ D S ^ b.^ b.C N N B C C S R R R b.n.m.9 9 8 7 9 @ $ # $ $ 6 6 $ 6 6 $ "
};
